docs/guides/mitigating_dovi_raised_black/dovi_cinema_calibrated.cal
CAL

DESCRIPTOR "Argyll Device Calibration Curves"
ORIGINATOR "Argyll dispcal"
CREATED "2023-12-23"
DEVICE_CLASS "DISPLAY"
COLOR_REP "RGB"


NUMBER_OF_FIELDS 4
BEGIN_DATA_FORMAT
RGB_I RGB_R RGB_G RGB_B
END_DATA_FORMAT

NUMBER_OF_SETS 23
BEGIN_DATA
0.0000 0.000000 0.000000 0.000000
0.0250 0.025510 0.023980 0.018576
0.0500 0.050697 0.047203 0.038966
0.0750 0.075249 0.071182 0.059245
0.1000 0.098904 0.094016 0.078902
0.1500 0.148271 0.140789 0.118718
0.2000 0.198385 0.188947 0.159598
0.2500 0.248152 0.236620 0.198514
0.3000 0.297989 0.283663 0.237400
0.3500 0.348456 0.330736 0.277216
0.4000 0.399592 0.377979 0.316432
0.4500 0.448660 0.423852 0.355348
0.5000 0.499504 0.472041 0.395328
0.5500 0.549340 0.518983 0.434814
0.6000 0.599208 0.565957 0.475030
0.6500 0.649044 0.611699 0.515246
0.7000 0.698911 0.659472 0.554462
0.7500 0.748748 0.707685 0.593648
0.8000 0.797615 0.754958 0.632064
0.8500 0.848429 0.804146 0.670813
0.9000 0.899696 0.852220 0.708960
0.9500 0.949533 0.900632 0.747446
1.0000 1.000000 0.948405 0.785962
END_DATA
