tests/expected/1dlut_14.cal
CAL

DESCRIPTOR "Argyll Device Calibration Curves"
ORIGINATOR "Argyll dispcal"
CREATED "2023-12-23"
DEVICE_CLASS "DISPLAY"
COLOR_REP "RGB"


NUMBER_OF_FIELDS 4
BEGIN_DATA_FORMAT
RGB_I RGB_R RGB_G RGB_B
END_DATA_FORMAT

NUMBER_OF_SETS 23
BEGIN_DATA
0.0000 0.000000 0.000000 0.000000
0.0250 0.025422 0.024110 0.019990
0.0500 0.049867 0.047273 0.039216
0.0750 0.075259 0.071352 0.059175
0.1000 0.099704 0.094516 0.078402
0.1500 0.149571 0.141789 0.117618
0.2000 0.200385 0.189947 0.157598
0.2500 0.250252 0.237220 0.196814
0.3000 0.300089 0.284463 0.236000
0.3500 0.349956 0.331736 0.275216
0.4000 0.399792 0.378979 0.314432
0.4500 0.449660 0.426252 0.353648
0.5000 0.500504 0.474441 0.393628
0.5500 0.550340 0.521683 0.432814
0.6000 0.600208 0.568957 0.472030
0.6500 0.650044 0.616199 0.511246
0.7000 0.699911 0.663472 0.550462
0.7500 0.749748 0.710685 0.589648
0.8000 0.799615 0.757958 0.628864
0.8500 0.850429 0.806146 0.668813
0.9000 0.900296 0.853420 0.708060
0.9500 0.950133 0.900632 0.747246
1.0000 1.000000 0.947905 0.786462
END_DATA
