docs/guides/setting_presets/sdr-cinema-g268-o84-234n-33p-3dlut.cube
# Created by ArgyllCMS
LUT_3D_SIZE 33
DOMAIN_MIN 0.0 0.0 0.0
DOMAIN_MAX 1.0 1.0 1.0
0.000000 0.000000 0.000000
0.031250 0.000000 0.000000
0.062500 0.000000 0.000000
0.072611 0.009726 0.000000
0.099800 0.025894 0.016282
0.127103 0.034438 0.017697
0.153361 0.040609 0.019536
0.178538 0.044929 0.022709
0.204759 0.047656 0.026138
0.232173 0.052211 0.029011
0.260225 0.058558 0.031782
0.288699 0.065773 0.035649
0.317666 0.073159 0.041594
0.347892 0.080391 0.048569
0.378200 0.087511 0.055694
0.409128 0.094867 0.063122
0.438548 0.103657 0.070395
0.467615 0.113372 0.077904
0.497021 0.123849 0.085197
0.527228 0.134975 0.092379
0.557194 0.146502 0.098730
0.588504 0.157526 0.105159
0.622079 0.166527 0.112034
0.656357 0.172676 0.119293
0.689493 0.176918 0.126910
0.721018 0.181677 0.134507
0.753139 0.189185 0.141845
0.785630 0.200164 0.149244
0.820751 0.214442 0.156424
0.852895 0.230338 0.163985
0.883499 0.242439 0.171029
0.913014 0.251413 0.177241
0.942341 0.260085 0.183354
0.000000 0.031250 0.000000
0.031250 0.031250 0.000000
0.062500 0.031250 0.000000
0.072611 0.040671 0.000000
0.099800 0.056333 0.016282
0.127103 0.064611 0.017697
0.153361 0.070590 0.019536
0.178538 0.074774 0.022709
0.204759 0.077417 0.026138
0.232173 0.081829 0.029011
0.260225 0.087978 0.031782
0.288699 0.094967 0.035649
0.317666 0.102122 0.041594
0.347892 0.109128 0.048569
0.378200 0.116026 0.055694
0.409128 0.123152 0.063122
0.438548 0.131667 0.070395
0.467615 0.141078 0.077904
0.497021 0.151228 0.085197
0.527228 0.162005 0.092379
0.557194 0.173173 0.098730
0.588504 0.183852 0.105159
0.622079 0.192572 0.112034
0.656357 0.198529 0.119293
0.689493 0.202639 0.126910
0.721018 0.207249 0.134507
0.753139 0.214522 0.141845
0.785630 0.225157 0.149244
0.820751 0.238989 0.156424
0.852895 0.254388 0.163985
0.883499 0.266112 0.171029
0.913014 0.274805 0.177241
0.942341 0.283207 0.183354
0.000000 0.062500 0.000000
0.031250 0.062500 0.000000
0.062500 0.062500 0.000000
0.072611 0.071616 0.000000
0.099800 0.086772 0.016282
0.127103 0.094783 0.017697
0.153361 0.100570 0.019536
0.178538 0.104620 0.022709
0.204759 0.107177 0.026138
0.232173 0.111447 0.029011
0.260225 0.117397 0.031782
0.288699 0.124161 0.035649
0.317666 0.131085 0.041594
0.347892 0.137865 0.048569
0.378200 0.144540 0.055694
0.409128 0.151436 0.063122
0.438548 0.159676 0.070395
0.467615 0.168784 0.077904
0.497021 0.178606 0.085197
0.527228 0.189036 0.092379
0.557194 0.199843 0.098730
0.588504 0.210178 0.105159
0.622079 0.218617 0.112034
0.656357 0.224383 0.119293
0.689493 0.228359 0.126910
0.721018 0.232821 0.134507
0.753139 0.239859 0.141845
0.785630 0.250151 0.149244
0.820751 0.263537 0.156424
0.852895 0.278438 0.163985
0.883499 0.289784 0.171029
0.913014 0.298198 0.177241
0.942341 0.306329 0.183354
0.011876 0.081330 0.005197
0.042753 0.081330 0.005197
0.073631 0.081330 0.005197
0.079746 0.084863 0.006292
0.100681 0.091900 0.017024
0.127373 0.098171 0.018470
0.153602 0.103634 0.020210
0.178831 0.107447 0.023070
0.205078 0.110162 0.026480
0.232455 0.114430 0.029501
0.260430 0.120209 0.032118
0.288830 0.126515 0.035755
0.317757 0.133218 0.041670
0.347959 0.139815 0.048633
0.378205 0.146118 0.055763
0.409111 0.152987 0.063179
0.438520 0.161086 0.070438
0.467616 0.169954 0.077973
0.497029 0.179655 0.085263
0.527238 0.189983 0.092448
0.557206 0.200726 0.098777
0.588533 0.210971 0.105238
0.622108 0.219359 0.112105
0.656376 0.225113 0.119345
0.689510 0.229099 0.126961
0.721033 0.233529 0.134556
0.753152 0.240518 0.141893
0.785640 0.250807 0.149287
0.820755 0.264189 0.156464
0.852900 0.279016 0.164034
0.883504 0.290305 0.171080
0.913018 0.298700 0.177290
0.942345 0.306806 0.183400
0.017964 0.108462 0.009173
0.048652 0.108462 0.009173
0.079340 0.108462 0.009173
0.084537 0.108711 0.012789
0.102882 0.110009 0.019085
0.128699 0.113678 0.019861
0.155041 0.117728 0.020382
0.180434 0.120137 0.024626
0.206665 0.123060 0.028264
0.233796 0.126507 0.031161
0.261317 0.131925 0.032668
0.289436 0.136507 0.036333
0.318257 0.142027 0.041949
0.348257 0.147399 0.049056
0.378271 0.152986 0.056152
0.409046 0.159237 0.063558
0.438366 0.167096 0.070684
0.467622 0.174914 0.078337
0.497114 0.183744 0.085652
0.527290 0.193805 0.092812
0.557269 0.204116 0.099044
0.588688 0.213972 0.105667
0.622266 0.222121 0.112489
0.656493 0.227850 0.119632
0.689610 0.231851 0.127240
0.721109 0.236160 0.134813
0.753213 0.243009 0.142148
0.785690 0.253211 0.149498
0.820777 0.266575 0.156674
0.852938 0.280962 0.164313
0.883532 0.292138 0.171333
0.913043 0.300432 0.177528
0.942369 0.308466 0.183629
0.026826 0.135306 0.014187
0.057237 0.135306 0.014187
0.087648 0.135306 0.014187
0.091296 0.135434 0.014942
0.106021 0.136299 0.016412
0.132324 0.137894 0.016344
0.158706 0.140114 0.015851
0.183254 0.142182 0.023603
0.208817 0.144205 0.028799
0.235746 0.146843 0.032304
0.262717 0.149941 0.034003
0.290579 0.153830 0.037557
0.319169 0.157678 0.043414
0.348764 0.162245 0.050076
0.378327 0.166939 0.057018
0.408938 0.171964 0.064473
0.438121 0.178647 0.071494
0.467714 0.185214 0.079398
0.497412 0.192911 0.086631
0.527427 0.202216 0.093630
0.557493 0.211603 0.099778
0.589004 0.220882 0.106510
0.622564 0.228612 0.113324
0.656768 0.233901 0.120393
0.689840 0.237820 0.127886
0.721289 0.241932 0.135399
0.753356 0.248924 0.142693
0.785800 0.258745 0.149982
0.820853 0.271763 0.157179
0.853015 0.285459 0.164971
0.883618 0.296170 0.171934
0.913125 0.304256 0.178092
0.942444 0.312061 0.184157
0.040415 0.161095 0.019911
0.070400 0.161095 0.019911
0.100386 0.161095 0.019911
0.103232 0.161244 0.020038
0.116846 0.161877 0.020530
0.139304 0.163124 0.020853
0.163050 0.164090 0.021418
0.186573 0.165429 0.025016
0.211120 0.167424 0.029533
0.237276 0.169722 0.034066
0.264256 0.171863 0.037210
0.292141 0.174416 0.041073
0.320325 0.177942 0.046439
0.349523 0.181301 0.053107
0.378662 0.185368 0.059745
0.409149 0.189845 0.066886
0.438741 0.194892 0.074036
0.468486 0.200262 0.081583
0.497972 0.206955 0.088512
0.527983 0.215270 0.095247
0.558088 0.223687 0.101386
0.589571 0.232063 0.107993
0.623142 0.238889 0.114716
0.657254 0.243898 0.121691
0.690305 0.247593 0.128985
0.721654 0.251857 0.136383
0.753611 0.258540 0.143622
0.785984 0.268139 0.150930
0.821063 0.280095 0.158234
0.853283 0.292838 0.166124
0.883818 0.302946 0.172975
0.913304 0.310707 0.179060
0.942614 0.318261 0.185069
0.060129 0.188274 0.032333
0.089498 0.188274 0.032333
0.118866 0.188274 0.032333
0.121139 0.188373 0.032474
0.131602 0.188898 0.033329
0.149301 0.189511 0.033782
0.169351 0.190030 0.032225
0.190805 0.191370 0.033187
0.214336 0.193399 0.037054
0.240023 0.195172 0.041148
0.266605 0.196703 0.044004
0.294050 0.198760 0.047902
0.321916 0.201228 0.052808
0.350366 0.204117 0.057975
0.379444 0.207145 0.064566
0.410001 0.210938 0.071382
0.439925 0.215069 0.078416
0.469735 0.219924 0.084985
0.499022 0.225941 0.091693
0.528935 0.232906 0.097633
0.559046 0.239978 0.103988
0.590410 0.247412 0.110252
0.623930 0.253441 0.116726
0.658037 0.257729 0.123681
0.691000 0.261394 0.130773
0.722251 0.265866 0.138007
0.754159 0.272259 0.145258
0.786503 0.280999 0.152579
0.821538 0.291764 0.159896
0.853558 0.303327 0.167792
0.884044 0.312669 0.174576
0.913532 0.319852 0.180575
0.942845 0.326932 0.186511
0.079002 0.216824 0.045325
0.107781 0.216824 0.045325
0.136560 0.216824 0.045325
0.138236 0.216866 0.045258
0.145877 0.217097 0.045182
0.159187 0.217395 0.043873
0.176389 0.217749 0.042661
0.196821 0.218637 0.043649
0.219078 0.220502 0.047049
0.244009 0.222160 0.050172
0.270135 0.223728 0.053180
0.296634 0.225522 0.056703
0.323831 0.227374 0.061132
0.351883 0.229542 0.066674
0.380521 0.232266 0.071962
0.410653 0.235367 0.078155
0.440951 0.238706 0.084129
0.470946 0.242779 0.090005
0.500333 0.247621 0.095650
0.530145 0.253373 0.101533
0.560118 0.259498 0.107557
0.591384 0.266086 0.113189
0.624975 0.271401 0.119592
0.659087 0.275243 0.126119
0.692009 0.278598 0.133127
0.723150 0.282830 0.140298
0.754987 0.288831 0.147483
0.787215 0.296799 0.154789
0.821972 0.306348 0.162247
0.853948 0.316677 0.170136
0.884393 0.325204 0.176947
0.913843 0.331912 0.182787
0.943107 0.338585 0.188565
0.095270 0.246352 0.055350
0.123541 0.246352 0.055350
0.151812 0.246352 0.055350
0.153203 0.246366 0.055288
0.158667 0.246479 0.055009
0.169550 0.246672 0.054316
0.185122 0.246966 0.054315
0.203924 0.247684 0.055058
0.225506 0.248790 0.057074
0.249358 0.250299 0.059931
0.274780 0.251905 0.064968
0.299814 0.253274 0.068196
0.326015 0.254754 0.071767
0.353769 0.256521 0.076041
0.382391 0.258579 0.080961
0.413104 0.261024 0.085510
0.443002 0.263882 0.090348
0.472504 0.267254 0.095502
0.501345 0.271709 0.100700
0.530924 0.276675 0.106198
0.560791 0.282192 0.111261
0.592367 0.287454 0.117019
0.626337 0.291631 0.122940
0.660448 0.294904 0.129400
0.693284 0.298008 0.136263
0.724192 0.301963 0.143396
0.755851 0.307812 0.150514
0.787878 0.314892 0.157829
0.822355 0.323331 0.165318
0.854278 0.332742 0.173218
0.884779 0.340458 0.179807
0.914217 0.346547 0.185569
0.943514 0.352532 0.191271
0.110791 0.276026 0.067411
0.138577 0.276026 0.067411
0.166363 0.276026 0.067411
0.167508 0.276040 0.067418
0.171770 0.276076 0.067405
0.181390 0.276097 0.067399
0.194913 0.276425 0.067542
0.212385 0.276865 0.068461
0.232855 0.277496 0.069736
0.255175 0.278515 0.072026
0.278743 0.279972 0.075126
0.303327 0.281454 0.078275
0.329260 0.283059 0.081365
0.356762 0.284532 0.084717
0.385659 0.286236 0.088597
0.416246 0.287946 0.093087
0.445314 0.290257 0.097405
0.474101 0.293087 0.101993
0.502590 0.297002 0.106512
0.532059 0.301472 0.111184
0.561954 0.305985 0.116212
0.593946 0.310095 0.121546
0.628199 0.313460 0.127308
0.662123 0.316354 0.133621
0.694619 0.319369 0.140295
0.725107 0.323017 0.147354
0.756237 0.328403 0.154330
0.788061 0.334983 0.161591
0.822714 0.342758 0.169175
0.854869 0.351244 0.176965
0.885429 0.358200 0.183401
0.914830 0.363648 0.189004
0.944028 0.369067 0.194477
0.127009 0.305145 0.079272
0.154288 0.305145 0.079272
0.181567 0.305145 0.079272
0.182453 0.305162 0.079283
0.185931 0.305252 0.079343
0.193660 0.305425 0.079508
0.205583 0.305649 0.080041
0.221442 0.305763 0.080839
0.240430 0.306056 0.082116
0.261275 0.306950 0.083579
0.283991 0.308166 0.085576
0.308061 0.309654 0.087909
0.333979 0.311426 0.090656
0.360778 0.312813 0.094033
0.389414 0.314218 0.097391
0.418986 0.315735 0.101006
0.447497 0.317728 0.104986
0.475744 0.320399 0.108968
0.504317 0.323748 0.112895
0.533818 0.327322 0.117343
0.564032 0.330829 0.121872
0.596244 0.334003 0.126937
0.630506 0.336927 0.132608
0.663883 0.339583 0.138689
0.695913 0.342468 0.145230
0.725951 0.345912 0.152161
0.756652 0.351004 0.159047
0.788603 0.357533 0.166274
0.823432 0.365082 0.173654
0.855916 0.372809 0.180975
0.886515 0.378825 0.187222
0.915766 0.383520 0.192685
0.944843 0.388126 0.198150
0.142331 0.334910 0.091202
0.169131 0.334910 0.091202
0.195931 0.334910 0.091202
0.196714 0.334918 0.091223
0.199691 0.334959 0.091337
0.206160 0.335100 0.091562
0.216340 0.335214 0.092076
0.230647 0.335399 0.092819
0.248343 0.335704 0.093897
0.268409 0.336347 0.095056
0.290515 0.337329 0.096670
0.314193 0.338502 0.098678
0.339431 0.340005 0.101044
0.365510 0.341541 0.103762
0.393486 0.343058 0.106637
0.422137 0.344546 0.109601
0.449992 0.346447 0.112966
0.478140 0.348748 0.116431
0.506926 0.351388 0.120175
0.536550 0.354153 0.124054
0.566738 0.357190 0.128461
0.598724 0.360075 0.133264
0.632798 0.362725 0.138625
0.665632 0.365310 0.144521
0.697339 0.368041 0.150973
0.727073 0.371608 0.157693
0.757728 0.377075 0.164408
0.789980 0.383405 0.171478
0.824803 0.390176 0.178463
0.857398 0.396899 0.185603
0.887880 0.402176 0.191601
0.917025 0.406041 0.196947
0.946014 0.409874 0.202289
0.156586 0.365942 0.102345
0.182941 0.365942 0.102345
0.209296 0.365942 0.102345
0.210007 0.365948 0.102364
0.212500 0.366000 0.102460
0.217993 0.366117 0.102704
0.227623 0.366271 0.103209
0.240855 0.366450 0.104025
0.257389 0.366758 0.105075
0.276765 0.367193 0.106310
0.298116 0.367840 0.107733
0.320824 0.368905 0.109314
0.345040 0.370153 0.111248
0.370235 0.371609 0.113461
0.397700 0.373012 0.116002
0.425633 0.374563 0.118610
0.453276 0.376512 0.121361
0.481326 0.378575 0.124457
0.510110 0.380821 0.127880
0.539418 0.383274 0.131653
0.569341 0.385835 0.135913
0.601051 0.388517 0.140444
0.634998 0.390891 0.145673
0.667695 0.393212 0.151438
0.699280 0.396066 0.157506
0.728817 0.399840 0.163953
0.759498 0.405035 0.170375
0.791890 0.410346 0.177089
0.826557 0.415837 0.183809
0.859092 0.421373 0.190512
0.889372 0.426025 0.196287
0.918511 0.429679 0.201473
0.947474 0.433352 0.206688
0.171768 0.398074 0.113621
0.197649 0.398074 0.113621
0.223529 0.398074 0.113621
0.224187 0.398080 0.113641
0.226553 0.398112 0.113747
0.231676 0.398233 0.113979
0.240323 0.398384 0.114453
0.252448 0.398575 0.115190
0.267729 0.398880 0.116175
0.285789 0.399220 0.117285
0.305835 0.399866 0.118369
0.327671 0.400697 0.119606
0.351032 0.401539 0.121249
0.375856 0.402456 0.123279
0.402964 0.403502 0.125335
0.430289 0.404863 0.127581
0.457437 0.406441 0.130253
0.485024 0.408142 0.133157
0.513699 0.410029 0.136509
0.542412 0.412218 0.140111
0.572060 0.414413 0.144062
0.603654 0.416642 0.148516
0.637834 0.418734 0.153506
0.670203 0.421015 0.159006
0.701617 0.423972 0.164740
0.731010 0.428015 0.170920
0.761590 0.432715 0.176902
0.793848 0.437389 0.183149
0.828242 0.441960 0.189555
0.860708 0.446481 0.195980
0.891029 0.450358 0.201504
0.920157 0.453801 0.206482
0.949073 0.457320 0.211481
0.189361 0.428310 0.125014
0.214691 0.428310 0.125014
0.240021 0.428310 0.125014
0.240598 0.428321 0.125034
0.242574 0.428377 0.125137
0.247119 0.428482 0.125388
0.254701 0.428636 0.125765
0.265641 0.428820 0.126335
0.279539 0.429063 0.127073
0.296269 0.429352 0.127886
0.315069 0.429828 0.128888
0.336106 0.430326 0.130087
0.358732 0.430793 0.131581
0.383136 0.431433 0.133240
0.409836 0.432343 0.134949
0.436239 0.433513 0.137052
0.462737 0.434966 0.139647
0.489581 0.436624 0.142447
0.517767 0.438464 0.145553
0.546192 0.440432 0.149209
0.575861 0.442472 0.153070
0.607524 0.444518 0.157186
0.641397 0.446576 0.162049
0.673222 0.449149 0.167175
0.704161 0.452417 0.172520
0.733201 0.456229 0.178087
0.763505 0.460606 0.183819
0.795811 0.464766 0.189836
0.830091 0.468748 0.195919
0.862469 0.472295 0.202085
0.892695 0.475700 0.207289
0.921741 0.478736 0.211988
0.950635 0.481766 0.216791
0.208369 0.457422 0.136388
0.233106 0.457422 0.136388
0.257842 0.457422 0.136388
0.258362 0.457431 0.136400
0.260059 0.457478 0.136466
0.263931 0.457571 0.136634
0.270744 0.457723 0.136907
0.280504 0.457930 0.137331
0.292978 0.458187 0.137948
0.308269 0.458524 0.138710
0.326180 0.458827 0.139695
0.346491 0.459065 0.140859
0.368579 0.459402 0.142155
0.392791 0.459922 0.143571
0.418028 0.460814 0.145258
0.443160 0.462067 0.147248
0.468690 0.463711 0.149561
0.494695 0.465571 0.152336
0.522496 0.467557 0.155338
0.550824 0.469482 0.158697
0.580675 0.471522 0.162383
0.612407 0.473632 0.166577
0.645399 0.476000 0.171114
0.676505 0.478724 0.175813
0.706760 0.481891 0.180768
0.735550 0.485462 0.185954
0.765679 0.489183 0.191418
0.798194 0.492741 0.197093
0.832280 0.495680 0.202921
0.864628 0.498768 0.208688
0.894627 0.501490 0.213554
0.923513 0.504097 0.218105
0.952304 0.507113 0.222611
0.227380 0.487060 0.147558
0.251522 0.487060 0.147558
0.275664 0.487060 0.147558
0.276142 0.487068 0.147572
0.277591 0.487114 0.147627
0.281067 0.487213 0.147759
0.287109 0.487362 0.148020
0.295789 0.487564 0.148441
0.307263 0.487828 0.149116
0.321369 0.488128 0.149958
0.338401 0.488397 0.150914
0.357617 0.488573 0.151939
0.379092 0.488814 0.153010
0.402658 0.489370 0.154229
0.426294 0.490401 0.155711
0.450101 0.491834 0.157574
0.474756 0.493742 0.159736
0.500142 0.495831 0.162318
0.527388 0.497938 0.165311
0.555821 0.499841 0.168628
0.585797 0.501971 0.172457
0.617419 0.504313 0.176418
0.649554 0.506778 0.180715
0.679900 0.509559 0.185205
0.709305 0.512581 0.189768
0.738191 0.515638 0.194492
0.768363 0.518535 0.199590
0.801331 0.521056 0.204977
0.834947 0.523524 0.210447
0.866916 0.526428 0.215660
0.896681 0.528801 0.220299
0.925586 0.530765 0.224521
0.954266 0.532959 0.228892
0.245376 0.518393 0.158475
0.268956 0.518393 0.158475
0.292536 0.518393 0.158475
0.292983 0.518401 0.158489
0.294334 0.518441 0.158550
0.297316 0.518549 0.158680
0.302892 0.518633 0.159031
0.310902 0.518794 0.159568
0.321438 0.519077 0.160222
0.334869 0.519441 0.161073
0.350726 0.519839 0.162006
0.368960 0.520044 0.162892
0.389523 0.520360 0.163837
0.411730 0.521004 0.164953
0.434212 0.522113 0.166383
0.457109 0.523565 0.168122
0.480935 0.525393 0.170202
0.506216 0.527309 0.172679
0.532904 0.529433 0.175671
0.561009 0.531502 0.179043
0.590877 0.533853 0.182960
0.622401 0.536224 0.186929
0.653838 0.538717 0.191033
0.683500 0.541083 0.195132
0.712269 0.543666 0.199254
0.741285 0.545873 0.203863
0.771728 0.548084 0.208510
0.804993 0.550021 0.213418
0.838045 0.552436 0.218401
0.869599 0.555390 0.223319
0.898992 0.557569 0.227566
0.927650 0.558699 0.231437
0.956295 0.560205 0.235617
0.261780 0.551326 0.170046
0.284847 0.551326 0.170046
0.307915 0.551326 0.170046
0.308342 0.551332 0.170062
0.309621 0.551358 0.170148
0.312438 0.551423 0.170339
0.317353 0.551542 0.170679
0.324943 0.551811 0.171179
0.334818 0.552134 0.171831
0.347073 0.552775 0.172528
0.361669 0.553317 0.173380
0.379187 0.553674 0.174173
0.399201 0.554157 0.174975
0.420131 0.554917 0.176003
0.441506 0.556027 0.177184
0.463866 0.557341 0.178901
0.487303 0.558873 0.180956
0.512566 0.560524 0.183420
0.539166 0.562696 0.186630
0.566965 0.564802 0.190158
0.596644 0.567236 0.194010
0.627943 0.569457 0.197656
0.658472 0.571617 0.201498
0.687689 0.573634 0.205154
0.715850 0.575529 0.209178
0.745180 0.577390 0.213238
0.775729 0.579081 0.217650
0.809429 0.581127 0.222074
0.841522 0.583464 0.226732
0.872544 0.587057 0.231197
0.901643 0.588626 0.235261
0.930141 0.588268 0.239006
0.958540 0.588799 0.242786
0.276625 0.587053 0.181756
0.299228 0.587053 0.181756
0.321832 0.587053 0.181756
0.322228 0.587062 0.181768
0.323403 0.587108 0.181838
0.326168 0.587207 0.182005
0.330772 0.587401 0.182288
0.337703 0.587703 0.182723
0.346846 0.588199 0.183211
0.358186 0.588933 0.183813
0.372547 0.589409 0.184510
0.389462 0.589852 0.185296
0.408645 0.590314 0.186083
0.428393 0.591223 0.187125
0.449301 0.592148 0.188627
0.471461 0.593188 0.190392
0.494645 0.594460 0.192501
0.520012 0.595843 0.194928
0.546325 0.597768 0.198219
0.574129 0.599961 0.201756
0.603466 0.602109 0.205528
0.634527 0.603702 0.208784
0.663991 0.605295 0.212030
0.692526 0.606674 0.215335
0.720272 0.608222 0.218844
0.749500 0.609727 0.222596
0.780424 0.611581 0.226610
0.814028 0.613748 0.230751
0.845336 0.616667 0.235092
0.876036 0.619926 0.239318
0.904892 0.621576 0.243116
0.932870 0.620312 0.246697
0.961163 0.619560 0.250419
0.291019 0.623713 0.193067
0.313173 0.623713 0.193067
0.335327 0.623713 0.193067
0.335705 0.623721 0.193079
0.336778 0.623763 0.193143
0.339305 0.623856 0.193287
0.343768 0.624000 0.193517
0.350396 0.624220 0.193866
0.358965 0.624590 0.194323
0.370442 0.624950 0.194944
0.384133 0.625301 0.195646
0.401034 0.625757 0.196571
0.418921 0.626314 0.197565
0.438205 0.626997 0.198873
0.458634 0.627785 0.200670
0.480653 0.628602 0.202856
0.504013 0.629758 0.205294
0.529002 0.631005 0.207917
0.555082 0.632667 0.210853
0.582682 0.634356 0.213900
0.611803 0.636021 0.216958
0.641701 0.637128 0.219861
0.669852 0.637986 0.222552
0.697701 0.638971 0.225286
0.724923 0.640285 0.228511
0.754170 0.641957 0.231851
0.784964 0.643891 0.235507
0.818669 0.646201 0.239311
0.849394 0.648832 0.243426
0.880120 0.651931 0.247608
0.908780 0.653210 0.251409
0.936486 0.653233 0.254793
0.964227 0.652490 0.258199
0.307085 0.658006 0.204650
0.328737 0.658006 0.204650
0.350388 0.658006 0.204650
0.350766 0.658010 0.204661
0.351825 0.658030 0.204716
0.354205 0.658084 0.204841
0.358313 0.658176 0.205052
0.364696 0.658325 0.205430
0.373454 0.658475 0.205951
0.384242 0.658700 0.206551
0.398206 0.659067 0.207498
0.413838 0.659369 0.208496
0.431054 0.659897 0.209918
0.449701 0.660418 0.211496
0.469924 0.661121 0.213436
0.491208 0.662026 0.215478
0.514492 0.663021 0.217851
0.538566 0.664329 0.220062
0.563871 0.665672 0.222678
0.591216 0.667099 0.225209
0.619602 0.668452 0.227734
0.648228 0.669597 0.230134
0.675687 0.670777 0.232484
0.702996 0.671620 0.234907
0.730153 0.673229 0.237686
0.758919 0.674815 0.240812
0.790105 0.676811 0.244315
0.822969 0.678908 0.247929
0.853819 0.681410 0.251971
0.884703 0.683776 0.256221
0.913388 0.684989 0.259757
0.940645 0.684753 0.263065
0.967960 0.684530 0.266441
0.326034 0.691500 0.216589
0.347093 0.691500 0.216589
0.368152 0.691500 0.216589
0.368510 0.691503 0.216601
0.369510 0.691520 0.216665
0.371888 0.691550 0.216821
0.375854 0.691615 0.217083
0.381837 0.691704 0.217494
0.390420 0.691884 0.218113
0.401175 0.692136 0.218900
0.413967 0.692503 0.219955
0.428563 0.692935 0.221266
0.444864 0.693445 0.222783
0.462587 0.694068 0.224501
0.481892 0.694780 0.226327
0.502361 0.695637 0.228124
0.524708 0.696651 0.230008
0.548035 0.697779 0.231937
0.572578 0.698996 0.233954
0.598907 0.700291 0.236121
0.626823 0.701363 0.238062
0.654374 0.702274 0.240150
0.681415 0.703493 0.242224
0.708504 0.704418 0.244494
0.735935 0.705678 0.247140
0.764625 0.707080 0.250021
0.795453 0.708697 0.253378
0.828025 0.710635 0.256996
0.858660 0.712541 0.260959
0.889964 0.714746 0.265154
0.918483 0.715861 0.268769
0.945368 0.716340 0.271641
0.972396 0.716095 0.274752
0.345344 0.725495 0.229281
0.365800 0.725495 0.229281
0.386256 0.725495 0.229281
0.386607 0.725500 0.229294
0.387609 0.725526 0.229363
0.389916 0.725581 0.229525
0.393904 0.725662 0.229814
0.399799 0.725816 0.230261
0.407545 0.726039 0.230877
0.417259 0.726320 0.231625
0.428918 0.726703 0.232583
0.442427 0.727233 0.233826
0.457513 0.727864 0.235024
0.474398 0.728578 0.236613
0.492450 0.729340 0.237936
0.512637 0.730219 0.239536
0.533923 0.730990 0.240968
0.556384 0.732024 0.242632
0.580476 0.732883 0.244368
0.605949 0.733909 0.246324
0.633897 0.734992 0.248124
0.660878 0.735784 0.250034
0.687974 0.737162 0.251945
0.714476 0.738021 0.254222
0.742428 0.739335 0.256823
0.770950 0.740443 0.259799
0.801957 0.742171 0.263044
0.833366 0.743770 0.266545
0.864355 0.745743 0.270307
0.895120 0.747642 0.274335
0.923839 0.748181 0.277639
0.950638 0.746830 0.280614
0.977262 0.747478 0.283551
0.366091 0.761348 0.242412
0.385898 0.761348 0.242412
0.405705 0.761348 0.242412
0.406031 0.761353 0.242424
0.406901 0.761374 0.242493
0.408996 0.761415 0.242659
0.412502 0.761448 0.242914
0.417714 0.761563 0.243345
0.424659 0.761776 0.243970
0.433526 0.762006 0.244715
0.444169 0.762289 0.245505
0.456456 0.762645 0.246342
0.470752 0.763109 0.247395
0.486522 0.763607 0.248382
0.503897 0.764086 0.249446
0.523296 0.764739 0.250685
0.543729 0.765192 0.251958
0.565666 0.765772 0.253371
0.589541 0.766296 0.254988
0.615094 0.767197 0.256610
0.642122 0.767945 0.258376
0.668906 0.768984 0.260292
0.695410 0.770032 0.262194
0.721730 0.771233 0.264463
0.749085 0.772299 0.266993
0.777785 0.773774 0.269837
0.808762 0.775196 0.272928
0.839623 0.776954 0.276340
0.870042 0.778524 0.280126
0.900359 0.780358 0.283825
0.928682 0.780605 0.287027
0.955934 0.779800 0.289603
0.982555 0.778208 0.292429
0.387054 0.796992 0.255675
0.406206 0.796992 0.255675
0.425358 0.796992 0.255675
0.425664 0.796991 0.255685
0.426449 0.796986 0.255741
0.428290 0.796974 0.255872
0.431467 0.796943 0.256103
0.436112 0.797068 0.256524
0.442384 0.797206 0.257019
0.450292 0.797299 0.257406
0.460127 0.797506 0.257936
0.471768 0.797713 0.258659
0.484819 0.797920 0.259293
0.499755 0.798265 0.260042
0.516783 0.798559 0.261013
0.534921 0.799063 0.261878
0.554789 0.799437 0.263033
0.576105 0.800235 0.264256
0.599761 0.800886 0.265681
0.625428 0.801883 0.267205
0.651497 0.803032 0.268823
0.677443 0.804213 0.270597
0.703592 0.805520 0.272493
0.729048 0.806712 0.274903
0.756106 0.808092 0.277526
0.784791 0.809380 0.280474
0.816750 0.810693 0.283611
