docs/guides/setting_presets/sdr-expert1-g220-o43-138n-33p-3dlut.cube
# Created by ArgyllCMS
LUT_3D_SIZE 5
DOMAIN_MIN 0.0 0.0 0.0
DOMAIN_MAX 1.0 1.0 1.0
0.000000 0.000000 0.000000
0.231638 0.055657 0.025472
0.466327 0.104246 0.069773
0.702839 0.163332 0.112568
0.935997 0.229158 0.155699
0.092993 0.248707 0.054509
0.249441 0.252325 0.060278
0.471712 0.270138 0.088704
0.705315 0.295993 0.122470
0.937542 0.338665 0.163038
0.215598 0.488537 0.132980
0.320636 0.490767 0.135557
0.502087 0.499792 0.149491
0.721217 0.514181 0.173729
0.952583 0.533662 0.205587
0.333672 0.745710 0.214582
0.413500 0.747048 0.216854
0.558777 0.750098 0.225363
0.761183 0.759272 0.241266
0.978504 0.773313 0.262958
0.469632 0.987623 0.296903
0.526663 0.988653 0.297990
0.638142 0.994838 0.303948
0.818692 1.000000 0.314104
1.000000 1.000000 0.322007
0.023189 0.023424 0.240814
0.236322 0.050787 0.244238
0.467003 0.103943 0.252449
0.701617 0.159996 0.269348
0.935916 0.224632 0.292160
0.094242 0.248585 0.246637
0.244752 0.246477 0.245798
0.469214 0.265772 0.254904
0.704073 0.293694 0.271262
0.937125 0.337560 0.294438
0.207284 0.490080 0.275030
0.315886 0.490700 0.276860
0.500337 0.500469 0.285648
0.720589 0.515844 0.299630
0.952882 0.534859 0.320082
0.330779 0.741865 0.323890
0.410350 0.743567 0.324946
0.555957 0.749998 0.331722
0.759663 0.757501 0.343885
0.978688 0.770166 0.359538
0.462338 0.990443 0.385234
0.521430 0.990776 0.385816
0.636464 0.996530 0.389296
0.817098 1.000000 0.399546
1.000000 1.000000 0.405252
0.050202 0.059564 0.479785
0.242024 0.074615 0.478980
0.469870 0.116420 0.482111
0.701564 0.171269 0.493107
0.938721 0.230840 0.506787
0.107874 0.254922 0.480279
0.253085 0.254121 0.481159
0.472760 0.270521 0.486179
0.706881 0.300741 0.496286
0.939994 0.337923 0.508550
0.217665 0.493165 0.492110
0.316539 0.493126 0.494605
0.489463 0.493151 0.494604
0.712229 0.510706 0.504226
0.947546 0.530871 0.517681
0.330880 0.741852 0.518689
0.406246 0.740582 0.518013
0.547992 0.741957 0.520008
0.749915 0.751749 0.526823
0.972309 0.765630 0.537300
0.454901 0.987792 0.550015
0.513763 0.987849 0.549824
0.627228 0.991673 0.552317
0.806274 0.999922 0.560393
1.000000 1.000000 0.564197
0.092427 0.096115 0.727814
0.249302 0.107076 0.729185
0.471683 0.143446 0.729619
0.705874 0.188115 0.736162
0.941438 0.242471 0.744778
0.126128 0.267292 0.725347
0.260000 0.268008 0.728115
0.476298 0.284058 0.729101
0.708681 0.310644 0.734953
0.941699 0.347756 0.744777
0.224507 0.499196 0.732827
0.322130 0.500450 0.732967
0.496855 0.501046 0.730947
0.716182 0.514226 0.737841
0.947534 0.534156 0.747872
0.337041 0.745663 0.745854
0.412473 0.745187 0.745618
0.548353 0.742876 0.744451
0.738018 0.743828 0.742612
0.957521 0.757667 0.750917
0.459401 0.991923 0.769822
0.517104 0.991537 0.769959
0.621770 0.989287 0.767328
0.792957 0.989450 0.766651
1.000000 1.000000 0.774733
0.151495 0.141644 0.959738
0.273653 0.147001 0.966760
0.484795 0.173673 0.972508
0.710879 0.211477 0.974920
0.946233 0.261248 0.983394
0.168345 0.288240 0.964782
0.283938 0.289039 0.969277
0.489383 0.301364 0.972107
0.714101 0.324120 0.975470
0.947510 0.360413 0.982625
0.244278 0.508573 0.974934
0.340624 0.507962 0.973919
0.505721 0.509298 0.973819
0.724409 0.523709 0.978532
0.951942 0.541506 0.985825
0.348042 0.751239 0.986460
0.422484 0.751130 0.986503
0.553907 0.748788 0.982028
0.744557 0.747682 0.975719
0.961735 0.762886 0.983631
0.465383 0.996117 0.999886
0.521188 0.996360 0.999798
0.628416 0.994012 0.998073
0.793718 0.990560 0.992472
0.998135 1.000000 0.999231
