docs/guides/setting_presets/sdr-cinema-g268-o84-234n-33p-3dlut.cube
# Created by ArgyllCMS
LUT_3D_SIZE 5
DOMAIN_MIN 0.0 0.0 0.0
DOMAIN_MAX 1.0 1.0 1.0
0.000000 0.000000 0.000000
0.204759 0.047656 0.026138
0.438548 0.103657 0.070395
0.689493 0.176918 0.126910
0.942341 0.260085 0.183354
0.079002 0.216824 0.045325
0.219078 0.220502 0.047049
0.440951 0.238706 0.084129
0.692009 0.278598 0.133127
0.943107 0.338585 0.188565
0.208369 0.457422 0.136388
0.292978 0.458187 0.137948
0.468690 0.463711 0.149561
0.706760 0.481891 0.180768
0.952304 0.507113 0.222611
0.345344 0.725495 0.229281
0.407545 0.726039 0.230877
0.533923 0.730990 0.240968
0.742428 0.739335 0.256823
0.977262 0.747478 0.283551
0.503097 0.987578 0.327650
0.544963 0.988154 0.327906
0.630701 0.991177 0.331057
0.802736 0.998228 0.342479
1.000000 1.000000 0.356208
0.013556 0.013300 0.209832
0.206919 0.036040 0.212661
0.438481 0.105335 0.223009
0.689679 0.176121 0.245975
0.943247 0.260478 0.281364
0.081096 0.217555 0.215355
0.214598 0.215415 0.214875
0.441461 0.236323 0.225366
0.691468 0.277042 0.248553
0.943862 0.337071 0.284824
0.204427 0.457727 0.248508
0.290082 0.457881 0.249668
0.466375 0.464160 0.256537
0.705651 0.482487 0.279516
0.952925 0.506125 0.307500
0.344538 0.724644 0.312309
0.407216 0.725574 0.313950
0.532913 0.729849 0.320678
0.741532 0.739610 0.333240
0.977758 0.746513 0.354588
0.499408 0.988998 0.390915
0.541434 0.989741 0.391168
0.628663 0.992149 0.394099
0.802352 0.997709 0.404571
1.000000 1.000000 0.417485
0.050453 0.062401 0.449096
0.214952 0.070881 0.449620
0.440728 0.115662 0.453842
0.691397 0.185730 0.463893
0.943716 0.257958 0.478635
0.097647 0.222849 0.450273
0.222709 0.222597 0.449171
0.441964 0.239500 0.453230
0.691576 0.283287 0.466991
0.943962 0.335653 0.479136
0.210366 0.457652 0.459878
0.290487 0.457545 0.459972
0.456556 0.459820 0.461149
0.698058 0.478908 0.473630
0.949988 0.501295 0.484626
0.343126 0.722091 0.489363
0.402895 0.721439 0.489488
0.523138 0.721826 0.489026
0.734882 0.732684 0.496181
0.973281 0.742679 0.508228
0.489899 0.987605 0.526447
0.532501 0.987944 0.526539
0.618089 0.989991 0.527760
0.794184 0.997783 0.533600
1.000000 1.000000 0.542954
0.102545 0.113305 0.711367
0.223378 0.115895 0.712635
0.443943 0.150857 0.712079
0.694642 0.205339 0.717127
0.945517 0.270383 0.721489
0.122999 0.241057 0.710536
0.234108 0.241779 0.710562
0.447423 0.260900 0.712772
0.695289 0.295980 0.717921
0.944279 0.346131 0.721300
0.223638 0.467365 0.717440
0.303896 0.468937 0.716512
0.464086 0.467727 0.713332
0.699561 0.482943 0.717746
0.950434 0.504557 0.722930
0.349833 0.726796 0.729103
0.408113 0.726054 0.728846
0.522207 0.723038 0.723956
0.725156 0.727581 0.727232
0.964110 0.735206 0.729321
0.490328 0.988671 0.744897
0.532586 0.988512 0.744512
0.611694 0.987305 0.742747
0.782913 0.990702 0.746944
1.000000 0.999428 0.750462
0.176528 0.168782 0.968195
0.262498 0.173934 0.972733
0.454326 0.195382 0.974778
0.695363 0.235111 0.978440
0.953846 0.292064 0.983223
0.182529 0.274028 0.970380
0.269647 0.276529 0.973552
0.459625 0.289210 0.973795
0.697003 0.315889 0.977607
0.955054 0.362438 0.982357
0.249342 0.476133 0.978463
0.326518 0.474494 0.977701
0.472198 0.475118 0.975892
0.699844 0.491588 0.979485
0.957704 0.513577 0.986027
0.361659 0.726458 0.982490
0.417981 0.726309 0.982433
0.527031 0.723116 0.983087
0.723535 0.725685 0.977781
0.967074 0.743027 0.987556
0.501271 0.994386 1.000000
0.542047 0.994884 1.000000
0.617302 0.995183 0.998648
0.784011 0.993263 0.995327
0.998695 0.999529 1.000000
