docs/guides/setting_presets/sdr-expert2-g240-o34-118n-33p-3dlut.cube
# Created by ArgyllCMS
LUT_3D_SIZE 9
DOMAIN_MIN 0.0 0.0 0.0
DOMAIN_MAX 1.0 1.0 1.0
0.000000 0.000000 0.000000
0.120271 0.033172 0.016291
0.244627 0.058124 0.021544
0.372463 0.088917 0.045394
0.493865 0.122421 0.077236
0.608994 0.171083 0.106564
0.728509 0.197883 0.135329
0.840210 0.235754 0.163193
0.952695 0.281546 0.188396
0.022108 0.126964 0.011994
0.122734 0.129222 0.018890
0.248630 0.142663 0.019821
0.373337 0.165520 0.045448
0.494495 0.191062 0.078275
0.609411 0.231915 0.107752
0.728577 0.255270 0.136163
0.840298 0.289500 0.163721
0.952737 0.331038 0.188755
0.101375 0.263942 0.051465
0.172396 0.264160 0.050666
0.264396 0.268379 0.058424
0.379941 0.275933 0.073964
0.498443 0.288964 0.098062
0.612037 0.307482 0.121678
0.730071 0.320897 0.146774
0.841377 0.345528 0.170786
0.953519 0.376374 0.194701
0.171912 0.393943 0.106060
0.230782 0.394134 0.106350
0.296306 0.395678 0.109320
0.400548 0.399698 0.116544
0.509215 0.407288 0.129469
0.620074 0.417559 0.147413
0.734391 0.426930 0.168241
0.844817 0.441585 0.189721
0.956424 0.462011 0.210896
0.249554 0.514346 0.153669
0.300513 0.514529 0.153803
0.345951 0.516493 0.156144
0.432075 0.517664 0.161500
0.526209 0.523846 0.170310
0.633711 0.532621 0.182388
0.744012 0.539575 0.198934
0.854147 0.548331 0.217496
0.963891 0.561745 0.235450
0.309591 0.645582 0.199756
0.356042 0.645542 0.199957
0.392325 0.645334 0.202073
0.463035 0.646270 0.206629
0.552216 0.649744 0.213757
0.655954 0.654098 0.223480
0.759794 0.661244 0.235821
0.864668 0.670383 0.249792
0.973198 0.681732 0.264793
0.376441 0.769266 0.246538
0.417805 0.769335 0.246673
0.444409 0.770266 0.248175
0.503269 0.770719 0.251543
0.582485 0.771015 0.256498
0.680612 0.773583 0.264455
0.781702 0.778124 0.274973
0.880372 0.784715 0.288062
0.985219 0.795832 0.300661
0.455017 0.880120 0.296020
0.490837 0.880145 0.296093
0.511039 0.880450 0.297027
0.556875 0.881293 0.299534
0.629057 0.883036 0.304357
0.718290 0.884701 0.311844
0.811231 0.887084 0.321091
0.898999 0.894061 0.330869
0.999600 0.911447 0.341401
0.531757 0.992939 0.343995
0.562321 0.992981 0.344054
0.577587 0.993558 0.344822
0.615842 0.994887 0.347016
0.678776 0.997462 0.351160
0.761016 0.999676 0.357142
0.846852 1.000000 0.363951
0.926099 1.000000 0.365931
1.000000 1.000000 0.370934
0.002422 0.001654 0.118389
0.116219 0.021620 0.121633
0.246667 0.048158 0.122455
0.372390 0.084625 0.134950
0.493390 0.122186 0.154823
0.609361 0.169558 0.175503
0.728117 0.197611 0.198661
0.840056 0.234889 0.222982
0.952593 0.280677 0.245544
0.030767 0.125095 0.118632
0.122648 0.124452 0.117604
0.250432 0.138931 0.120256
0.372889 0.163465 0.134175
0.494185 0.190519 0.155503
0.609881 0.230482 0.176354
0.728230 0.254969 0.199364
0.840153 0.288743 0.223441
0.952630 0.330330 0.245864
0.100908 0.264197 0.137801
0.171760 0.264188 0.136658
0.264341 0.268596 0.141098
0.380478 0.274852 0.150752
0.498850 0.288445 0.168540
0.611713 0.307317 0.187191
0.729917 0.320750 0.208472
0.841198 0.345826 0.229684
0.953347 0.376656 0.251047
0.170799 0.393944 0.174506
0.229755 0.394106 0.174645
0.295804 0.395927 0.177286
0.400212 0.399850 0.182641
0.509036 0.407632 0.193860
0.620149 0.417376 0.209173
0.734290 0.426597 0.227478
0.844837 0.441481 0.246725
0.956453 0.461900 0.265737
0.249306 0.514365 0.214240
0.300354 0.514550 0.214356
0.345405 0.516885 0.216448
0.431519 0.517803 0.221415
0.526453 0.524229 0.229303
0.633886 0.532728 0.240093
0.743877 0.539762 0.254965
0.853959 0.549115 0.271521
0.963846 0.562177 0.287892
0.309664 0.645423 0.255612
0.356109 0.645355 0.255812
0.392225 0.645314 0.257743
0.462938 0.646585 0.261721
0.552358 0.649720 0.268084
0.655720 0.654200 0.277101
0.759498 0.661349 0.288172
0.864770 0.670233 0.301159
0.973356 0.681476 0.314983
0.376345 0.769296 0.298151
0.417685 0.769365 0.298271
0.444382 0.770279 0.299695
0.503591 0.770607 0.302882
0.582769 0.770922 0.307387
0.680753 0.773423 0.314721
0.781771 0.777851 0.324269
0.880348 0.784588 0.336497
0.985265 0.795672 0.347969
0.455190 0.879820 0.343638
0.491001 0.879845 0.343709
0.511057 0.880269 0.344570
0.556583 0.881375 0.346809
0.628888 0.883092 0.351299
0.718210 0.884695 0.358253
0.811162 0.886921 0.366820
0.898923 0.893949 0.375914
0.999593 0.911483 0.385555
0.531476 0.992994 0.387858
0.562058 0.993036 0.387914
0.577309 0.993616 0.388632
0.615534 0.994992 0.390643
0.678407 0.997632 0.394511
0.760775 0.999750 0.400086
0.846700 1.000000 0.406389
0.926056 1.000000 0.408208
1.000000 1.000000 0.412916
0.014392 0.011482 0.248503
0.116157 0.015611 0.249641
0.250748 0.042283 0.251755
0.374152 0.087695 0.257232
0.495333 0.122397 0.262792
0.607760 0.166468 0.269082
0.727474 0.192312 0.280732
0.839553 0.229963 0.295927
0.951859 0.276656 0.309414
0.027128 0.125730 0.248224
0.123719 0.124513 0.249539
0.252146 0.136937 0.251873
0.374485 0.163043 0.257761
0.495208 0.189354 0.262982
0.607960 0.226475 0.269147
0.727682 0.248989 0.280943
0.839546 0.284589 0.295887
0.951860 0.327043 0.309319
0.102989 0.263985 0.254438
0.171874 0.264001 0.254544
0.259458 0.260521 0.253208
0.377786 0.270721 0.257950
0.496131 0.282506 0.263551
0.610882 0.303032 0.272225
0.729386 0.319441 0.283933
0.841397 0.345107 0.299018
0.953784 0.376130 0.313139
0.170688 0.393806 0.268045
0.228675 0.393837 0.267894
0.290983 0.394377 0.267081
0.395235 0.398318 0.269387
0.507051 0.405479 0.274785
0.619571 0.415487 0.283633
0.733947 0.425007 0.294679
0.845892 0.441947 0.307849
0.958481 0.462094 0.322327
0.242727 0.515864 0.287867
0.294431 0.515947 0.287938
0.341622 0.516654 0.288687
0.426949 0.518808 0.291030
0.526416 0.524018 0.295325
0.632715 0.532302 0.303755
0.742191 0.541869 0.314438
0.854299 0.550630 0.327255
0.964746 0.565493 0.338679
0.310018 0.644750 0.315155
0.356392 0.644796 0.315247
0.390771 0.646279 0.316495
0.462427 0.648811 0.319839
0.552809 0.650209 0.324297
0.654692 0.654289 0.330774
0.759841 0.660119 0.339831
0.865168 0.669738 0.350510
0.973613 0.682340 0.361486
0.375433 0.767615 0.346588
0.417010 0.767633 0.346712
0.445163 0.767766 0.348305
0.505886 0.767825 0.351545
0.583767 0.770513 0.355498
0.681139 0.773289 0.361452
0.781098 0.776891 0.369670
0.879923 0.784337 0.379232
0.985081 0.795109 0.389082
0.451727 0.879926 0.383023
0.487765 0.879965 0.383077
0.507890 0.880539 0.383730
0.553700 0.881983 0.385692
0.626531 0.883549 0.389904
0.715923 0.884885 0.396082
0.808953 0.887124 0.402760
0.898330 0.893536 0.411547
0.999531 0.911914 0.420219
0.526758 0.994341 0.420822
0.557655 0.994382 0.420871
0.573086 0.994920 0.421538
0.611978 0.996216 0.423580
0.674971 0.998629 0.427330
0.758160 1.000000 0.431893
0.844004 1.000000 0.436288
0.924917 1.000000 0.437974
1.000000 1.000000 0.442192
0.041166 0.039629 0.374877
0.131769 0.040772 0.375800
0.254406 0.057717 0.377672
0.376714 0.094854 0.380886
0.494837 0.126261 0.383937
0.608962 0.168951 0.390209
0.728331 0.198088 0.397534
0.841972 0.238372 0.408520
0.954602 0.284194 0.418387
0.050423 0.137087 0.376184
0.138451 0.136707 0.377909
0.255845 0.144708 0.378250
0.376605 0.167718 0.381070
0.495102 0.192234 0.384284
0.609130 0.229014 0.390275
0.728313 0.255539 0.397573
0.841874 0.291709 0.408939
0.954618 0.333058 0.418620
0.111337 0.266446 0.379950
0.178692 0.266490 0.379496
0.263624 0.264572 0.379544
0.379577 0.271077 0.381960
0.497833 0.283213 0.386588
0.612269 0.302119 0.392191
0.729345 0.319814 0.400701
0.842040 0.345971 0.412266
0.955605 0.375600 0.421245
0.173584 0.394748 0.386848
0.231193 0.394967 0.386785
0.290443 0.394382 0.386117
0.391477 0.394035 0.388741
0.504114 0.401861 0.392218
0.615744 0.412603 0.398463
0.731748 0.423143 0.405844
0.845599 0.438648 0.415059
0.958966 0.459781 0.424640
0.245806 0.513471 0.399906
0.296549 0.513634 0.399744
0.336635 0.516143 0.398746
0.420372 0.517871 0.401253
0.521586 0.523118 0.403965
0.630026 0.531157 0.408427
0.741078 0.540464 0.415881
0.853345 0.548253 0.424930
0.964667 0.563531 0.434592
0.308450 0.644823 0.418322
0.354524 0.644833 0.418334
0.386001 0.644606 0.418278
0.456279 0.644904 0.418244
0.549519 0.648886 0.420011
0.651519 0.653640 0.425222
0.755748 0.659809 0.431473
0.863264 0.668755 0.438974
0.973153 0.680326 0.448614
0.372430 0.762806 0.437245
0.413996 0.762791 0.437235
0.440486 0.762984 0.437197
0.501093 0.764890 0.437594
0.581556 0.768470 0.440207
0.678554 0.771456 0.445268
0.777700 0.775660 0.450525
0.877631 0.782621 0.457506
0.984090 0.794194 0.467334
0.445207 0.879506 0.460516
0.481776 0.879534 0.460533
0.503674 0.879943 0.460721
0.551874 0.880578 0.461904
0.624255 0.881568 0.465033
0.711642 0.883884 0.468802
0.804594 0.886834 0.473899
0.896478 0.892724 0.481611
0.999189 0.908983 0.488861
0.521422 0.994585 0.489703
0.552822 0.994600 0.489721
0.568924 0.994706 0.490340
0.609089 0.995144 0.491863
0.672276 0.996346 0.494426
0.751790 0.999564 0.496332
0.836552 1.000000 0.498566
0.921519 1.000000 0.501306
1.000000 1.000000 0.505976
0.063025 0.067362 0.498537
0.147164 0.068853 0.499221
0.258039 0.079786 0.501557
0.379319 0.106112 0.502600
0.497750 0.135337 0.506487
0.610698 0.176230 0.509405
0.729709 0.200357 0.513507
0.841716 0.240154 0.521555
0.954828 0.285176 0.531778
0.073616 0.151469 0.499790
0.155857 0.151913 0.500615
0.259339 0.157593 0.501513
0.379590 0.176377 0.503414
0.498250 0.199953 0.506679
0.610831 0.235532 0.509087
0.729635 0.257281 0.513871
0.841735 0.293823 0.521878
0.954841 0.333990 0.531694
0.122781 0.270415 0.503367
0.188493 0.269931 0.503115
0.269284 0.269108 0.500208
0.382332 0.275046 0.502920
0.498909 0.287634 0.505749
0.611544 0.306547 0.510627
0.727685 0.323241 0.515906
0.842447 0.347819 0.522444
0.955669 0.376577 0.532737
0.179312 0.397586 0.506527
0.236773 0.397922 0.506490
0.296385 0.397557 0.506461
0.393568 0.396830 0.505726
0.505778 0.403254 0.510217
0.618808 0.412574 0.515467
0.732896 0.424328 0.520713
0.845227 0.439489 0.526167
0.958206 0.459376 0.535573
0.249644 0.517559 0.513643
0.300080 0.517854 0.513543
0.340454 0.520466 0.514584
0.420063 0.519433 0.515570
0.515682 0.519655 0.516394
0.628693 0.528725 0.521655
0.736704 0.537680 0.525839
0.849379 0.546218 0.531523
0.961290 0.560890 0.539210
0.310418 0.646275 0.526258
0.356560 0.646242 0.526397
0.389421 0.646177 0.527618
0.454086 0.643771 0.525892
0.545198 0.644742 0.527828
0.647473 0.650928 0.531325
0.751895 0.657831 0.535489
0.859724 0.666395 0.539954
0.969747 0.679261 0.548712
0.376881 0.764445 0.539879
0.418059 0.764378 0.539895
0.442417 0.763543 0.540059
0.497039 0.763263 0.540490
0.575903 0.765316 0.540895
0.674406 0.769043 0.544857
0.773165 0.773140 0.549455
0.873752 0.780577 0.554007
0.981838 0.791919 0.562547
0.442630 0.877770 0.556260
0.479239 0.877768 0.556265
0.499440 0.877786 0.556314
0.545745 0.877859 0.556682
0.617807 0.879114 0.558713
0.707808 0.881205 0.562965
0.800808 0.884726 0.567376
0.892707 0.891656 0.572477
0.995624 0.906690 0.578438
0.517459 0.992557 0.577189
0.549097 0.992552 0.577207
0.564547 0.992837 0.577629
0.603179 0.993582 0.578833
0.664810 0.995233 0.581089
0.746528 0.998327 0.584330
0.834737 1.000000 0.588305
0.918807 1.000000 0.589047
1.000000 1.000000 0.589678
0.091616 0.092625 0.622289
0.169708 0.094402 0.621546
0.261437 0.101772 0.627206
0.382622 0.122348 0.626155
0.500094 0.151569 0.626942
0.613996 0.186921 0.629021
0.730316 0.211455 0.633635
0.841827 0.250319 0.638438
0.955036 0.291002 0.642985
0.095242 0.166254 0.623056
0.170946 0.167327 0.622700
0.263573 0.173781 0.625811
0.382438 0.189243 0.626480
0.500338 0.213832 0.626508
0.614454 0.244665 0.629194
0.730030 0.267206 0.633619
0.841864 0.302179 0.638292
0.955126 0.339241 0.643009
0.132154 0.276843 0.628037
0.197646 0.276839 0.626939
0.274711 0.276312 0.624115
0.386920 0.281191 0.624636
0.502163 0.295096 0.626927
0.614232 0.312387 0.630540
0.731079 0.327486 0.633966
0.844592 0.351309 0.639763
0.957111 0.379656 0.644699
0.188253 0.401005 0.627226
0.244977 0.401076 0.627115
0.302771 0.401749 0.628476
0.399464 0.401254 0.629330
0.507879 0.406229 0.630611
0.620995 0.415922 0.633900
0.734212 0.427533 0.638365
0.846958 0.441770 0.643137
0.959147 0.461193 0.649128
0.254133 0.521229 0.634545
0.304323 0.521555 0.634491
0.345986 0.522949 0.633654
0.423829 0.522156 0.633994
0.521236 0.523426 0.634170
0.629268 0.529014 0.637082
0.737097 0.538290 0.641916
0.849722 0.547148 0.647319
0.961248 0.561698 0.653961
0.318751 0.647716 0.641889
0.364047 0.647688 0.641933
0.394324 0.647287 0.642223
0.458278 0.646282 0.641656
0.542656 0.644439 0.641018
0.641131 0.645669 0.641644
0.747730 0.654775 0.646324
0.855854 0.663693 0.651375
0.966189 0.674639 0.657467
0.381297 0.766168 0.652965
0.422056 0.766123 0.652950
0.445687 0.765643 0.652797
0.499086 0.765117 0.652884
0.574545 0.763638 0.651905
0.668686 0.765529 0.652751
0.766698 0.770740 0.656254
0.868103 0.778542 0.660020
0.977417 0.789291 0.667240
0.446433 0.879533 0.665948
0.482779 0.879490 0.665958
0.502541 0.879012 0.665959
0.546619 0.877939 0.665512
0.614606 0.876749 0.665176
0.701717 0.878315 0.667476
0.794456 0.881716 0.670611
0.887456 0.888187 0.674691
0.991331 0.904439 0.680493
0.516510 0.993258 0.681257
0.548117 0.993234 0.681251
0.563118 0.993180 0.681131
0.600416 0.993279 0.681098
0.660146 0.993719 0.681987
0.742021 0.995321 0.684739
0.827936 0.999066 0.688732
0.918488 1.000000 0.691069
1.000000 1.000000 0.691632
0.113498 0.118475 0.744758
0.181944 0.119631 0.745024
0.268112 0.127940 0.747030
0.383161 0.144354 0.747687
0.500382 0.170257 0.746140
0.616115 0.198890 0.749130
0.731952 0.221545 0.754475
0.843196 0.258878 0.757381
0.955188 0.298839 0.763749
0.113097 0.186113 0.746078
0.181511 0.187129 0.746126
0.270033 0.194421 0.745973
0.383707 0.207465 0.747543
0.500802 0.230180 0.745816
0.616129 0.255728 0.749567
0.731910 0.276344 0.754332
0.843423 0.309912 0.757162
0.955360 0.346243 0.763763
0.141671 0.286066 0.748703
0.205950 0.286281 0.747529
0.274269 0.287111 0.748529
0.389501 0.292152 0.745120
0.502102 0.305528 0.747684
0.617635 0.319317 0.749553
0.733031 0.334583 0.752815
0.846019 0.357335 0.756730
0.958084 0.384197 0.764023
0.194362 0.406736 0.746704
0.249971 0.406608 0.746743
0.303412 0.407270 0.750996
0.402747 0.406899 0.749790
0.510568 0.411911 0.749271
0.622899 0.419973 0.751328
0.735198 0.432461 0.754032
0.848343 0.447007 0.758539
0.960679 0.465299 0.765779
0.255747 0.523225 0.754825
0.306327 0.523498 0.754664
0.350762 0.526532 0.752840
0.427062 0.526086 0.751530
0.523778 0.527077 0.750897
0.631817 0.532607 0.753028
0.740858 0.541880 0.756391
0.850985 0.549968 0.761622
0.963570 0.564024 0.768861
0.321769 0.650599 0.757382
0.366714 0.650631 0.757465
0.396156 0.650824 0.757894
0.461220 0.650366 0.755570
0.546423 0.648330 0.755811
0.643759 0.648408 0.755846
0.748190 0.655347 0.758930
0.854420 0.664708 0.764712
0.966145 0.676837 0.772853
0.381021 0.768706 0.765897
0.421826 0.768687 0.765860
0.446133 0.768371 0.765419
0.501568 0.767696 0.765040
0.576655 0.766883 0.764373
0.666782 0.764693 0.762321
0.757283 0.763871 0.758758
0.861313 0.774861 0.766176
0.970620 0.788061 0.774746
0.450497 0.880771 0.775728
0.486566 0.880726 0.775740
0.506062 0.880257 0.775888
0.549864 0.878874 0.775661
0.615478 0.877648 0.774178
0.697671 0.876999 0.771836
0.785534 0.878372 0.772017
0.880910 0.884203 0.776376
0.984506 0.900960 0.782434
0.520229 0.994780 0.790001
0.551513 0.994750 0.790006
0.566108 0.994754 0.789975
0.601714 0.994833 0.789617
0.658103 0.993901 0.788827
0.735789 0.993404 0.787863
0.820054 0.994933 0.788628
0.912137 0.999048 0.791586
1.000000 1.000000 0.794421
0.163255 0.149561 0.858029
0.221579 0.150159 0.858323
0.285980 0.155518 0.859524
0.396010 0.166635 0.860014
0.504069 0.190149 0.861383
0.618768 0.213551 0.865358
0.735406 0.234898 0.868878
0.846905 0.269731 0.870539
0.956895 0.307154 0.880915
0.163328 0.212368 0.858272
0.221520 0.213054 0.858544
0.285275 0.217912 0.859904
0.396143 0.227648 0.860049
0.504451 0.247721 0.861274
0.618903 0.269006 0.865730
0.735553 0.288258 0.868840
0.847028 0.319848 0.870444
0.957113 0.353869 0.880816
0.176328 0.298638 0.859502
0.232922 0.298858 0.859790
0.289369 0.300477 0.862744
0.400017 0.305180 0.860013
0.508415 0.315574 0.862982
0.623335 0.328235 0.866571
0.737035 0.343473 0.868591
0.848589 0.365519 0.870008
0.959411 0.391414 0.880255
0.211319 0.412502 0.861119
0.265028 0.412631 0.861566
0.319255 0.413358 0.864847
0.410813 0.413185 0.863271
0.515583 0.418123 0.865008
0.627309 0.426091 0.866115
0.739561 0.438482 0.868077
0.850137 0.451523 0.872178
0.961597 0.471005 0.882086
0.272691 0.528024 0.866859
0.322031 0.528148 0.866769
0.362195 0.529844 0.865673
0.433473 0.530540 0.865394
0.528050 0.530916 0.865320
0.635219 0.537692 0.867568
0.744072 0.544613 0.869865
0.852354 0.553439 0.873142
0.963805 0.567185 0.884447
0.331894 0.652966 0.870059
0.376201 0.652986 0.870063
0.405913 0.652982 0.869901
0.468070 0.652935 0.869337
0.550474 0.651578 0.868498
0.648560 0.652604 0.867809
0.751018 0.658829 0.870447
0.856610 0.667133 0.873177
0.966649 0.680024 0.886341
0.388388 0.771726 0.875392
0.428631 0.771769 0.875365
0.451793 0.772018 0.875030
0.505476 0.770318 0.874536
0.580318 0.769262 0.874231
0.670367 0.768789 0.872303
0.762560 0.767935 0.871054
0.862501 0.775028 0.874070
0.968865 0.788119 0.887717
0.457721 0.882976 0.882148
0.493274 0.882930 0.882161
0.511995 0.882478 0.882266
0.554591 0.880987 0.881935
0.619671 0.879851 0.880627
0.701091 0.877976 0.878428
0.785126 0.878296 0.877622
0.879503 0.882551 0.880951
0.980774 0.897191 0.891502
0.524518 0.997298 0.901359
0.555476 0.997263 0.901327
0.569951 0.996936 0.901031
0.605575 0.996528 0.900558
0.661561 0.995333 0.899150
0.736757 0.993801 0.896933
0.815607 0.992461 0.895481
0.909049 0.995451 0.897226
0.999095 1.000000 0.901103
0.198229 0.175884 0.971934
0.252450 0.176307 0.972353
0.305454 0.179939 0.973906
0.412388 0.186389 0.972710
0.512469 0.208300 0.977593
0.623599 0.230548 0.979801
0.745044 0.252290 0.983208
0.857155 0.276119 0.985124
0.961548 0.316894 0.985499
0.198226 0.235509 0.972249
0.252309 0.236057 0.972641
0.305768 0.239427 0.974073
0.412473 0.244854 0.972750
0.512911 0.264169 0.977400
0.623759 0.284309 0.980195
0.745337 0.303929 0.983288
0.857271 0.325759 0.985045
0.961639 0.362987 0.985447
0.205693 0.312007 0.974186
0.259207 0.312241 0.974574
0.310841 0.313622 0.976502
0.415536 0.317506 0.973484
0.519078 0.326195 0.976404
0.628509 0.340300 0.981649
0.747454 0.355043 0.984378
0.858529 0.372462 0.985224
0.962867 0.399331 0.985998
0.235633 0.419861 0.975357
0.287049 0.420068 0.975846
0.333757 0.422117 0.979336
0.424534 0.422100 0.977642
0.524121 0.426509 0.979952
0.631814 0.433953 0.981599
0.749497 0.446187 0.982864
0.858805 0.459192 0.985799
0.964040 0.474843 0.989447
0.293833 0.535111 0.980360
0.341662 0.535155 0.980327
0.378738 0.535417 0.979737
0.443562 0.536768 0.980014
0.537423 0.537467 0.980401
0.641556 0.543453 0.982513
0.754551 0.551960 0.984269
0.862110 0.558724 0.986858
0.965974 0.571480 0.991238
0.344851 0.657537 0.984157
0.388309 0.657623 0.984082
0.416485 0.657921 0.983529
0.475973 0.658364 0.984174
0.558288 0.656872 0.983303
0.652696 0.656509 0.982502
0.762915 0.663689 0.985291
0.867444 0.672765 0.987137
0.968607 0.683743 0.990503
0.401588 0.775597 0.988802
0.440908 0.775606 0.988785
0.462116 0.776377 0.988731
0.512290 0.777557 0.988538
0.585776 0.776392 0.987632
0.675465 0.776507 0.986020
0.773095 0.777173 0.985361
0.874327 0.780343 0.986235
0.971439 0.791035 0.989743
0.458939 0.897688 0.994725
0.494410 0.897666 0.994698
0.513526 0.897325 0.994407
0.558786 0.895170 0.994171
0.622638 0.893619 0.993619
0.702506 0.893966 0.991814
0.791817 0.890697 0.989035
0.888078 0.892066 0.988708
0.981438 0.900186 0.993103
0.532955 0.998695 1.000000
0.563256 0.998710 1.000000
0.576641 0.998856 1.000000
0.610085 0.998936 1.000000
0.666110 0.997814 0.999458
0.741645 0.996243 0.996841
0.819573 0.996253 0.995497
0.910271 0.997353 0.997588
0.998074 1.000000 0.999866
