docs/guides/setting_presets/sdr-expert2-g240-o34-118n-33p-3dlut.cube
# Created by ArgyllCMS
LUT_3D_SIZE 5
DOMAIN_MIN 0.0 0.0 0.0
DOMAIN_MAX 1.0 1.0 1.0
0.000000 0.000000 0.000000
0.244627 0.058124 0.021544
0.493865 0.122421 0.077236
0.728509 0.197883 0.135329
0.952695 0.281546 0.188396
0.101375 0.263942 0.051465
0.264396 0.268379 0.058424
0.498443 0.288964 0.098062
0.730071 0.320897 0.146774
0.953519 0.376374 0.194701
0.249554 0.514346 0.153669
0.345951 0.516493 0.156144
0.526209 0.523846 0.170310
0.744012 0.539575 0.198934
0.963891 0.561745 0.235450
0.376441 0.769266 0.246538
0.444409 0.770266 0.248175
0.582485 0.771015 0.256498
0.781702 0.778124 0.274973
0.985219 0.795832 0.300661
0.531757 0.992939 0.343995
0.577587 0.993558 0.344822
0.678776 0.997462 0.351160
0.846852 1.000000 0.363951
1.000000 1.000000 0.370934
0.014392 0.011482 0.248503
0.250748 0.042283 0.251755
0.495333 0.122397 0.262792
0.727474 0.192312 0.280732
0.951859 0.276656 0.309414
0.102989 0.263985 0.254438
0.259458 0.260521 0.253208
0.496131 0.282506 0.263551
0.729386 0.319441 0.283933
0.953784 0.376130 0.313139
0.242727 0.515864 0.287867
0.341622 0.516654 0.288687
0.526416 0.524018 0.295325
0.742191 0.541869 0.314438
0.964746 0.565493 0.338679
0.375433 0.767615 0.346588
0.445163 0.767766 0.348305
0.583767 0.770513 0.355498
0.781098 0.776891 0.369670
0.985081 0.795109 0.389082
0.526758 0.994341 0.420822
0.573086 0.994920 0.421538
0.674971 0.998629 0.427330
0.844004 1.000000 0.436288
1.000000 1.000000 0.442192
0.063025 0.067362 0.498537
0.258039 0.079786 0.501557
0.497750 0.135337 0.506487
0.729709 0.200357 0.513507
0.954828 0.285176 0.531778
0.122781 0.270415 0.503367
0.269284 0.269108 0.500208
0.498909 0.287634 0.505749
0.727685 0.323241 0.515906
0.955669 0.376577 0.532737
0.249644 0.517559 0.513643
0.340454 0.520466 0.514584
0.515682 0.519655 0.516394
0.736704 0.537680 0.525839
0.961290 0.560890 0.539210
0.376881 0.764445 0.539879
0.442417 0.763543 0.540059
0.575903 0.765316 0.540895
0.773165 0.773140 0.549455
0.981838 0.791919 0.562547
0.517459 0.992557 0.577189
0.564547 0.992837 0.577629
0.664810 0.995233 0.581089
0.834737 1.000000 0.588305
1.000000 1.000000 0.589678
0.113498 0.118475 0.744758
0.268112 0.127940 0.747030
0.500382 0.170257 0.746140
0.731952 0.221545 0.754475
0.955188 0.298839 0.763749
0.141671 0.286066 0.748703
0.274269 0.287111 0.748529
0.502102 0.305528 0.747684
0.733031 0.334583 0.752815
0.958084 0.384197 0.764023
0.255747 0.523225 0.754825
0.350762 0.526532 0.752840
0.523778 0.527077 0.750897
0.740858 0.541880 0.756391
0.963570 0.564024 0.768861
0.381021 0.768706 0.765897
0.446133 0.768371 0.765419
0.576655 0.766883 0.764373
0.757283 0.763871 0.758758
0.970620 0.788061 0.774746
0.520229 0.994780 0.790001
0.566108 0.994754 0.789975
0.658103 0.993901 0.788827
0.820054 0.994933 0.788628
1.000000 1.000000 0.794421
0.198229 0.175884 0.971934
0.305454 0.179939 0.973906
0.512469 0.208300 0.977593
0.745044 0.252290 0.983208
0.961548 0.316894 0.985499
0.205693 0.312007 0.974186
0.310841 0.313622 0.976502
0.519078 0.326195 0.976404
0.747454 0.355043 0.984378
0.962867 0.399331 0.985998
0.293833 0.535111 0.980360
0.378738 0.535417 0.979737
0.537423 0.537467 0.980401
0.754551 0.551960 0.984269
0.965974 0.571480 0.991238
0.401588 0.775597 0.988802
0.462116 0.776377 0.988731
0.585776 0.776392 0.987632
0.773095 0.777173 0.985361
0.971439 0.791035 0.989743
0.532955 0.998695 1.000000
0.576641 0.998856 1.000000
0.666110 0.997814 0.999458
0.819573 0.996253 0.995497
0.998074 1.000000 0.999866
