docs/guides/setting_presets/sdr-cinema-g248-o84-234n-33p-3dlut.cube
# Created by ArgyllCMS
LUT_3D_SIZE 5
DOMAIN_MIN 0.0 0.0 0.0
DOMAIN_MAX 1.0 1.0 1.0
0.000000 0.000000 0.000000
0.224368 0.050153 0.028244
0.459507 0.110696 0.075745
0.701585 0.178659 0.129686
0.942341 0.260085 0.183354
0.090580 0.238104 0.052863
0.240995 0.241901 0.055773
0.463890 0.259064 0.092456
0.704958 0.293802 0.137809
0.943434 0.348958 0.190607
0.222252 0.478724 0.144337
0.313348 0.479677 0.146558
0.491353 0.486516 0.158793
0.718762 0.505254 0.188950
0.953882 0.528086 0.227686
0.352965 0.738771 0.233927
0.420402 0.739481 0.236084
0.553412 0.744272 0.246148
0.755001 0.751750 0.261622
0.979961 0.763012 0.288137
0.503097 0.987578 0.327650
0.549042 0.988370 0.328003
0.645504 0.991796 0.331686
0.815308 0.998996 0.343598
1.000000 1.000000 0.356208
0.015785 0.017564 0.230502
0.226462 0.043316 0.233523
0.459806 0.112233 0.243588
0.701883 0.178746 0.263462
0.943819 0.259363 0.295773
0.092653 0.238150 0.237113
0.234650 0.235873 0.235463
0.461955 0.256826 0.246641
0.703740 0.291355 0.267212
0.944393 0.346348 0.300020
0.217723 0.478660 0.268180
0.310033 0.479108 0.269885
0.489129 0.486703 0.277225
0.717535 0.505182 0.297753
0.954393 0.527048 0.322562
0.352311 0.737989 0.327085
0.420065 0.739028 0.328953
0.552199 0.742314 0.334351
0.754129 0.751787 0.346996
0.979946 0.762011 0.367244
0.498511 0.989202 0.398763
0.544646 0.990205 0.399108
0.643683 0.992233 0.402399
0.814671 0.998507 0.412856
1.000000 1.000000 0.425549
0.054481 0.066404 0.471168
0.234182 0.076905 0.471655
0.462220 0.123257 0.475566
0.703566 0.188873 0.485014
0.943744 0.259882 0.501038
0.108376 0.244318 0.472220
0.242299 0.243427 0.471107
0.462893 0.260784 0.475236
0.703779 0.298826 0.488716
0.944311 0.347011 0.501218
0.223548 0.479463 0.482464
0.309106 0.480134 0.482460
0.480563 0.484000 0.484997
0.709791 0.501390 0.494494
0.950243 0.522535 0.507924
0.350282 0.735608 0.510205
0.414697 0.734756 0.510365
0.541794 0.735380 0.509903
0.746087 0.744424 0.516241
0.974802 0.757767 0.529469
0.489241 0.987640 0.545144
0.535681 0.988182 0.545255
0.631032 0.990300 0.546605
0.806055 0.997623 0.553267
1.000000 1.000000 0.560226
0.104644 0.115967 0.722933
0.240700 0.119513 0.724474
0.464585 0.158367 0.724482
0.706082 0.209370 0.729684
0.945425 0.271749 0.738031
0.129809 0.260140 0.722450
0.253657 0.261164 0.723028
0.469050 0.280543 0.725658
0.706842 0.310240 0.730880
0.944298 0.356827 0.737708
0.235857 0.489446 0.730658
0.321631 0.491098 0.728695
0.485866 0.489471 0.724910
0.711737 0.504335 0.729781
0.950890 0.525431 0.738801
0.355944 0.739802 0.742033
0.419225 0.739049 0.741499
0.540448 0.735490 0.736185
0.738807 0.740924 0.740873
0.965780 0.751976 0.746468
0.490686 0.988743 0.760016
0.536639 0.988567 0.759489
0.625023 0.987337 0.757941
0.795595 0.991171 0.762342
1.000000 0.999325 0.765120
0.176528 0.168782 0.968195
0.274288 0.175664 0.974145
0.477692 0.198797 0.974731
0.711667 0.238397 0.978681
0.953846 0.292064 0.983223
0.185138 0.289709 0.971093
0.284358 0.292468 0.974579
0.481828 0.304192 0.974406
0.713631 0.329026 0.977786
0.955169 0.371456 0.982483
0.262331 0.497683 0.978716
0.344579 0.496390 0.977413
0.496349 0.498559 0.975450
0.716471 0.514361 0.979794
0.958150 0.534335 0.985858
0.368987 0.743677 0.983233
0.430959 0.743275 0.983647
0.547232 0.739724 0.982864
0.741361 0.743760 0.978330
0.968383 0.758755 0.987885
0.501271 0.994386 1.000000
0.545635 0.995075 1.000000
0.630908 0.995031 0.998137
0.796304 0.993119 0.995275
0.998695 0.999529 1.000000
