docs/guides/setting_presets/sdr-expert2-g240-o34-118n-33p-3dlut.cube
# Created by ArgyllCMS
LUT_3D_SIZE 33
DOMAIN_MIN 0.0 0.0 0.0
DOMAIN_MAX 1.0 1.0 1.0
0.000000 0.000000 0.000000
0.031250 0.000000 0.000000
0.062500 0.000000 0.000000
0.085624 0.019442 0.006098
0.120271 0.033172 0.016291
0.154593 0.041094 0.018710
0.184751 0.044615 0.020595
0.214409 0.049672 0.022480
0.244627 0.058124 0.021544
0.275353 0.066176 0.025033
0.306909 0.074053 0.032126
0.339997 0.081827 0.038700
0.372463 0.088917 0.045394
0.404632 0.096617 0.052920
0.435074 0.105048 0.060648
0.464416 0.113084 0.069316
0.493865 0.122421 0.077236
0.522183 0.133676 0.085202
0.550449 0.146424 0.092346
0.578800 0.159339 0.099773
0.608994 0.171083 0.106564
0.639586 0.181220 0.113869
0.671354 0.188103 0.120976
0.701755 0.193217 0.128160
0.728509 0.197883 0.135329
0.756899 0.203922 0.142340
0.785192 0.212266 0.149405
0.813839 0.223092 0.156229
0.840210 0.235754 0.163193
0.865868 0.250480 0.169533
0.893445 0.262528 0.175816
0.923022 0.272159 0.182115
0.952695 0.281546 0.188396
0.000000 0.031250 0.000000
0.031250 0.031250 0.000000
0.062500 0.031250 0.000000
0.085624 0.050082 0.006098
0.120271 0.063384 0.016291
0.154593 0.071059 0.018710
0.184751 0.074470 0.020595
0.214409 0.079369 0.022480
0.244627 0.087557 0.021544
0.275353 0.095357 0.025033
0.306909 0.102988 0.032126
0.339997 0.110519 0.038700
0.372463 0.117388 0.045394
0.404632 0.124847 0.052920
0.435074 0.133014 0.060648
0.464416 0.140799 0.069316
0.493865 0.149844 0.077236
0.522183 0.160747 0.085202
0.550449 0.173097 0.092346
0.578800 0.185608 0.099773
0.608994 0.196986 0.106564
0.639586 0.206806 0.113869
0.671354 0.213474 0.120976
0.701755 0.218429 0.128160
0.728509 0.222948 0.135329
0.756899 0.228799 0.142340
0.785192 0.236882 0.149405
0.813839 0.247370 0.156229
0.840210 0.259635 0.163193
0.865868 0.273901 0.169533
0.893445 0.285573 0.175816
0.923022 0.294903 0.182115
0.952695 0.303998 0.188396
0.000000 0.062500 0.000000
0.031250 0.062500 0.000000
0.062500 0.062500 0.000000
0.085624 0.080722 0.006098
0.120271 0.093596 0.016291
0.154593 0.101024 0.018710
0.184751 0.104325 0.020595
0.214409 0.109067 0.022480
0.244627 0.116990 0.021544
0.275353 0.124538 0.025033
0.306909 0.131923 0.032126
0.339997 0.139211 0.038700
0.372463 0.145858 0.045394
0.404632 0.153077 0.052920
0.435074 0.160980 0.060648
0.464416 0.168514 0.069316
0.493865 0.177267 0.077236
0.522183 0.187818 0.085202
0.550449 0.199770 0.092346
0.578800 0.211878 0.099773
0.608994 0.222888 0.106564
0.639586 0.232392 0.113869
0.671354 0.238845 0.120976
0.701755 0.243640 0.128160
0.728509 0.248014 0.135329
0.756899 0.253676 0.142340
0.785192 0.261498 0.149405
0.813839 0.271647 0.156229
0.840210 0.283516 0.163193
0.865868 0.297322 0.169533
0.893445 0.308618 0.175816
0.923022 0.317647 0.182115
0.952695 0.326449 0.188396
0.016127 0.092608 0.010047
0.046871 0.092608 0.010047
0.077615 0.092608 0.010047
0.091565 0.095162 0.016349
0.120627 0.101746 0.018573
0.154764 0.107241 0.020680
0.185327 0.110443 0.020705
0.215235 0.115545 0.020743
0.245573 0.122577 0.021046
0.276019 0.130045 0.025031
0.307400 0.137280 0.032277
0.340315 0.143955 0.038713
0.372646 0.150352 0.045422
0.404668 0.157122 0.052933
0.435208 0.164346 0.060753
0.464513 0.171788 0.069369
0.493955 0.180381 0.077306
0.522259 0.190603 0.085431
0.550570 0.202058 0.092586
0.578913 0.213892 0.100023
0.609076 0.224812 0.106788
0.639631 0.234111 0.114051
0.671397 0.240477 0.121156
0.701781 0.245204 0.128319
0.728528 0.249512 0.135482
0.756908 0.255173 0.142498
0.785204 0.262859 0.149553
0.813865 0.273026 0.156365
0.840226 0.284833 0.163311
0.865880 0.298524 0.169628
0.893455 0.309734 0.175894
0.923032 0.318711 0.182189
0.952705 0.327487 0.188469
0.022108 0.126964 0.011994
0.052667 0.126964 0.011994
0.083225 0.126964 0.011994
0.093010 0.127651 0.014995
0.122734 0.129222 0.018890
0.157359 0.131192 0.017914
0.188454 0.133333 0.014388
0.218145 0.138008 0.014376
0.248630 0.142663 0.019821
0.278550 0.148681 0.025667
0.309133 0.155042 0.032855
0.341509 0.160826 0.038647
0.373337 0.165520 0.045448
0.405069 0.171417 0.053186
0.435757 0.177023 0.061467
0.465140 0.183349 0.070142
0.494495 0.191062 0.078275
0.522700 0.200270 0.086457
0.551016 0.210669 0.093599
0.579273 0.221761 0.100923
0.609411 0.231915 0.107752
0.639861 0.240297 0.114836
0.671613 0.246205 0.121982
0.701877 0.250888 0.129041
0.728577 0.255270 0.136163
0.756961 0.260537 0.143187
0.785239 0.268056 0.150163
0.813958 0.278127 0.156947
0.840298 0.289500 0.163721
0.865939 0.302657 0.170025
0.893496 0.313605 0.176230
0.923068 0.322444 0.182498
0.952737 0.331038 0.188755
0.034233 0.161796 0.014985
0.064412 0.161796 0.014985
0.094591 0.161796 0.014985
0.102393 0.162061 0.015154
0.129897 0.163105 0.014435
0.162970 0.165154 0.013588
0.193082 0.166191 0.014325
0.222000 0.168834 0.017496
0.251575 0.172513 0.023660
0.281089 0.176696 0.030417
0.311372 0.180769 0.035671
0.343259 0.184628 0.041418
0.374686 0.188519 0.048201
0.406397 0.192755 0.056067
0.436954 0.197397 0.064251
0.466298 0.202739 0.072726
0.495510 0.209369 0.080906
0.523553 0.217440 0.088574
0.551824 0.226666 0.095901
0.579894 0.236122 0.102772
0.609908 0.244571 0.109724
0.640187 0.251859 0.116501
0.671865 0.257262 0.123630
0.701952 0.261490 0.130656
0.728644 0.265606 0.137591
0.757077 0.270895 0.144566
0.785389 0.278488 0.151397
0.814135 0.287744 0.158144
0.840422 0.298413 0.164644
0.866068 0.310363 0.170855
0.893621 0.320658 0.177028
0.923183 0.329151 0.183252
0.952842 0.337514 0.189472
0.056845 0.195894 0.026234
0.086316 0.195894 0.026234
0.115787 0.195894 0.026234
0.122003 0.196250 0.026689
0.144660 0.197595 0.028549
0.171383 0.198616 0.025729
0.198630 0.199778 0.025487
0.226529 0.202014 0.030138
0.254683 0.204624 0.034692
0.283389 0.206765 0.038372
0.313386 0.209230 0.043095
0.345422 0.212293 0.048953
0.376790 0.215767 0.055634
0.408153 0.219299 0.062139
0.438207 0.223066 0.069811
0.467178 0.227917 0.077759
0.496417 0.233655 0.085425
0.524347 0.240363 0.092484
0.552416 0.247659 0.099568
0.580496 0.255175 0.105965
0.610481 0.262258 0.112673
0.640525 0.268507 0.119357
0.672070 0.273130 0.126272
0.702024 0.277129 0.133138
0.728805 0.280952 0.139972
0.757296 0.285807 0.146688
0.785692 0.292705 0.153376
0.814440 0.301419 0.159948
0.840686 0.310892 0.166138
0.866273 0.321740 0.172175
0.893817 0.331337 0.178291
0.923377 0.339297 0.184471
0.953030 0.347224 0.190639
0.080866 0.230224 0.040404
0.109586 0.230224 0.040404
0.138306 0.230224 0.040404
0.142989 0.230464 0.040601
0.158335 0.231159 0.039952
0.180345 0.231687 0.037733
0.206097 0.232858 0.039084
0.232543 0.235131 0.044278
0.259042 0.236459 0.046345
0.286556 0.237791 0.049270
0.315374 0.239607 0.053724
0.347551 0.242470 0.058467
0.378541 0.245642 0.064143
0.409405 0.248421 0.070790
0.438775 0.251835 0.077571
0.467564 0.256083 0.084860
0.496970 0.260594 0.091480
0.525034 0.265751 0.097746
0.553190 0.271775 0.103955
0.581244 0.277977 0.110289
0.611047 0.283733 0.116760
0.640936 0.288812 0.123216
0.672268 0.292908 0.129942
0.702247 0.296362 0.136560
0.729141 0.299725 0.143208
0.757776 0.304213 0.149573
0.786160 0.310270 0.156013
0.814907 0.317860 0.162074
0.841045 0.326495 0.168081
0.866549 0.336604 0.174144
0.894035 0.345434 0.180193
0.923588 0.352920 0.186264
0.953235 0.360409 0.192327
0.101375 0.263942 0.051465
0.129454 0.263942 0.051465
0.157534 0.263942 0.051465
0.160876 0.263975 0.051236
0.172396 0.264160 0.050666
0.191486 0.264491 0.050573
0.214225 0.265513 0.052632
0.238941 0.266887 0.055604
0.264396 0.268379 0.058424
0.291131 0.269582 0.061772
0.318960 0.270986 0.064663
0.349823 0.273293 0.068987
0.379941 0.275933 0.073964
0.410131 0.278585 0.079762
0.439439 0.281706 0.086555
0.469119 0.285137 0.092075
0.498443 0.288964 0.098062
0.526249 0.293217 0.103863
0.554288 0.297801 0.109650
0.582187 0.302712 0.115626
0.612037 0.307482 0.121678
0.641831 0.311595 0.127943
0.673327 0.314930 0.134121
0.703137 0.317982 0.140628
0.730071 0.320897 0.146774
0.758652 0.324982 0.153023
0.786843 0.330459 0.159031
0.815338 0.337568 0.164850
0.841377 0.345528 0.170786
0.866848 0.354482 0.176920
0.894322 0.362500 0.182880
0.923872 0.369449 0.188791
0.953519 0.376374 0.194701
0.120307 0.296558 0.063766
0.147795 0.296558 0.063766
0.175283 0.296558 0.063766
0.177913 0.296596 0.063697
0.186996 0.296754 0.063791
0.202793 0.297156 0.064700
0.223357 0.297919 0.066309
0.246648 0.299047 0.068631
0.271087 0.300231 0.071852
0.297204 0.301221 0.074190
0.324735 0.302639 0.076655
0.354183 0.304504 0.080210
0.383246 0.306890 0.084854
0.413246 0.309497 0.089959
0.442620 0.312061 0.095102
0.471546 0.314770 0.100272
0.500386 0.317831 0.105376
0.527806 0.321157 0.110866
0.555670 0.325107 0.116212
0.583577 0.329147 0.121753
0.613671 0.332879 0.127345
0.643444 0.336224 0.133087
0.675018 0.338925 0.139102
0.704618 0.341646 0.144914
0.731259 0.344385 0.151095
0.759499 0.348435 0.156980
0.787471 0.353480 0.162779
0.815745 0.360049 0.168496
0.841737 0.367321 0.174480
0.867229 0.375224 0.180557
0.894708 0.382352 0.186365
0.924235 0.388630 0.192094
0.953844 0.394990 0.197840
0.138333 0.328301 0.077964
0.165258 0.328301 0.077964
0.192183 0.328301 0.077964
0.194229 0.328368 0.078062
0.201853 0.328595 0.078511
0.215291 0.329105 0.079455
0.233660 0.329942 0.080919
0.255602 0.330766 0.082750
0.278876 0.331609 0.084802
0.304318 0.332624 0.086925
0.331788 0.333946 0.089191
0.360162 0.335497 0.092128
0.388663 0.337416 0.095632
0.418197 0.339444 0.099924
0.446527 0.341739 0.104009
0.474520 0.344071 0.108441
0.502683 0.346794 0.113351
0.529720 0.349946 0.118005
0.557417 0.353135 0.122955
0.585425 0.356436 0.128197
0.615529 0.359619 0.133376
0.645277 0.362605 0.138855
0.676679 0.364947 0.144517
0.705853 0.367618 0.150342
0.732187 0.370404 0.156150
0.760189 0.374449 0.161796
0.787970 0.379355 0.167437
0.816145 0.385399 0.173161
0.842282 0.391705 0.179012
0.867865 0.398381 0.184878
0.895335 0.404715 0.190494
0.924751 0.410458 0.196080
0.954249 0.416151 0.201737
0.155111 0.360459 0.092884
0.181512 0.360459 0.092884
0.207913 0.360459 0.092884
0.209642 0.360508 0.092940
0.216373 0.360696 0.093250
0.228135 0.361141 0.093941
0.245591 0.361733 0.095110
0.265052 0.362272 0.096136
0.287364 0.362938 0.097518
0.312136 0.363855 0.099126
0.339285 0.364827 0.101178
0.366793 0.365909 0.103291
0.394703 0.367550 0.106092
0.423091 0.369576 0.109345
0.450604 0.371673 0.113061
0.477812 0.374018 0.116852
0.505595 0.376585 0.121104
0.532235 0.379335 0.125576
0.559840 0.382229 0.130090
0.587739 0.385271 0.134888
0.617794 0.388192 0.140185
0.647299 0.391071 0.145409
0.678161 0.393578 0.150946
0.706908 0.396155 0.156493
0.733085 0.398887 0.161999
0.760958 0.402704 0.167423
0.788780 0.407030 0.172932
0.817012 0.412046 0.178524
0.843271 0.416867 0.184144
0.868990 0.422085 0.189730
0.896449 0.427747 0.195180
0.925716 0.433364 0.200721
0.955121 0.439086 0.206134
0.171912 0.393943 0.106060
0.197788 0.393943 0.106060
0.223664 0.393943 0.106060
0.225133 0.393983 0.106102
0.230782 0.394134 0.106350
0.241588 0.394399 0.106815
0.256487 0.394775 0.107485
0.274706 0.395196 0.108274
0.296306 0.395678 0.109320
0.320114 0.396658 0.110699
0.346390 0.397630 0.112486
0.372915 0.398426 0.114293
0.400548 0.399698 0.116544
0.428152 0.401509 0.119281
0.454947 0.403276 0.122340
0.481698 0.405156 0.125795
0.509215 0.407288 0.129469
0.535496 0.409800 0.133711
0.562706 0.412476 0.138081
0.590348 0.415127 0.142608
0.620074 0.417559 0.147413
0.649470 0.420003 0.152492
0.679977 0.422133 0.157696
0.708319 0.424365 0.162963
0.734391 0.426930 0.168241
0.762287 0.430318 0.173566
0.790230 0.433938 0.178984
0.818503 0.437783 0.184422
0.844817 0.441585 0.189721
0.870576 0.445793 0.195140
0.897927 0.450893 0.200400
0.927095 0.456380 0.205621
0.956424 0.462011 0.210896
0.189513 0.426619 0.118291
0.214839 0.426619 0.118291
0.240165 0.426619 0.118291
0.241522 0.426645 0.118327
0.246552 0.426733 0.118492
0.255700 0.426865 0.118766
0.269251 0.427010 0.119237
0.286210 0.427167 0.119872
0.306230 0.427731 0.120741
0.329300 0.428810 0.121997
0.354068 0.429354 0.123559
0.379766 0.429563 0.125391
0.407073 0.430638 0.127530
0.434026 0.431997 0.129888
0.460239 0.433401 0.132615
0.486504 0.435000 0.135694
0.512920 0.436972 0.139132
0.538834 0.439102 0.142727
0.565587 0.441269 0.146659
0.592937 0.443574 0.150856
0.622540 0.445618 0.155342
0.651873 0.447621 0.159904
0.682183 0.449471 0.164728
0.710209 0.451671 0.169760
0.736162 0.454290 0.175059
0.764169 0.457325 0.180293
0.792179 0.460342 0.185492
0.820453 0.463569 0.190811
0.846811 0.466796 0.195930
0.872390 0.470376 0.201127
0.899615 0.474876 0.206165
0.928744 0.480064 0.211157
0.958017 0.485431 0.216236
0.208832 0.456609 0.130161
0.233554 0.456609 0.130161
0.258276 0.456609 0.130161
0.259489 0.456615 0.130187
0.263794 0.456652 0.130264
0.271801 0.456697 0.130469
0.283927 0.456899 0.130811
0.299443 0.457257 0.131414
0.317923 0.457962 0.132387
0.340176 0.458485 0.133577
0.363881 0.458637 0.135051
0.388914 0.458841 0.136701
0.415235 0.459705 0.138730
0.440671 0.460861 0.140836
0.465888 0.462203 0.143324
0.491449 0.463745 0.146137
0.516777 0.465475 0.149214
0.542360 0.467518 0.152502
0.568677 0.469547 0.156024
0.595951 0.471758 0.159703
0.625366 0.473623 0.163647
0.654707 0.475605 0.167827
0.684658 0.477571 0.172361
0.712239 0.479751 0.177152
0.738225 0.482191 0.182355
0.766452 0.484883 0.187521
0.794343 0.487684 0.192642
0.822660 0.490355 0.197685
0.848982 0.492953 0.202612
0.874450 0.496089 0.207622
0.901618 0.500270 0.212494
0.930602 0.504795 0.217268
0.959698 0.509641 0.222180
0.229542 0.485421 0.141774
0.253617 0.485421 0.141774
0.277691 0.485421 0.141774
0.278749 0.485443 0.141793
0.282394 0.485518 0.141880
0.289512 0.485714 0.142074
0.300016 0.486153 0.142480
0.314094 0.486667 0.143194
0.331986 0.487164 0.144160
0.352578 0.487516 0.145376
0.375044 0.487685 0.146792
0.399187 0.487989 0.148347
0.423833 0.488651 0.150182
0.447766 0.489661 0.152195
0.471623 0.490987 0.154463
0.496599 0.492592 0.156956
0.521287 0.494397 0.159693
0.546615 0.496423 0.162633
0.572621 0.498527 0.165737
0.599939 0.500574 0.168989
0.629231 0.502627 0.172627
0.658491 0.504541 0.176653
0.688079 0.506388 0.180826
0.714936 0.508302 0.185561
0.740885 0.510522 0.190527
0.769062 0.512826 0.195447
0.796952 0.515152 0.200266
0.825216 0.517424 0.205140
0.851391 0.519887 0.209944
0.876727 0.522947 0.214613
0.903707 0.526666 0.219301
0.932669 0.530767 0.223969
0.961748 0.535221 0.228625
0.249554 0.514346 0.153669
0.273003 0.514346 0.153669
0.296452 0.514346 0.153669
0.297370 0.514382 0.153694
0.300513 0.514529 0.153803
0.306770 0.514816 0.154077
0.316068 0.515292 0.154544
0.329459 0.515862 0.155222
0.345951 0.516493 0.156144
0.364979 0.516829 0.157281
0.385891 0.516992 0.158527
0.409001 0.517139 0.159912
0.432075 0.517664 0.161500
0.454894 0.518697 0.163328
0.477938 0.520093 0.165392
0.502239 0.521816 0.167750
0.526209 0.523846 0.170310
0.551479 0.526118 0.172990
0.577389 0.528535 0.175978
0.605039 0.530720 0.179144
0.633711 0.532621 0.182388
0.663270 0.534240 0.186147
0.692205 0.535707 0.190127
0.718123 0.537617 0.194379
0.744012 0.539575 0.198934
0.772161 0.541452 0.203579
0.800111 0.543797 0.208187
0.828108 0.545836 0.212917
0.854147 0.548331 0.217496
0.879073 0.551650 0.221945
0.905919 0.554807 0.226288
0.934869 0.557974 0.230874
0.963891 0.561745 0.235450
0.267201 0.544929 0.165254
0.290099 0.544929 0.165254
0.312997 0.544929 0.165254
0.313827 0.544983 0.165281
0.316567 0.545173 0.165399
0.322150 0.545544 0.165656
0.331102 0.546260 0.166085
0.343197 0.546959 0.166730
0.357970 0.547880 0.167610
0.376038 0.547649 0.168631
0.396533 0.547336 0.169879
0.418251 0.547221 0.171333
0.439945 0.547671 0.172940
0.461977 0.548977 0.174679
0.484733 0.550709 0.176624
0.508347 0.552793 0.178833
0.531877 0.555067 0.181201
0.556985 0.557506 0.183801
0.582777 0.559774 0.186632
0.610666 0.561607 0.189506
0.638663 0.562998 0.192564
0.668089 0.564431 0.196040
0.696541 0.565581 0.199796
0.721754 0.567316 0.203662
0.747515 0.568961 0.207844
0.775595 0.571235 0.212088
0.803419 0.573230 0.216543
0.831016 0.575482 0.220840
0.856691 0.578014 0.225176
0.881550 0.580914 0.229437
0.908434 0.583915 0.233614
0.937136 0.586915 0.238085
0.966052 0.590028 0.242468
0.282028 0.577708 0.176840
0.304463 0.577708 0.176840
0.326898 0.577708 0.176840
0.327721 0.577755 0.176875
0.330412 0.577955 0.176995
0.335641 0.578387 0.177227
0.343818 0.579006 0.177674
0.354863 0.579746 0.178323
0.369302 0.579760 0.179159
0.386422 0.579232 0.180162
0.406324 0.578659 0.181417
0.426749 0.578771 0.182843
0.447259 0.579474 0.184287
0.468574 0.580894 0.185903
0.491100 0.582714 0.187824
0.514197 0.584738 0.189858
0.537832 0.586809 0.192110
0.562769 0.588657 0.194557
0.588593 0.590545 0.197327
0.616432 0.592047 0.200055
0.643852 0.593353 0.202910
0.673050 0.594660 0.206141
0.700594 0.596174 0.209669
0.725182 0.597837 0.213260
0.751243 0.599619 0.216979
0.778966 0.601822 0.220929
0.806868 0.604304 0.225075
0.834106 0.606590 0.229263
0.859333 0.609325 0.233333
0.883998 0.612928 0.237095
0.910673 0.614911 0.241219
0.939574 0.616433 0.245477
0.968587 0.619092 0.249780
0.294655 0.613241 0.188131
0.316696 0.613241 0.188131
0.338736 0.613241 0.188131
0.339576 0.613227 0.188176
0.342295 0.613233 0.188342
0.347525 0.613417 0.188643
0.355068 0.613884 0.189111
0.365781 0.614258 0.189778
0.379916 0.613587 0.190593
0.396816 0.613113 0.191571
0.415482 0.612586 0.192739
0.434636 0.612775 0.194034
0.454831 0.613597 0.195428
0.475573 0.614858 0.196944
0.498093 0.616460 0.198679
0.520579 0.617981 0.200675
0.544398 0.619405 0.202818
0.569208 0.620599 0.205244
0.594824 0.621744 0.207862
0.622511 0.623362 0.210379
0.649644 0.624447 0.213194
0.677991 0.626089 0.216187
0.704691 0.627373 0.219387
0.729217 0.629236 0.222726
0.755274 0.630942 0.226299
0.782918 0.632792 0.230114
0.810571 0.635113 0.234008
0.836903 0.637577 0.237685
0.861897 0.640644 0.241321
0.886368 0.643206 0.245053
0.913063 0.646414 0.248764
0.941894 0.648698 0.252978
0.970801 0.649828 0.257397
0.309591 0.645582 0.199756
0.331165 0.645582 0.199756
0.352738 0.645582 0.199756
0.353536 0.645566 0.199798
0.356042 0.645542 0.199957
0.360891 0.645625 0.200243
0.368549 0.645608 0.200684
0.379054 0.645517 0.201323
0.392325 0.645334 0.202073
0.408097 0.645287 0.202966
0.425214 0.645272 0.204055
0.443401 0.645477 0.205292
0.463035 0.646270 0.206629
0.483948 0.647167 0.208086
0.506290 0.648217 0.209728
0.528419 0.648910 0.211640
0.552216 0.649744 0.213757
0.576173 0.650424 0.216066
0.602098 0.651189 0.218553
0.628967 0.652513 0.220934
0.655954 0.654098 0.223480
0.683305 0.655629 0.226408
0.709153 0.657510 0.229406
0.733308 0.659174 0.232581
0.759794 0.661244 0.235821
0.786911 0.663265 0.239144
0.814362 0.665512 0.242708
0.840006 0.668045 0.246165
0.864668 0.670383 0.249792
0.889100 0.673252 0.253426
0.915626 0.675766 0.257082
0.944302 0.678541 0.260903
0.973198 0.681732 0.264793
0.325679 0.676297 0.211393
0.346750 0.676297 0.211393
0.367820 0.676297 0.211393
0.368540 0.676304 0.211426
0.370911 0.676311 0.211570
0.375498 0.676285 0.211850
0.382633 0.676198 0.212287
0.392601 0.676361 0.212860
0.405169 0.676449 0.213590
0.419764 0.676607 0.214430
0.435789 0.676836 0.215429
0.453304 0.677177 0.216500
0.472327 0.677713 0.217744
0.493099 0.678106 0.219005
0.514524 0.678649 0.220464
0.536448 0.678978 0.222150
0.559771 0.679359 0.224164
0.583636 0.679840 0.226395
0.609153 0.680824 0.228743
0.635032 0.682309 0.231024
0.661748 0.684000 0.233614
0.688558 0.685949 0.236339
0.713369 0.687894 0.239153
0.737725 0.690104 0.242123
0.764479 0.691723 0.245328
0.791401 0.693562 0.248473
0.818481 0.695449 0.251771
0.843590 0.697479 0.255235
0.868152 0.699767 0.258632
0.892283 0.701782 0.262320
0.918542 0.705010 0.265741
0.946996 0.708371 0.269313
0.975686 0.711095 0.273056
0.343710 0.706316 0.223304
0.364217 0.706316 0.223304
0.384724 0.706316 0.223304
0.385384 0.706332 0.223333
0.387571 0.706389 0.223453
0.391901 0.706475 0.223700
0.398685 0.706604 0.224098
0.407747 0.706815 0.224647
0.419214 0.707089 0.225294
0.432563 0.707374 0.226061
0.447756 0.707671 0.226956
0.464557 0.707978 0.227952
0.483032 0.708219 0.229105
0.503044 0.708479 0.230409
0.523313 0.708633 0.231761
0.544976 0.708827 0.233358
0.567568 0.709117 0.235091
0.590880 0.709566 0.236924
0.616027 0.710790 0.238919
0.640544 0.712315 0.240974
0.667423 0.713982 0.243330
0.693570 0.715538 0.246093
0.718068 0.717377 0.248748
0.742485 0.718803 0.251674
0.769707 0.720570 0.254610
0.796240 0.721841 0.257706
0.822876 0.723451 0.260813
0.847656 0.725155 0.264300
0.871865 0.726602 0.267988
0.896014 0.728892 0.272037
0.921881 0.732068 0.275293
0.950009 0.736920 0.278286
0.978504 0.740682 0.281572
0.360427 0.736633 0.235046
0.380412 0.736633 0.235046
0.400397 0.736633 0.235046
0.401009 0.736658 0.235071
0.402940 0.736734 0.235178
0.406935 0.736831 0.235403
0.413050 0.737016 0.235755
0.421453 0.737379 0.236224
0.431939 0.737799 0.236814
0.444288 0.738136 0.237495
0.458717 0.738521 0.238265
0.474720 0.738831 0.239173
0.492705 0.739046 0.240118
0.511856 0.739223 0.241245
0.531496 0.739357 0.242416
0.552743 0.739424 0.243917
0.574697 0.739810 0.245513
0.597600 0.740252 0.247285
0.622388 0.741550 0.249149
0.646457 0.742944 0.251252
0.673385 0.744037 0.253581
0.699256 0.745293 0.256172
0.723316 0.746982 0.258692
0.748346 0.748376 0.261413
0.775302 0.749526 0.264424
0.801853 0.751114 0.267458
0.827765 0.752280 0.270862
0.852231 0.753997 0.274358
0.876177 0.755658 0.277876
0.899652 0.757842 0.281840
0.925543 0.760984 0.285114
0.953483 0.763685 0.287978
0.981660 0.768348 0.290893
0.376441 0.769266 0.246538
0.395925 0.769266 0.246538
0.415410 0.769266 0.246538
0.415998 0.769280 0.246564
0.417805 0.769335 0.246673
0.421409 0.769442 0.246880
0.427053 0.769641 0.247192
0.434693 0.769922 0.247635
0.444409 0.770266 0.248175
0.456329 0.770439 0.248869
0.469953 0.770682 0.249648
0.485862 0.770723 0.250551
0.503269 0.770719 0.251543
0.521393 0.770705 0.252608
0.540861 0.770609 0.253810
0.561464 0.770729 0.255096
0.582485 0.771015 0.256498
0.605670 0.771460 0.258128
0.629707 0.772144 0.259963
0.654534 0.772959 0.261990
0.680612 0.773583 0.264455
0.706200 0.774365 0.266956
0.729890 0.775468 0.269567
0.755402 0.776788 0.272293
0.781702 0.778124 0.274973
0.807589 0.779433 0.277765
0.833064 0.781057 0.280888
0.856777 0.782661 0.284498
0.880372 0.784715 0.288062
0.903257 0.786855 0.291879
0.928779 0.789688 0.295193
0.957093 0.793113 0.297798
0.985219 0.795832 0.300661
0.392794 0.800609 0.258147
0.411767 0.800609 0.258147
0.430740 0.800609 0.258147
0.431274 0.800620 0.258171
0.432923 0.800666 0.258276
0.436268 0.800739 0.258494
0.441435 0.800879 0.258803
0.448765 0.801029 0.259173
0.458038 0.801229 0.259651
0.469406 0.801277 0.260348
0.482873 0.801242 0.261090
0.498347 0.801121 0.261965
0.514899 0.800839 0.263009
0.532745 0.800572 0.264025
0.551901 0.800226 0.265224
0.571653 0.800502 0.266475
0.592610 0.800548 0.267865
0.615527 0.801273 0.269490
0.638490 0.801824 0.271364
0.663903 0.802499 0.273456
0.689459 0.803004 0.275706
0.713574 0.803791 0.278078
0.737283 0.805139 0.280521
0.762457 0.806307 0.283129
0.787955 0.808023 0.285915
0.813670 0.809448 0.288752
0.837945 0.811010 0.292013
0.861727 0.812588 0.295393
0.884746 0.814204 0.298945
0.907285 0.816495 0.302444
0.932412 0.818499 0.305389
0.960289 0.821876 0.307856
0.988682 0.825049 0.310605
0.412887 0.830553 0.270750
0.431232 0.830553 0.270750
0.449577 0.830553 0.270750
0.450103 0.830549 0.270775
0.451697 0.830533 0.270882
0.454866 0.830505 0.271091
0.459779 0.830501 0.271381
0.466549 0.830526 0.271754
0.475168 0.830608 0.272223
0.486147 0.830589 0.272813
0.499025 0.830498 0.273540
0.513295 0.830355 0.274367
0.528743 0.830218 0.275216
0.546284 0.829981 0.276194
0.564493 0.830021 0.277256
0.583532 0.830199 0.278415
0.604565 0.830601 0.279787
0.626532 0.831214 0.281371
0.649054 0.831987 0.283155
0.674167 0.832549 0.285184
0.698771 0.833187 0.287352
0.721457 0.833918 0.289707
0.744646 0.834951 0.292083
0.769990 0.836079 0.294710
0.794733 0.836862 0.297551
0.820247 0.837857 0.300394
0.843899 0.838819 0.303477
