docs/guides/setting_presets/sdr-expert1-g220-o43-138n-33p-3dlut.cube
# Created by ArgyllCMS
LUT_3D_SIZE 33
DOMAIN_MIN 0.0 0.0 0.0
DOMAIN_MAX 1.0 1.0 1.0
0.000000 0.000000 0.000000
0.031250 0.000000 0.000000
0.062500 0.000000 0.000000
0.091594 0.024935 0.012843
0.120233 0.035277 0.027820
0.148938 0.042600 0.028308
0.176571 0.048300 0.022285
0.203738 0.051565 0.023402
0.231638 0.055657 0.025472
0.260165 0.060689 0.029117
0.289311 0.065270 0.033946
0.319381 0.069811 0.039114
0.349293 0.074919 0.044556
0.379862 0.080704 0.050341
0.409561 0.087314 0.056832
0.437939 0.095437 0.063078
0.466327 0.104246 0.069773
0.494402 0.114412 0.076000
0.521713 0.124058 0.081797
0.549882 0.132494 0.086784
0.579395 0.140715 0.091812
0.610730 0.148044 0.096795
0.642299 0.154089 0.101826
0.673398 0.158708 0.107175
0.702839 0.163332 0.112568
0.731495 0.168829 0.118067
0.760184 0.176369 0.123496
0.789199 0.185031 0.129022
0.819687 0.194931 0.134348
0.848688 0.204952 0.139968
0.877695 0.213760 0.145294
0.906881 0.221518 0.150508
0.935997 0.229158 0.155699
0.000000 0.031250 0.000000
0.031250 0.031250 0.000000
0.062500 0.031250 0.000000
0.091594 0.055402 0.012843
0.120233 0.065424 0.027820
0.148938 0.072518 0.028308
0.176571 0.078040 0.022285
0.203738 0.081203 0.023402
0.231638 0.085167 0.025472
0.260165 0.090042 0.029117
0.289311 0.094480 0.033946
0.319381 0.098879 0.039114
0.349293 0.103827 0.044556
0.379862 0.109431 0.050341
0.409561 0.115835 0.056832
0.437939 0.123703 0.063078
0.466327 0.132237 0.069773
0.494402 0.142085 0.076000
0.521713 0.151430 0.081797
0.549882 0.159603 0.086784
0.579395 0.167567 0.091812
0.610730 0.174666 0.096795
0.642299 0.180523 0.101826
0.673398 0.184998 0.107175
0.702839 0.189477 0.112568
0.731495 0.194802 0.118067
0.760184 0.202106 0.123496
0.789199 0.210498 0.129022
0.819687 0.220088 0.134348
0.848688 0.229796 0.139968
0.877695 0.238329 0.145294
0.906881 0.245844 0.150508
0.935997 0.253247 0.155699
0.000000 0.062500 0.000000
0.031250 0.062500 0.000000
0.062500 0.062500 0.000000
0.091594 0.085870 0.012843
0.120233 0.095570 0.027820
0.148938 0.102436 0.028308
0.176571 0.107780 0.022285
0.203738 0.110841 0.023402
0.231638 0.114677 0.025472
0.260165 0.119395 0.029117
0.289311 0.123689 0.033946
0.319381 0.127947 0.039114
0.349293 0.132735 0.044556
0.379862 0.138159 0.050341
0.409561 0.144356 0.056832
0.437939 0.151970 0.063078
0.466327 0.160228 0.069773
0.494402 0.169759 0.076000
0.521713 0.178802 0.081797
0.549882 0.186711 0.086784
0.579395 0.194419 0.091812
0.610730 0.201289 0.096795
0.642299 0.206957 0.101826
0.673398 0.211288 0.107175
0.702839 0.215622 0.112568
0.731495 0.220776 0.118067
0.760184 0.227844 0.123496
0.789199 0.235965 0.129022
0.819687 0.245246 0.134348
0.848688 0.254640 0.139968
0.877695 0.262898 0.145294
0.906881 0.270171 0.150508
0.935997 0.277336 0.155699
0.015774 0.097511 0.007431
0.046529 0.097511 0.007431
0.077284 0.097511 0.007431
0.094125 0.099362 0.016708
0.122406 0.105319 0.028168
0.150283 0.111010 0.027742
0.177662 0.115302 0.021745
0.204672 0.118724 0.022372
0.232487 0.122216 0.025516
0.260809 0.126635 0.029432
0.289671 0.130705 0.034222
0.319555 0.134673 0.039379
0.349266 0.138982 0.044804
0.379883 0.143567 0.050786
0.409587 0.149144 0.057352
0.438015 0.156303 0.063637
0.466423 0.164312 0.070272
0.494519 0.173329 0.076451
0.521838 0.181836 0.082129
0.550002 0.189628 0.087043
0.579518 0.197188 0.092065
0.610858 0.203880 0.097005
0.642423 0.209327 0.102006
0.673481 0.213656 0.107329
0.702915 0.217836 0.112746
0.731542 0.222992 0.118225
0.760216 0.229961 0.123629
0.789218 0.238071 0.129126
0.819703 0.247208 0.134461
0.848719 0.256466 0.140077
0.877725 0.264588 0.145409
0.906910 0.271795 0.150619
0.936025 0.278907 0.155806
0.027383 0.128308 0.017203
0.057776 0.128308 0.017203
0.088169 0.128308 0.017203
0.099585 0.128498 0.020346
0.126766 0.130480 0.023293
0.154802 0.133960 0.019010
0.180856 0.136414 0.018060
0.207382 0.139022 0.021708
0.234856 0.141911 0.027101
0.262642 0.145136 0.031510
0.290875 0.148621 0.036128
0.320310 0.151609 0.041324
0.349689 0.155048 0.046655
0.380128 0.158860 0.052660
0.409797 0.163529 0.058867
0.438386 0.169349 0.065428
0.466783 0.176600 0.071900
0.494849 0.184232 0.077836
0.522181 0.191503 0.083184
0.550366 0.198840 0.087869
0.579878 0.205907 0.092863
0.611265 0.212065 0.097709
0.642802 0.217037 0.102693
0.673798 0.221008 0.107887
0.703117 0.225006 0.113307
0.731688 0.230078 0.118769
0.760323 0.236726 0.124106
0.789320 0.244610 0.129512
0.819783 0.253324 0.134895
0.848832 0.262050 0.140485
0.877817 0.269933 0.145787
0.906998 0.276903 0.150982
0.936111 0.283808 0.156156
0.042110 0.156384 0.023194
0.072042 0.156384 0.023194
0.101974 0.156384 0.023194
0.111137 0.156747 0.024002
0.134935 0.158077 0.023489
0.160122 0.159881 0.021161
0.184794 0.161630 0.024099
0.210151 0.164679 0.030257
0.237320 0.166515 0.034068
0.264679 0.169000 0.037766
0.292673 0.171583 0.041895
0.321601 0.174399 0.045914
0.350791 0.177182 0.050782
0.381104 0.180360 0.056566
0.410525 0.184454 0.062401
0.438913 0.189404 0.068885
0.467328 0.195093 0.074387
0.495311 0.201340 0.080034
0.522696 0.207729 0.084796
0.550961 0.214145 0.089623
0.580539 0.220357 0.094446
0.611949 0.225678 0.099021
0.643432 0.229908 0.104037
0.674311 0.233405 0.109082
0.703511 0.237158 0.114331
0.731969 0.242022 0.119731
0.760515 0.248399 0.125056
0.789497 0.255701 0.130320
0.819932 0.263733 0.135787
0.849005 0.271856 0.141323
0.877999 0.279262 0.146606
0.907171 0.285882 0.151763
0.936270 0.292504 0.156896
0.060301 0.185931 0.032347
0.089664 0.185931 0.032347
0.119028 0.185931 0.032347
0.125732 0.186222 0.032374
0.144427 0.186972 0.031626
0.166095 0.187674 0.032471
0.189438 0.188800 0.036809
0.213902 0.191127 0.040799
0.239921 0.193218 0.042845
0.267201 0.195417 0.045519
0.295187 0.197995 0.048972
0.323919 0.200434 0.052755
0.352816 0.203053 0.057124
0.382671 0.206012 0.061938
0.411769 0.209439 0.067733
0.440019 0.213310 0.073044
0.468233 0.217722 0.078290
0.496127 0.222948 0.083047
0.523592 0.228687 0.087562
0.551869 0.234130 0.092340
0.581483 0.239379 0.096597
0.612925 0.243764 0.101295
0.644277 0.247200 0.106026
0.675072 0.250114 0.111077
0.704018 0.253521 0.116283
0.732348 0.258230 0.121432
0.760796 0.264041 0.126594
0.789749 0.270572 0.131869
0.820223 0.277954 0.137187
0.849301 0.285489 0.142672
0.878298 0.292357 0.147954
0.907450 0.298592 0.153015
0.936550 0.304798 0.158072
0.078024 0.217475 0.043297
0.106833 0.217475 0.043297
0.135643 0.217475 0.043297
0.140478 0.217601 0.043293
0.154426 0.217997 0.043670
0.173439 0.218332 0.045400
0.195274 0.218699 0.048227
0.218940 0.220398 0.048992
0.243926 0.222327 0.050314
0.270656 0.224314 0.053405
0.298532 0.226662 0.057063
0.326852 0.228790 0.060619
0.355255 0.230983 0.064617
0.384785 0.233249 0.069324
0.413527 0.235915 0.073766
0.441527 0.239032 0.078591
0.469530 0.243035 0.083102
0.497340 0.247477 0.087471
0.524853 0.252367 0.091720
0.553147 0.257136 0.095648
0.582813 0.261195 0.099910
0.614306 0.264483 0.104407
0.645435 0.267345 0.108975
0.675972 0.270116 0.113934
0.704638 0.273415 0.118916
0.732865 0.277627 0.123933
0.761208 0.282858 0.128963
0.790144 0.288901 0.134159
0.820646 0.295696 0.139448
0.849746 0.302695 0.145077
0.878737 0.309044 0.150377
0.907886 0.314713 0.155313
0.936946 0.320461 0.160204
0.092993 0.248707 0.054509
0.121335 0.248707 0.054509
0.149677 0.248707 0.054509
0.153725 0.248760 0.054664
0.165201 0.248995 0.055209
0.182131 0.249260 0.056176
0.202493 0.249882 0.057285
0.225196 0.250932 0.058465
0.249441 0.252325 0.060278
0.275184 0.253888 0.063531
0.302693 0.255794 0.066962
0.330278 0.257877 0.070127
0.358575 0.259808 0.073265
0.387753 0.261807 0.076888
0.415904 0.264033 0.081093
0.443842 0.266753 0.084933
0.471712 0.270138 0.088704
0.499357 0.273959 0.092446
0.526805 0.277774 0.096179
0.554959 0.281453 0.099985
0.584453 0.284857 0.104133
0.615807 0.287627 0.108356
0.646728 0.290160 0.112853
0.676974 0.292818 0.117656
0.705315 0.295993 0.122470
0.733464 0.299849 0.127511
0.761726 0.304658 0.132510
0.790714 0.310233 0.137601
0.821215 0.316294 0.142886
0.850445 0.322453 0.148417
0.879443 0.328234 0.153463
0.908522 0.333428 0.158252
0.937542 0.338665 0.163038
0.108190 0.279016 0.066108
0.136057 0.279016 0.066108
0.163924 0.279016 0.066108
0.167090 0.279064 0.066160
0.176463 0.279203 0.066255
0.191656 0.279625 0.066889
0.211058 0.280402 0.068071
0.232266 0.281158 0.069254
0.255829 0.281899 0.070889
0.280847 0.283437 0.073430
0.307504 0.285319 0.076189
0.334474 0.287248 0.079412
0.362547 0.289033 0.082539
0.391414 0.290810 0.085289
0.419440 0.292795 0.088254
0.446935 0.295252 0.091529
0.474443 0.298133 0.094599
0.501657 0.301128 0.097899
0.528978 0.304202 0.101449
0.556940 0.307184 0.105209
0.586268 0.309876 0.109099
0.617557 0.312382 0.113368
0.648247 0.314614 0.117783
0.678377 0.317093 0.122394
0.706409 0.319986 0.127222
0.734472 0.323674 0.132062
0.762667 0.328483 0.136963
0.791611 0.333903 0.142065
0.822132 0.339416 0.147252
0.851375 0.345063 0.152593
0.880365 0.350236 0.157473
0.909381 0.354866 0.162054
0.938342 0.359516 0.166656
0.122175 0.308830 0.076497
0.149605 0.308830 0.076497
0.177035 0.308830 0.076497
0.179640 0.308887 0.076573
0.187854 0.309133 0.076818
0.201514 0.309607 0.077447
0.219428 0.310255 0.078345
0.239819 0.310899 0.079209
0.262900 0.312061 0.080835
0.287562 0.313542 0.082890
0.313329 0.315177 0.085403
0.339520 0.316805 0.088117
0.367283 0.318237 0.090702
0.395446 0.319754 0.093097
0.422798 0.321437 0.095574
0.449850 0.323541 0.098119
0.476953 0.325900 0.101081
0.503886 0.328500 0.104293
0.531108 0.331138 0.107494
0.559049 0.333868 0.111144
0.588417 0.336309 0.114927
0.619711 0.338513 0.119105
0.650171 0.340740 0.123523
0.680078 0.343132 0.128061
0.707811 0.346129 0.132699
0.735702 0.350096 0.137499
0.763750 0.354896 0.142213
0.792746 0.359962 0.147149
0.823258 0.364784 0.152307
0.852652 0.369583 0.157516
0.881548 0.374230 0.162233
0.910539 0.378553 0.166643
0.939449 0.382771 0.171063
0.135686 0.339028 0.086337
0.162694 0.339028 0.086337
0.189703 0.339028 0.086337
0.192092 0.339062 0.086388
0.199308 0.339295 0.086583
0.211790 0.339744 0.087031
0.228405 0.340321 0.087751
0.248128 0.341561 0.088319
0.270210 0.342925 0.089621
0.294195 0.344230 0.091564
0.319314 0.345625 0.093888
0.345061 0.347006 0.096187
0.372114 0.348247 0.098323
0.399314 0.349485 0.100512
0.425875 0.351011 0.103024
0.452479 0.352747 0.105696
0.479474 0.354965 0.108344
0.506248 0.357310 0.111186
0.533544 0.359675 0.114352
0.561557 0.362031 0.117821
0.591149 0.364301 0.121470
0.622137 0.366394 0.125524
0.652322 0.368524 0.129750
0.681903 0.371042 0.134276
0.709203 0.374255 0.138721
0.736961 0.378143 0.143175
0.764919 0.382350 0.147942
0.794113 0.386697 0.152848
0.824710 0.390786 0.157903
0.854036 0.394762 0.162984
0.882958 0.398896 0.167564
0.911840 0.403076 0.171866
0.940717 0.407166 0.176109
0.149908 0.370659 0.095684
0.176471 0.370659 0.095684
0.203035 0.370659 0.095684
0.205178 0.370720 0.095693
0.211873 0.370969 0.095798
0.223145 0.371505 0.095964
0.238315 0.372381 0.096253
0.257005 0.373497 0.096851
0.278033 0.374662 0.098037
0.301153 0.375636 0.099731
0.325386 0.376633 0.101678
0.350563 0.377609 0.103773
0.377246 0.378614 0.105862
0.403911 0.379720 0.108193
0.429950 0.380952 0.110738
0.456217 0.382412 0.113404
0.482999 0.384232 0.115948
0.509614 0.386119 0.118621
0.537001 0.388153 0.121475
0.564779 0.390276 0.124890
0.594254 0.392375 0.128614
0.624890 0.394443 0.132520
0.654637 0.396636 0.136585
0.683844 0.399219 0.140729
0.710829 0.402407 0.144956
0.738617 0.405945 0.149500
0.766729 0.409758 0.154126
0.796304 0.413433 0.158816
0.826804 0.416705 0.163719
0.856411 0.420013 0.168739
0.885126 0.423744 0.173205
0.913752 0.427668 0.177358
0.942293 0.431771 0.181519
0.165425 0.401793 0.104580
0.191503 0.401793 0.104580
0.217582 0.401793 0.104580
0.219485 0.401856 0.104575
0.225389 0.402079 0.104576
0.235680 0.402505 0.104670
0.249740 0.403152 0.104999
0.267231 0.403910 0.105769
0.287185 0.404671 0.106841
0.309504 0.405433 0.108267
0.332615 0.406023 0.109877
0.357357 0.406763 0.111924
0.383587 0.407804 0.114100
0.409657 0.408837 0.116476
0.435235 0.409984 0.118810
0.461198 0.411214 0.121323
0.487596 0.412713 0.123868
0.513516 0.414465 0.126497
0.540585 0.416254 0.129280
0.568383 0.418270 0.132549
0.597553 0.420376 0.136084
0.627791 0.422566 0.139821
0.657102 0.424928 0.143655
0.686007 0.427718 0.147767
0.712774 0.430717 0.151972
0.740664 0.434056 0.156158
0.769123 0.437422 0.160596
0.799120 0.440212 0.165131
0.829622 0.442888 0.169905
0.858918 0.445540 0.174627
0.887518 0.449014 0.178987
0.916128 0.452888 0.183178
0.944672 0.456799 0.187215
0.181900 0.431712 0.113275
0.207463 0.431712 0.113275
0.233027 0.431712 0.113275
0.234697 0.431760 0.113285
0.239888 0.431934 0.113339
0.249374 0.432121 0.113688
0.262533 0.432460 0.114303
0.278824 0.432966 0.115150
0.297943 0.433658 0.116109
0.319103 0.434305 0.117365
0.341607 0.434843 0.118991
0.365988 0.435603 0.120949
0.391202 0.436559 0.123025
0.416147 0.437585 0.125213
0.441060 0.438649 0.127407
0.466525 0.439931 0.129743
0.492493 0.441363 0.132086
0.517716 0.443117 0.134694
0.544337 0.444902 0.137452
0.572020 0.446862 0.140562
0.601045 0.449029 0.143860
0.630784 0.451317 0.147427
0.659881 0.453634 0.151226
0.688483 0.456224 0.155099
0.715146 0.459088 0.159046
0.743351 0.462020 0.163125
0.771860 0.464488 0.167398
0.802562 0.466692 0.171825
0.832707 0.468667 0.176369
0.861847 0.471134 0.180956
0.890345 0.474695 0.185210
0.918714 0.478375 0.189174
0.947081 0.482127 0.193121
0.198763 0.460514 0.122792
0.223800 0.460514 0.122792
0.248837 0.460514 0.122792
0.250431 0.460509 0.122865
0.255295 0.460521 0.123110
0.263890 0.460553 0.123500
0.276117 0.460766 0.124151
0.291321 0.461281 0.124905
0.309596 0.462206 0.125758
0.329288 0.462822 0.127008
0.350870 0.463591 0.128565
0.374613 0.464356 0.130344
0.398746 0.465270 0.132205
0.422808 0.466254 0.134177
0.447132 0.467348 0.136213
0.471962 0.468623 0.138379
0.497112 0.470180 0.140583
0.522206 0.471791 0.143047
0.548492 0.473608 0.145806
0.576111 0.475457 0.148863
0.605147 0.477421 0.152035
0.634307 0.479527 0.155449
0.663121 0.481776 0.158978
0.691489 0.483988 0.162522
0.717945 0.486434 0.166301
0.746148 0.488746 0.170142
0.775109 0.490747 0.174301
0.806126 0.492549 0.178463
0.835823 0.494643 0.183014
0.864645 0.497251 0.187335
0.892988 0.500456 0.191419
0.921500 0.503964 0.195374
0.949988 0.507719 0.199344
0.215598 0.488537 0.132980
0.240109 0.488537 0.132980
0.264619 0.488537 0.132980
0.266050 0.488537 0.133039
0.270376 0.488545 0.133245
0.278413 0.488658 0.133605
0.289519 0.488999 0.134143
0.304107 0.489682 0.134779
0.320636 0.490767 0.135557
0.339114 0.491797 0.136597
0.359700 0.492914 0.137891
0.382712 0.493570 0.139498
0.406165 0.494242 0.141259
0.429399 0.495284 0.143103
0.453263 0.496604 0.145036
0.477483 0.498269 0.147169
0.502087 0.499792 0.149491
0.527230 0.501390 0.151982
0.553281 0.502967 0.154556
0.580731 0.504577 0.157409
0.609701 0.506261 0.160500
0.638449 0.508143 0.163577
0.666882 0.510039 0.166897
0.694882 0.512234 0.170152
0.721217 0.514181 0.173729
0.749463 0.516203 0.177347
0.778571 0.517966 0.181394
0.809919 0.519809 0.185391
0.839052 0.521989 0.189647
0.867415 0.524832 0.193982
0.895748 0.527901 0.197935
0.924108 0.530569 0.201761
0.952583 0.533662 0.205587
0.230743 0.518240 0.143216
0.254780 0.518240 0.143216
0.278818 0.518240 0.143216
0.280141 0.518270 0.143260
0.284190 0.518361 0.143421
0.291512 0.518553 0.143712
0.302072 0.519087 0.144115
0.315373 0.519882 0.144641
0.330540 0.521104 0.145327
0.348327 0.522473 0.146131
0.368595 0.523585 0.147291
0.390614 0.524168 0.148871
0.413065 0.524839 0.150596
0.435910 0.526111 0.152539
0.459472 0.527411 0.154475
0.483474 0.529043 0.156553
0.507572 0.530506 0.158748
0.532598 0.531602 0.161053
0.558542 0.532887 0.163425
0.585577 0.534151 0.166118
0.614495 0.535695 0.168799
0.642727 0.537237 0.171697
0.670974 0.539028 0.174687
0.698263 0.540722 0.177864
0.724975 0.542668 0.181096
0.753176 0.544475 0.184653
0.782385 0.546275 0.188529
0.813402 0.548184 0.192428
0.842315 0.550728 0.196704
0.870461 0.554075 0.200879
0.898542 0.556543 0.204749
0.926950 0.558636 0.208464
0.955370 0.561170 0.212152
0.243750 0.550155 0.153352
0.267381 0.550155 0.153352
0.291012 0.550155 0.153352
0.292293 0.550201 0.153388
0.296207 0.550360 0.153518
0.303192 0.550704 0.153746
0.312962 0.551251 0.154106
0.325258 0.552094 0.154509
0.340107 0.553110 0.155118
0.357262 0.554239 0.155910
0.377446 0.554903 0.157079
0.398522 0.555617 0.158521
0.420257 0.556501 0.160164
0.442728 0.557721 0.162063
0.465946 0.559037 0.164017
0.490008 0.560339 0.166167
0.513590 0.561505 0.168241
0.538484 0.562581 0.170410
0.564296 0.563657 0.172604
0.591319 0.564931 0.174913
0.619703 0.566241 0.177591
0.647534 0.567925 0.180197
0.675288 0.569552 0.182960
0.702073 0.571521 0.185824
0.729065 0.573367 0.188871
0.757328 0.575335 0.192059
0.786514 0.577291 0.195963
0.817218 0.579641 0.199909
0.845714 0.582541 0.203771
0.873575 0.585848 0.207713
0.901648 0.588155 0.211400
0.929857 0.588549 0.215294
0.958129 0.589840 0.218926
0.256237 0.584698 0.163219
0.279478 0.584698 0.163219
0.302719 0.584698 0.163219
0.303884 0.584752 0.163250
0.307499 0.584934 0.163364
0.314011 0.585181 0.163580
0.323351 0.585631 0.163856
0.335094 0.586315 0.164259
0.349877 0.586851 0.164896
0.367225 0.587335 0.165807
0.386352 0.587778 0.166997
0.406732 0.588226 0.168520
0.427724 0.589104 0.170165
0.449854 0.590095 0.171989
0.472769 0.591072 0.173821
0.496470 0.592011 0.175789
0.520246 0.592895 0.177763
0.544964 0.593681 0.179844
0.570816 0.594726 0.181888
0.597617 0.595790 0.184091
0.625401 0.597190 0.186335
0.652609 0.598687 0.188792
0.680085 0.600512 0.191263
0.706307 0.602170 0.193996
0.733723 0.604156 0.197064
0.761857 0.606008 0.200383
0.791010 0.608177 0.203857
0.820998 0.610577 0.207522
0.849092 0.613368 0.211203
0.876769 0.616715 0.214934
0.904617 0.618907 0.218514
0.932931 0.620379 0.221928
0.961193 0.621316 0.225570
0.269033 0.618021 0.173085
0.291874 0.618021 0.173085
0.314716 0.618021 0.173085
0.315856 0.618041 0.173118
0.319306 0.618112 0.173235
0.325553 0.618221 0.173457
0.334668 0.618446 0.173768
0.346522 0.618605 0.174274
0.360964 0.618822 0.174966
0.378027 0.618850 0.175994
0.396541 0.619037 0.177317
0.416179 0.619291 0.178823
0.436642 0.620123 0.180515
0.458443 0.621062 0.182258
0.480909 0.621890 0.184035
0.503968 0.622682 0.185762
0.527515 0.623454 0.187457
0.551949 0.624343 0.189291
0.577363 0.625375 0.191108
0.604129 0.626684 0.193114
0.631214 0.627928 0.195252
0.658241 0.629691 0.197613
0.685211 0.631390 0.200102
0.711061 0.633662 0.202670
0.738563 0.635473 0.205515
0.766601 0.637717 0.208483
0.795519 0.639827 0.211848
0.824802 0.642320 0.215297
0.852492 0.645021 0.218752
0.880035 0.647977 0.222301
0.907845 0.650162 0.225650
0.935961 0.651096 0.229214
0.964160 0.652230 0.232637
0.283445 0.650314 0.183206
0.305836 0.650314 0.183206
0.328227 0.650314 0.183206
0.329327 0.650325 0.183240
0.332597 0.650367 0.183361
0.338887 0.650337 0.183681
0.347868 0.650304 0.184129
0.359275 0.650368 0.184678
0.373779 0.650480 0.185580
0.389882 0.650521 0.186599
0.407580 0.650740 0.187887
0.426413 0.651099 0.189291
0.446502 0.651810 0.190871
0.467712 0.652576 0.192352
0.489916 0.653430 0.194013
0.511963 0.654086 0.195409
0.535216 0.654838 0.197023
0.559206 0.655457 0.198584
0.584151 0.656456 0.200258
0.610900 0.657880 0.202298
0.637366 0.659357 0.204292
0.663976 0.661279 0.206574
0.690832 0.663217 0.208879
0.716329 0.665160 0.211548
0.743823 0.667272 0.214355
0.771590 0.669120 0.217280
0.800522 0.671372 0.220311
0.828876 0.673631 0.223539
0.856277 0.676147 0.226750
0.883712 0.678612 0.230179
0.911241 0.680894 0.233333
0.939274 0.682278 0.236393
0.967321 0.683348 0.239800
0.299632 0.681911 0.193517
0.321517 0.681911 0.193517
0.343402 0.681911 0.193517
0.344474 0.681907 0.193564
0.347721 0.681885 0.193735
0.353605 0.681836 0.194057
0.362313 0.681904 0.194561
0.373653 0.681951 0.195279
0.387160 0.682130 0.196186
0.402436 0.682379 0.197315
0.419299 0.682770 0.198576
0.437371 0.683372 0.199884
0.457013 0.683994 0.201256
0.477534 0.684640 0.202584
0.498887 0.685351 0.203891
0.520333 0.685668 0.205086
0.542949 0.686296 0.206407
0.566476 0.686842 0.207757
0.591204 0.687560 0.209235
0.617495 0.688817 0.211190
0.643578 0.690368 0.213375
0.670064 0.692055 0.215613
0.696492 0.693678 0.217993
0.722177 0.695497 0.220501
0.749248 0.697097 0.223160
0.776843 0.699114 0.225862
0.805485 0.700892 0.228763
0.833111 0.703187 0.231675
0.860060 0.705233 0.234850
0.887681 0.707735 0.238039
0.915164 0.709941 0.241207
0.942828 0.712686 0.244301
0.970680 0.714196 0.247189
0.316155 0.712460 0.204119
0.337523 0.712460 0.204119
0.358892 0.712460 0.204119
0.359964 0.712485 0.204170
0.363205 0.712572 0.204354
0.368866 0.712752 0.204676
0.377064 0.712912 0.205189
0.387504 0.713094 0.205838
0.400262 0.713608 0.206627
0.414582 0.714024 0.207640
0.430432 0.714783 0.208644
0.447985 0.715525 0.209843
0.466990 0.716163 0.211019
0.486983 0.716863 0.212269
0.507193 0.717194 0.213422
0.528461 0.717545 0.214557
0.550423 0.717835 0.215768
0.573946 0.718267 0.217142
0.598496 0.718968 0.218690
0.624447 0.720065 0.220502
0.650274 0.721542 0.222575
0.676929 0.723456 0.224711
0.702583 0.724851 0.227071
0.728649 0.726686 0.229608
0.755198 0.728289 0.232231
0.782023 0.730229 0.234771
0.810680 0.732272 0.237459
0.837392 0.734422 0.240265
0.864190 0.736727 0.243117
0.891811 0.738745 0.246291
0.919249 0.740639 0.249131
0.946860 0.741491 0.252115
0.974411 0.743799 0.255143
0.333672 0.745710 0.214582
0.354493 0.745710 0.214582
0.375314 0.745710 0.214582
0.376302 0.745728 0.214629
0.379206 0.745805 0.214797
0.384381 0.745963 0.215095
0.391921 0.746279 0.215528
0.401651 0.746618 0.216110
0.413500 0.747048 0.216854
0.427002 0.747589 0.217702
0.442221 0.748202 0.218677
0.459200 0.748813 0.219702
0.477472 0.749357 0.220847
0.496842 0.749859 0.221986
0.516210 0.749866 0.223035
0.537053 0.749964 0.224155
0.558777 0.750098 0.225363
0.581890 0.750180 0.226631
0.606791 0.750832 0.228281
0.632286 0.751568 0.230086
0.658245 0.752824 0.232124
0.684418 0.754273 0.234292
0.709424 0.755856 0.236556
0.735332 0.757300 0.238857
0.761183 0.759272 0.241266
0.787468 0.761058 0.243667
0.815483 0.763022 0.246187
0.842220 0.764861 0.248911
0.868989 0.766612 0.251747
0.897188 0.768071 0.254809
0.924109 0.770332 0.257614
0.951032 0.772552 0.260183
0.978504 0.773313 0.262958
0.350954 0.777277 0.224767
0.371235 0.777277 0.224767
0.391516 0.777277 0.224767
0.392413 0.777309 0.224802
0.395048 0.777427 0.224930
0.399817 0.777634 0.225167
0.406723 0.777887 0.225577
0.415781 0.778208 0.226133
0.426730 0.778672 0.226734
0.439497 0.779163 0.227505
0.454235 0.779626 0.228454
0.470403 0.780038 0.229324
0.488079 0.780435 0.230392
0.506512 0.780629 0.231574
0.525893 0.780646 0.232689
0.546141 0.780680 0.233820
0.567806 0.781079 0.235087
0.590600 0.781103 0.236397
0.615686 0.782099 0.238002
0.640718 0.782700 0.239787
0.666560 0.784248 0.241699
0.692217 0.785461 0.243760
0.716197 0.787092 0.245916
0.741743 0.788707 0.248133
0.767204 0.790181 0.250417
0.793511 0.792070 0.252783
0.821001 0.793497 0.255302
0.847868 0.794970 0.257966
0.874881 0.796327 0.260737
0.903049 0.797724 0.263520
0.930009 0.798915 0.266231
0.956221 0.801698 0.268631
0.982861 0.804113 0.271289
0.368877 0.809777 0.235186
0.388597 0.809777 0.235186
0.408318 0.809777 0.235186
0.409159 0.809807 0.235220
0.411613 0.809911 0.235348
0.415931 0.810092 0.235585
0.422309 0.810311 0.235936
0.430620 0.810619 0.236405
0.440908 0.811026 0.236981
0.453114 0.811461 0.237664
0.467044 0.811747 0.238421
0.482475 0.812067 0.239266
0.499184 0.812310 0.240217
0.516977 0.812355 0.241334
0.536349 0.812425 0.242521
0.556203 0.812745 0.243696
0.577760 0.813133 0.244967
0.600914 0.813785 0.246374
0.625289 0.814554 0.247901
0.650095 0.815461 0.249598
0.675296 0.816573 0.251489
0.699937 0.817806 0.253391
0.723774 0.818756 0.255474
0.748618 0.820113 0.257617
0.774093 0.821184 0.259842
0.800646 0.822358 0.262122
0.827689 0.823612 0.264538
