docs/guides/setting_presets/sdr-expert1-g220-o43-138n-33p-3dlut.cube
# Created by ArgyllCMS
LUT_3D_SIZE 9
DOMAIN_MIN 0.0 0.0 0.0
DOMAIN_MAX 1.0 1.0 1.0
0.000000 0.000000 0.000000
0.120233 0.035277 0.027820
0.231638 0.055657 0.025472
0.349293 0.074919 0.044556
0.466327 0.104246 0.069773
0.579395 0.140715 0.091812
0.702839 0.163332 0.112568
0.819687 0.194931 0.134348
0.935997 0.229158 0.155699
0.027383 0.128308 0.017203
0.126766 0.130480 0.023293
0.234856 0.141911 0.027101
0.349689 0.155048 0.046655
0.466783 0.176600 0.071900
0.579878 0.205907 0.092863
0.703117 0.225006 0.113307
0.819783 0.253324 0.134895
0.936111 0.283808 0.156156
0.092993 0.248707 0.054509
0.165201 0.248995 0.055209
0.249441 0.252325 0.060278
0.358575 0.259808 0.073265
0.471712 0.270138 0.088704
0.584453 0.284857 0.104133
0.705315 0.295993 0.122470
0.821215 0.316294 0.142886
0.937542 0.338665 0.163038
0.149908 0.370659 0.095684
0.211873 0.370969 0.095798
0.278033 0.374662 0.098037
0.377246 0.378614 0.105862
0.482999 0.384232 0.115948
0.594254 0.392375 0.128614
0.710829 0.402407 0.144956
0.826804 0.416705 0.163719
0.942293 0.431771 0.181519
0.215598 0.488537 0.132980
0.270376 0.488545 0.133245
0.320636 0.490767 0.135557
0.406165 0.494242 0.141259
0.502087 0.499792 0.149491
0.609701 0.506261 0.160500
0.721217 0.514181 0.173729
0.839052 0.521989 0.189647
0.952583 0.533662 0.205587
0.269033 0.618021 0.173085
0.319306 0.618112 0.173235
0.360964 0.618822 0.174966
0.436642 0.620123 0.180515
0.527515 0.623454 0.187457
0.631214 0.627928 0.195252
0.738563 0.635473 0.205515
0.852492 0.645021 0.218752
0.964160 0.652230 0.232637
0.333672 0.745710 0.214582
0.379206 0.745805 0.214797
0.413500 0.747048 0.216854
0.477472 0.749357 0.220847
0.558777 0.750098 0.225363
0.658245 0.752824 0.232124
0.761183 0.759272 0.241266
0.868989 0.766612 0.251747
0.978504 0.773313 0.262958
0.403240 0.867926 0.255913
0.443395 0.868022 0.256027
0.469304 0.868860 0.257279
0.521640 0.870343 0.260310
0.598976 0.872534 0.265042
0.693390 0.875541 0.270975
0.789025 0.879576 0.278178
0.893826 0.886754 0.286252
0.999456 0.893322 0.296710
0.469632 0.987623 0.296903
0.505065 0.987714 0.296998
0.526663 0.988653 0.297990
0.571417 0.990872 0.300241
0.638142 0.994838 0.303948
0.725916 0.998645 0.308472
0.818692 1.000000 0.314104
0.912552 1.000000 0.316942
1.000000 1.000000 0.322007
0.015043 0.010921 0.124631
0.122246 0.026698 0.126332
0.234169 0.050821 0.129612
0.349006 0.076034 0.135350
0.466195 0.105276 0.150537
0.579539 0.140041 0.164194
0.702726 0.162325 0.181104
0.819420 0.194997 0.199800
0.935827 0.228781 0.218594
0.035697 0.127391 0.124033
0.128638 0.129268 0.126677
0.237193 0.140477 0.130382
0.348470 0.155409 0.136180
0.466719 0.176207 0.150974
0.579965 0.205390 0.164683
0.702956 0.224377 0.181599
0.819529 0.253366 0.200184
0.935939 0.283454 0.219073
0.093254 0.248262 0.140476
0.165073 0.248604 0.140371
0.249267 0.252451 0.143220
0.358792 0.259284 0.150609
0.471855 0.269907 0.161216
0.583993 0.284178 0.172990
0.704766 0.296007 0.188675
0.820944 0.316044 0.206968
0.937369 0.338297 0.224644
0.149268 0.370947 0.167024
0.211159 0.371258 0.166963
0.277405 0.374367 0.168232
0.376769 0.378639 0.174627
0.482929 0.384299 0.182805
0.593926 0.392376 0.193903
0.710601 0.402472 0.208882
0.826093 0.416352 0.225239
0.941012 0.431167 0.240880
0.215118 0.487970 0.198088
0.269966 0.487991 0.198287
0.320128 0.490371 0.200110
0.405605 0.494508 0.204998
0.501991 0.500596 0.212338
0.609637 0.506471 0.221835
0.721120 0.514190 0.233554
0.839011 0.521945 0.248002
0.952217 0.533400 0.262267
0.268451 0.618342 0.233160
0.318813 0.618370 0.233324
0.360652 0.618851 0.234994
0.436349 0.620148 0.239827
0.527361 0.623614 0.246021
0.631024 0.628020 0.252887
0.738602 0.635433 0.262186
0.852576 0.644991 0.274041
0.964147 0.652294 0.286702
0.333463 0.745663 0.270232
0.378985 0.745769 0.270424
0.413270 0.747082 0.272326
0.477482 0.749405 0.275920
0.558803 0.750208 0.280161
0.658131 0.752961 0.286281
0.761301 0.758915 0.294556
0.869081 0.766198 0.304067
0.978542 0.772833 0.314250
0.402719 0.867902 0.307678
0.442905 0.868011 0.307774
0.468857 0.868861 0.308911
0.521172 0.870441 0.311599
0.598455 0.872772 0.315914
0.693082 0.875611 0.321351
0.788876 0.879501 0.327946
0.893653 0.886757 0.335653
0.999451 0.893170 0.345031
0.468789 0.988034 0.345246
0.504305 0.988105 0.345327
0.526035 0.988982 0.346208
0.570920 0.991160 0.348182
0.637415 0.995248 0.351617
0.725297 0.999036 0.355750
0.818582 1.000000 0.361067
0.912402 1.000000 0.363733
1.000000 1.000000 0.368362
0.023189 0.023424 0.240814
0.126044 0.024184 0.241440
0.236322 0.050787 0.244238
0.350813 0.079812 0.247480
0.467003 0.103943 0.252449
0.578967 0.138008 0.259399
0.701617 0.159996 0.269348
0.819390 0.191665 0.280297
0.935916 0.224632 0.292160
0.040201 0.134450 0.241166
0.133689 0.133696 0.241290
0.237722 0.139262 0.244270
0.350653 0.155641 0.247621
0.466976 0.174413 0.252916
0.578939 0.203021 0.259730
0.701782 0.222183 0.269643
0.819677 0.250503 0.280472
0.936025 0.280184 0.292333
0.094242 0.248585 0.246637
0.164254 0.248564 0.246597
0.244752 0.246477 0.245798
0.355855 0.256003 0.250771
0.469214 0.265772 0.254904
0.582182 0.281089 0.261421
0.704073 0.293694 0.271262
0.820585 0.315093 0.283027
0.937125 0.337560 0.294438
0.146643 0.371731 0.258487
0.208219 0.371586 0.258515
0.274075 0.371800 0.259655
0.375340 0.376329 0.262158
0.482187 0.383283 0.267087
0.594382 0.392017 0.274268
0.710921 0.402225 0.283043
0.827069 0.415987 0.293613
0.942115 0.430811 0.304497
0.207284 0.490080 0.275030
0.262872 0.490211 0.275097
0.315886 0.490700 0.276860
0.402991 0.493629 0.280106
0.500337 0.500469 0.285648
0.608779 0.508502 0.291971
0.720589 0.515844 0.299630
0.839049 0.523812 0.309455
0.952882 0.534859 0.320082
0.266441 0.617548 0.298373
0.316964 0.617505 0.298547
0.359242 0.617500 0.300238
0.434755 0.620442 0.303570
0.527786 0.624853 0.308520
0.631449 0.628397 0.314316
0.738450 0.634877 0.320604
0.851818 0.643030 0.328161
0.964239 0.650356 0.338383
0.330779 0.741865 0.323890
0.376348 0.742023 0.323961
0.410350 0.743567 0.324946
0.473652 0.746644 0.327379
0.555957 0.749998 0.331722
0.656466 0.752223 0.337678
0.759663 0.757501 0.343885
0.869433 0.764064 0.351535
0.978688 0.770166 0.359538
0.396642 0.868001 0.353405
0.437180 0.868122 0.353472
0.463518 0.869235 0.354209
0.517295 0.871114 0.356121
0.595825 0.873506 0.359744
0.690413 0.875909 0.365028
0.787723 0.879609 0.371561
0.892212 0.887004 0.378690
0.999337 0.892267 0.385378
0.462338 0.990443 0.385234
0.498368 0.990525 0.385269
0.521430 0.990776 0.385816
0.568112 0.992818 0.386954
0.636464 0.996530 0.389296
0.723548 0.999933 0.394217
0.817098 1.000000 0.399546
0.910796 1.000000 0.400778
1.000000 1.000000 0.405252
0.034916 0.044459 0.359509
0.131467 0.047646 0.360959
0.239089 0.062305 0.361440
0.352774 0.085117 0.364743
0.468373 0.109142 0.368136
0.581319 0.142016 0.373322
0.702884 0.165137 0.380600
0.819420 0.196583 0.389299
0.936212 0.226207 0.396877
0.050845 0.137703 0.360708
0.140599 0.138183 0.361865
0.239990 0.144855 0.361732
0.353201 0.159337 0.365103
0.468586 0.178283 0.368338
0.581412 0.206469 0.373548
0.702790 0.226948 0.380802
0.819636 0.254551 0.389685
0.936338 0.281225 0.397281
0.099051 0.251813 0.363329
0.167976 0.251838 0.363176
0.248952 0.250066 0.363688
0.356721 0.256644 0.366576
0.470176 0.267243 0.370220
0.581730 0.282518 0.375401
0.703296 0.295296 0.383720
0.820663 0.314652 0.392296
0.937235 0.335696 0.399469
0.149860 0.372158 0.370561
0.211238 0.371592 0.370398
0.273548 0.371998 0.370789
0.367292 0.369677 0.370943
0.477503 0.378043 0.375567
0.589177 0.387482 0.380875
0.707533 0.400230 0.388459
0.825774 0.413839 0.395757
0.942392 0.428281 0.402933
0.212992 0.489764 0.382802
0.267459 0.489953 0.382820
0.312541 0.491087 0.383171
0.396206 0.491512 0.383614
0.496981 0.499505 0.386953
0.604717 0.507141 0.392241
0.717865 0.515224 0.397876
0.836421 0.521963 0.405025
0.950720 0.533425 0.412505
0.267444 0.616395 0.398196
0.317449 0.616239 0.398217
0.355352 0.615358 0.398490
0.429305 0.615777 0.398693
0.523379 0.620492 0.401867
0.626790 0.627226 0.406266
0.735296 0.634290 0.411410
0.848636 0.641526 0.418114
0.961624 0.649529 0.425043
0.327697 0.741020 0.415158
0.373231 0.740943 0.415126
0.405707 0.740258 0.414997
0.469755 0.741176 0.416002
0.553669 0.745357 0.419512
0.652901 0.750322 0.424310
0.756069 0.755675 0.429770
0.866012 0.762116 0.435428
0.976182 0.767780 0.441092
0.392933 0.865257 0.435923
0.433696 0.865334 0.435963
0.460498 0.865909 0.436495
0.515803 0.867357 0.438048
0.592982 0.869936 0.440979
0.686552 0.873046 0.445854
0.783748 0.877611 0.451091
0.888783 0.885299 0.456283
0.996529 0.890792 0.461833
0.457929 0.987390 0.459400
0.494250 0.987475 0.459437
0.517054 0.988340 0.459823
0.564988 0.990188 0.461109
0.634283 0.993371 0.463715
0.721205 0.997058 0.468976
0.813972 1.000000 0.474686
0.908118 1.000000 0.476254
1.000000 1.000000 0.477811
0.050202 0.059564 0.479785
0.139472 0.062654 0.479881
0.242024 0.074615 0.478980
0.355529 0.093336 0.480902
0.469870 0.116420 0.482111
0.581667 0.146058 0.487772
0.701564 0.171269 0.493107
0.821532 0.200834 0.498034
0.938721 0.230840 0.506787
0.064570 0.143771 0.479330
0.147821 0.145397 0.478693
0.243435 0.152429 0.478946
0.356297 0.164552 0.479463
0.469963 0.184256 0.483126
0.581994 0.209703 0.488135
0.702124 0.231853 0.493437
0.822086 0.258503 0.498126
0.939155 0.285389 0.506879
0.107874 0.254922 0.480279
0.175109 0.254833 0.478962
0.253085 0.254121 0.481159
0.360353 0.259792 0.482448
0.472760 0.270521 0.486179
0.584060 0.285629 0.490449
0.706881 0.300741 0.496286
0.824000 0.318184 0.500498
0.939994 0.337923 0.508550
0.154951 0.374670 0.485520
0.216211 0.374551 0.485132
0.278632 0.374812 0.485573
0.371162 0.373694 0.486787
0.479462 0.380899 0.489677
0.589571 0.388960 0.494770
0.707452 0.399828 0.500250
0.825949 0.413198 0.505496
0.942017 0.427635 0.512100
0.217665 0.493165 0.492110
0.271610 0.493353 0.492435
0.316539 0.493126 0.494605
0.395434 0.494719 0.494957
0.489463 0.493151 0.494604
0.599631 0.501844 0.499908
0.712229 0.510706 0.504226
0.830970 0.518965 0.509812
0.947546 0.530871 0.517681
0.272492 0.617210 0.505601
0.321987 0.617241 0.505546
0.358187 0.617620 0.505107
0.427328 0.616270 0.505808
0.516919 0.616912 0.506574
0.619873 0.623563 0.510254
0.727493 0.630874 0.514071
0.842778 0.638676 0.518219
0.957027 0.647313 0.525204
0.330880 0.741852 0.518689
0.376059 0.741731 0.518594
0.406246 0.740582 0.518013
0.465869 0.739586 0.518161
0.547992 0.741957 0.520008
0.647041 0.745130 0.522831
0.749915 0.751749 0.526823
0.860415 0.758667 0.530428
0.972309 0.765630 0.537300
0.391821 0.865515 0.533013
0.432542 0.865464 0.533013
0.458187 0.864900 0.533090
0.510782 0.865314 0.533450
0.585472 0.867098 0.534997
0.679858 0.869605 0.538190
0.777877 0.874056 0.542357
0.883458 0.881509 0.545846
0.992046 0.887119 0.551608
0.454901 0.987792 0.550015
0.491353 0.987799 0.549998
0.513763 0.987849 0.549824
0.560101 0.988793 0.550322
0.627228 0.991673 0.552317
0.712915 0.995179 0.555812
0.806274 0.999922 0.560393
0.908070 1.000000 0.563884
1.000000 1.000000 0.564197
0.062163 0.075362 0.608858
0.146842 0.078911 0.607914
0.244197 0.089324 0.606914
0.357508 0.104843 0.604558
0.470961 0.127214 0.606445
0.583664 0.154408 0.611913
0.704469 0.178740 0.616075
0.823888 0.206554 0.619581
0.940550 0.235911 0.620257
0.073676 0.153395 0.607919
0.153856 0.155686 0.606475
0.245722 0.162667 0.606402
0.357874 0.173893 0.603390
0.470892 0.193425 0.607387
0.583867 0.217170 0.612566
0.705062 0.238612 0.616518
0.824149 0.263434 0.619943
0.940721 0.290072 0.620427
0.114289 0.259694 0.604163
0.180124 0.259464 0.602811
0.256241 0.259666 0.605103
0.363021 0.265552 0.607552
0.474230 0.276391 0.607037
0.588016 0.290537 0.611569
0.707569 0.305128 0.615752
0.824519 0.322276 0.619617
0.940667 0.342471 0.621550
0.161170 0.378196 0.607940
0.222050 0.378258 0.608043
0.282582 0.379025 0.608299
0.374631 0.378174 0.607491
0.481209 0.383512 0.607636
0.592050 0.391974 0.613564
0.707572 0.403196 0.618358
0.827431 0.415864 0.623087
0.943451 0.430285 0.626506
0.222095 0.496150 0.612520
0.275770 0.496172 0.612592
0.319610 0.496688 0.612742
0.398702 0.497913 0.611809
0.493592 0.496805 0.611958
0.601076 0.503329 0.616455
0.713125 0.511840 0.620657
0.830873 0.520947 0.626399
0.946517 0.531574 0.630844
0.275800 0.618927 0.621024
0.325046 0.618983 0.621093
0.361637 0.619624 0.620680
0.430354 0.618983 0.620283
0.517144 0.617417 0.619387
0.612954 0.618120 0.618141
0.722480 0.627262 0.623358
0.836313 0.635153 0.628278
0.952219 0.644299 0.634092
0.334233 0.742789 0.632514
0.379097 0.742718 0.632538
0.408745 0.742097 0.632270
0.467253 0.741070 0.631259
0.546036 0.741175 0.631522
0.639708 0.741580 0.629604
0.743196 0.748041 0.632495
0.852725 0.754592 0.637722
0.965179 0.762416 0.642596
0.394760 0.867464 0.646266
0.435323 0.867408 0.646233
0.460831 0.866779 0.645913
0.511787 0.865999 0.645191
0.582736 0.864123 0.643959
0.672816 0.864528 0.643515
0.769465 0.869357 0.646395
0.876615 0.876834 0.651004
0.986035 0.883400 0.654735
0.458159 0.990264 0.659175
0.494346 0.990254 0.659179
0.516178 0.990105 0.659204
0.560188 0.990282 0.658665
0.623146 0.989552 0.657331
0.705321 0.990829 0.657023
0.798783 0.994988 0.660718
0.902673 0.999978 0.664165
1.000000 1.000000 0.665000
0.092427 0.096115 0.727814
0.165796 0.098783 0.726777
0.249302 0.107076 0.729185
0.360155 0.121419 0.727401
0.471683 0.143446 0.729619
0.586385 0.165350 0.733054
0.705874 0.188115 0.736162
0.824897 0.213753 0.739442
0.941438 0.242471 0.744778
0.098674 0.169055 0.726652
0.169409 0.170780 0.725811
0.250247 0.176646 0.729281
0.360649 0.188115 0.727305
0.471842 0.207743 0.729644
0.586492 0.226608 0.733211
0.705866 0.246928 0.736184
0.825130 0.269986 0.739655
0.941410 0.296282 0.744942
0.126128 0.267292 0.725347
0.189688 0.267119 0.725649
0.260000 0.268008 0.728115
0.366207 0.274581 0.729443
0.476298 0.284058 0.729101
0.590244 0.295803 0.731395
0.708681 0.310644 0.734953
0.826679 0.327422 0.738616
0.941699 0.347756 0.744777
0.168015 0.383534 0.729215
0.227291 0.383643 0.729498
0.286597 0.384012 0.729909
0.377994 0.382693 0.726480
0.484321 0.387816 0.728536
0.594180 0.396131 0.731659
0.709985 0.407291 0.735346
0.828285 0.419066 0.739416
0.944580 0.433557 0.745302
0.224507 0.499196 0.732827
0.277914 0.499187 0.732841
0.322130 0.500450 0.732967
0.402581 0.501612 0.732752
0.496855 0.501046 0.730947
0.603188 0.506851 0.733476
0.716182 0.514226 0.737841
0.832730 0.522652 0.741515
0.947534 0.534156 0.747872
0.279080 0.621381 0.739088
0.328301 0.621306 0.739062
0.365912 0.621879 0.738226
0.433748 0.622170 0.736862
0.519635 0.620472 0.735892
0.616502 0.621138 0.734736
0.723300 0.627333 0.737849
0.836621 0.635391 0.741766
0.951072 0.644914 0.749226
0.337041 0.745663 0.745854
0.381870 0.745634 0.745819
0.412473 0.745187 0.745618
0.470720 0.744048 0.745202
0.548353 0.742876 0.744451
0.636592 0.739923 0.739842
0.738018 0.743828 0.742612
0.846847 0.751514 0.747044
0.957521 0.757667 0.750917
0.399037 0.869053 0.757608
0.439257 0.868993 0.757565
0.464419 0.868313 0.757141
0.514568 0.866944 0.756234
0.583064 0.864262 0.753786
0.669786 0.862400 0.752037
0.765251 0.865900 0.754882
0.870623 0.872653 0.758588
0.978107 0.879587 0.761154
0.459401 0.991923 0.769822
0.495549 0.991885 0.769829
0.517104 0.991537 0.769959
0.560604 0.990902 0.769449
0.621770 0.989287 0.767328
0.700432 0.987474 0.764742
0.792957 0.989450 0.766651
0.894981 0.994874 0.768931
1.000000 1.000000 0.774733
0.125603 0.121143 0.841829
0.190070 0.121948 0.842488
0.260495 0.128132 0.848088
0.370086 0.140398 0.848845
0.477397 0.158717 0.851877
0.590150 0.176888 0.853325
0.707638 0.199334 0.855519
0.827229 0.224369 0.859792
0.942490 0.251690 0.861974
0.128504 0.189013 0.841490
0.192081 0.189530 0.842263
0.261394 0.194448 0.848248
0.370492 0.205290 0.849037
0.477634 0.220735 0.851805
0.590140 0.236640 0.853254
0.707915 0.256846 0.855688
0.827742 0.279187 0.859827
0.942646 0.304525 0.862162
0.146148 0.278150 0.845767
0.206844 0.278064 0.846608
0.271233 0.278844 0.849287
0.375310 0.283744 0.850380
0.482302 0.292007 0.851817
0.593624 0.302501 0.853303
0.711552 0.316515 0.855756
0.829878 0.333499 0.859443
0.943673 0.354098 0.861829
0.183339 0.389875 0.850670
0.240559 0.389777 0.850844
0.296592 0.389071 0.850557
0.384392 0.388752 0.849562
0.489362 0.393544 0.851727
0.599423 0.402440 0.854604
0.714758 0.412743 0.858094
0.831038 0.423654 0.861335
0.945315 0.437971 0.862494
0.233521 0.502650 0.854545
0.286575 0.502656 0.854517
0.330759 0.503901 0.854103
0.407845 0.504160 0.854105
0.500278 0.504539 0.852286
0.607218 0.511049 0.854160
0.720789 0.517969 0.858206
0.835219 0.525984 0.861165
0.948781 0.536175 0.863439
0.287472 0.624348 0.859973
0.336147 0.624414 0.859901
0.373083 0.624944 0.859478
0.438949 0.624507 0.858432
0.522812 0.624083 0.855779
0.621507 0.625323 0.853992
0.727335 0.631041 0.856155
0.839692 0.638668 0.859555
0.953445 0.647084 0.863643
0.343699 0.749661 0.865212
0.388024 0.749639 0.865224
0.417232 0.749146 0.865348
0.474126 0.747430 0.864306
0.551216 0.746224 0.862551
0.640822 0.743948 0.857389
0.740717 0.745816 0.858667
0.849239 0.752598 0.862414
0.958407 0.759945 0.865382
0.405770 0.870544 0.874167
0.445487 0.870516 0.874139
0.469319 0.869917 0.873809
0.517725 0.868832 0.872539
0.586143 0.867384 0.868927
0.672828 0.864655 0.866619
0.766073 0.866333 0.868592
0.870131 0.872937 0.872825
0.974160 0.878685 0.874125
0.463421 0.992870 0.883324
0.499110 0.992898 0.883289
0.519382 0.993118 0.882927
0.561446 0.992387 0.881724
0.622822 0.990374 0.879191
0.701789 0.988260 0.876963
0.793321 0.988640 0.879185
0.894468 0.992934 0.883666
0.999307 1.000000 0.886063
0.151495 0.141644 0.959738
0.212115 0.142154 0.960539
0.273653 0.147001 0.966760
0.379399 0.157275 0.968576
0.484795 0.173673 0.972508
0.592764 0.190193 0.973834
0.710879 0.211477 0.974920
0.827304 0.235060 0.979528
0.946233 0.261248 0.983394
0.153750 0.206412 0.959778
0.213831 0.206978 0.960567
0.274525 0.210890 0.966916
0.379814 0.219992 0.968757
0.484967 0.233767 0.972541
0.592834 0.248533 0.973695
0.710763 0.267667 0.974843
0.827716 0.288923 0.979682
0.946439 0.312935 0.983173
0.168345 0.288240 0.964782
0.226626 0.288194 0.965631
0.283938 0.289039 0.969277
0.384681 0.293333 0.969724
0.489383 0.301364 0.972107
0.596248 0.310858 0.973409
0.714101 0.324120 0.975470
0.830663 0.338531 0.978857
0.947510 0.360413 0.982625
0.199208 0.396163 0.970726
0.254713 0.396032 0.970872
0.307263 0.395060 0.970239
0.391687 0.394712 0.970267
0.494518 0.400574 0.973477
0.602640 0.408135 0.975828
0.718613 0.418690 0.979050
0.832896 0.429239 0.982008
0.948742 0.443051 0.985397
0.244278 0.508573 0.974934
0.296886 0.508348 0.974799
0.340624 0.507962 0.973919
0.413620 0.509100 0.974323
0.505721 0.509298 0.973819
0.608834 0.515324 0.974397
0.724409 0.523709 0.978532
0.836630 0.531609 0.982738
0.951942 0.541506 0.985825
0.296148 0.628510 0.981174
0.344087 0.628542 0.981074
0.378846 0.628786 0.980024
0.444601 0.628758 0.979849
0.527843 0.626960 0.977404
0.623132 0.627984 0.975120
0.732737 0.633064 0.976610
0.840641 0.642333 0.980245
0.956204 0.650719 0.983806
0.348042 0.751239 0.986460
0.392239 0.751238 0.986471
0.422484 0.751130 0.986503
0.478213 0.749807 0.985258
0.553907 0.748788 0.982028
0.643389 0.747761 0.978356
0.744557 0.747682 0.975719
0.848349 0.753993 0.978647
0.961735 0.762886 0.983631
0.407386 0.876417 0.994541
0.447096 0.876353 0.994563
0.471194 0.875509 0.994143
0.520041 0.873980 0.992373
0.588014 0.873283 0.990188
0.672313 0.871094 0.984922
0.766487 0.867846 0.982795
0.867275 0.872261 0.985392
0.976405 0.882181 0.991638
0.465383 0.996117 0.999886
0.500957 0.996140 0.999878
0.521188 0.996360 0.999798
0.564151 0.995699 0.999547
0.628416 0.994012 0.998073
0.707486 0.990831 0.993460
0.793718 0.990560 0.992472
0.892393 0.994879 0.995364
0.998135 1.000000 0.999231
