docs/guides/setting_presets/sdr-cinema-g248-o84-234n-33p-3dlut.cube
# Created by ArgyllCMS
LUT_3D_SIZE 33
DOMAIN_MIN 0.0 0.0 0.0
DOMAIN_MAX 1.0 1.0 1.0
0.000000 0.000000 0.000000
0.031250 0.000000 0.000000
0.062500 0.000000 0.000000
0.080178 0.015901 0.002240
0.110873 0.030060 0.016943
0.141498 0.038172 0.018572
0.168791 0.043533 0.021357
0.196157 0.046243 0.024981
0.224368 0.050153 0.028244
0.253255 0.056600 0.031057
0.282145 0.063684 0.034668
0.311339 0.071476 0.040105
0.341451 0.078557 0.047045
0.371498 0.085692 0.054164
0.402062 0.093016 0.061302
0.431336 0.101179 0.068664
0.459507 0.110696 0.075745
0.487960 0.120359 0.083056
0.517260 0.130798 0.090004
0.545767 0.142256 0.096338
0.574842 0.152924 0.102262
0.605531 0.162655 0.108705
0.638716 0.169869 0.115553
0.670506 0.174635 0.122485
0.701585 0.178659 0.129686
0.730840 0.183665 0.136792
0.760871 0.191561 0.143617
0.791609 0.202480 0.150486
0.824157 0.216146 0.157210
0.854044 0.230896 0.164269
0.883586 0.242480 0.171051
0.913014 0.251413 0.177241
0.942341 0.260085 0.183354
0.000000 0.031250 0.000000
0.031250 0.031250 0.000000
0.062500 0.031250 0.000000
0.080178 0.046652 0.002240
0.110873 0.060369 0.016943
0.141498 0.068228 0.018572
0.168791 0.073422 0.021357
0.196157 0.076048 0.024981
0.224368 0.079835 0.028244
0.253255 0.086080 0.031057
0.282145 0.092943 0.034668
0.311339 0.100491 0.040105
0.341451 0.107351 0.047045
0.371498 0.114264 0.054164
0.402062 0.121358 0.061302
0.431336 0.129266 0.068664
0.459507 0.138485 0.075745
0.487960 0.147846 0.083056
0.517260 0.157960 0.090004
0.545767 0.169059 0.096338
0.574842 0.179394 0.102262
0.605531 0.188821 0.108705
0.638716 0.195810 0.115553
0.670506 0.200427 0.122485
0.701585 0.204326 0.129686
0.730840 0.209175 0.136792
0.760871 0.216824 0.143617
0.791609 0.227401 0.150486
0.824157 0.240640 0.157210
0.854044 0.254929 0.164269
0.883586 0.266152 0.171051
0.913014 0.274805 0.177241
0.942341 0.283207 0.183354
0.000000 0.062500 0.000000
0.031250 0.062500 0.000000
0.062500 0.062500 0.000000
0.080178 0.077403 0.002240
0.110873 0.090677 0.016943
0.141498 0.098284 0.018572
0.168791 0.103311 0.021357
0.196157 0.105852 0.024981
0.224368 0.109517 0.028244
0.253255 0.115561 0.031057
0.282145 0.122202 0.034668
0.311339 0.129507 0.040105
0.341451 0.136145 0.047045
0.371498 0.142835 0.054164
0.402062 0.149701 0.061302
0.431336 0.157354 0.068664
0.459507 0.166275 0.075745
0.487960 0.175334 0.083056
0.517260 0.185121 0.090004
0.545767 0.195862 0.096338
0.574842 0.205864 0.102262
0.605531 0.214987 0.108705
0.638716 0.221751 0.115553
0.670506 0.226219 0.122485
0.701585 0.229992 0.129686
0.730840 0.234685 0.136792
0.760871 0.242087 0.143617
0.791609 0.252322 0.150486
0.824157 0.265134 0.157210
0.854044 0.278962 0.164269
0.883586 0.289823 0.171051
0.913014 0.298198 0.177241
0.942341 0.306329 0.183354
0.002290 0.090066 0.000000
0.033468 0.090066 0.000000
0.064647 0.090066 0.000000
0.087392 0.092393 0.015615
0.112258 0.097633 0.018092
0.141973 0.104078 0.019901
0.169320 0.108867 0.021707
0.196794 0.111334 0.025567
0.224881 0.115090 0.029085
0.253670 0.120926 0.031608
0.282389 0.126514 0.034856
0.311556 0.133369 0.040283
0.341582 0.139650 0.047167
0.371519 0.145868 0.054266
0.402055 0.152403 0.061422
0.431281 0.159843 0.068748
0.459508 0.168325 0.075876
0.487962 0.177278 0.083165
0.517278 0.186766 0.090134
0.545794 0.197345 0.096462
0.574863 0.207230 0.102359
0.605572 0.216261 0.108836
0.638765 0.222907 0.115684
0.670547 0.227391 0.122594
0.701618 0.231150 0.129775
0.730866 0.235821 0.136871
0.760890 0.243215 0.143696
0.791619 0.253422 0.150556
0.824165 0.266163 0.157285
0.854058 0.279841 0.164371
0.883595 0.290658 0.171148
0.913021 0.299002 0.177334
0.942348 0.307101 0.183443
0.020428 0.120325 0.011782
0.051038 0.120325 0.011782
0.081647 0.120325 0.011782
0.090268 0.120560 0.015515
0.114374 0.122032 0.019651
0.144267 0.125447 0.018695
0.171821 0.127987 0.021992
0.199104 0.130704 0.027341
0.226823 0.134011 0.030954
0.255164 0.137500 0.032854
0.283363 0.142433 0.035610
0.312327 0.146824 0.041069
0.342071 0.152153 0.047740
0.371624 0.157235 0.054845
0.401953 0.162471 0.062120
0.431051 0.169042 0.069238
0.459359 0.176700 0.076422
0.488031 0.184557 0.083720
0.517344 0.193245 0.090714
0.545870 0.203077 0.096961
0.575061 0.212518 0.102996
0.605788 0.220998 0.109451
0.638985 0.227303 0.116220
0.670742 0.231684 0.123101
0.701788 0.235402 0.130191
0.731004 0.239856 0.137252
0.760982 0.247301 0.144067
0.791699 0.257259 0.150896
0.824211 0.269852 0.157641
0.854108 0.283074 0.164827
0.883647 0.293647 0.171569
0.913070 0.301857 0.177731
0.942393 0.309830 0.183820
0.033963 0.148920 0.016808
0.064150 0.148920 0.016808
0.094337 0.148920 0.016808
0.100210 0.149117 0.017350
0.120872 0.150331 0.017666
0.149535 0.152296 0.016501
0.175603 0.153907 0.021370
0.201898 0.155636 0.026954
0.229032 0.158050 0.031638
0.256801 0.160612 0.034818
0.284898 0.163779 0.038022
0.313492 0.167287 0.043425
0.342823 0.171252 0.049995
0.371923 0.175234 0.056718
0.401880 0.179939 0.063764
0.431185 0.185117 0.070852
0.459873 0.190970 0.078297
0.488548 0.197722 0.085290
0.517661 0.205505 0.092162
0.546276 0.214236 0.098149
0.575525 0.222794 0.104397
0.606292 0.230432 0.110753
0.639436 0.236558 0.117294
0.671136 0.240293 0.124201
0.702130 0.243995 0.131129
0.731281 0.248652 0.138076
0.761180 0.255733 0.144855
0.791837 0.265430 0.151701
0.824331 0.277297 0.158490
0.854257 0.289535 0.165827
0.883806 0.299653 0.172446
0.913210 0.307526 0.178559
0.942515 0.315209 0.184616
0.051861 0.177740 0.026635
0.081488 0.177740 0.026635
0.111116 0.177740 0.026635
0.116230 0.177955 0.026900
0.133802 0.178696 0.028383
0.157062 0.179620 0.028213
0.180480 0.180498 0.027921
0.205203 0.182303 0.032176
0.231376 0.184619 0.036716
0.258789 0.186541 0.040146
0.286910 0.188509 0.043848
0.315077 0.191222 0.048941
0.343801 0.194454 0.054513
0.372554 0.197783 0.060748
0.402642 0.201484 0.067824
0.432154 0.205516 0.074633
0.461029 0.210129 0.081715
0.489578 0.216137 0.088184
0.518513 0.222971 0.094624
0.547116 0.230456 0.100388
0.576388 0.237838 0.106640
0.607126 0.244567 0.112794
0.640209 0.249895 0.119212
0.671816 0.253704 0.125867
0.702735 0.257197 0.132714
0.731806 0.261683 0.139574
0.761642 0.268592 0.146365
0.792234 0.277651 0.153144
0.824747 0.288171 0.160033
0.854614 0.299285 0.167370
0.884058 0.308637 0.173935
0.913478 0.316038 0.179974
0.942781 0.323417 0.185955
0.073349 0.207399 0.041721
0.102304 0.207399 0.041721
0.131259 0.207399 0.041721
0.134751 0.207485 0.041878
0.147265 0.207771 0.041733
0.165452 0.208139 0.039602
0.186516 0.208960 0.039216
0.209847 0.210810 0.042293
0.235430 0.212720 0.046377
0.262236 0.214339 0.049564
0.289572 0.216229 0.053105
0.316972 0.218211 0.056898
0.345165 0.220644 0.062077
0.373697 0.223319 0.068153
0.403540 0.226461 0.074204
0.433113 0.229892 0.080757
0.462343 0.234013 0.086497
0.490842 0.238730 0.092629
0.519777 0.244294 0.098107
0.548325 0.250450 0.104029
0.577440 0.256716 0.109813
0.608178 0.262743 0.115491
0.641232 0.267399 0.121802
0.672804 0.270847 0.128238
0.703701 0.274299 0.134869
0.732676 0.278573 0.141676
0.762395 0.285101 0.148415
0.792978 0.293104 0.155245
0.825203 0.302481 0.162216
0.854952 0.312576 0.169547
0.884349 0.321074 0.176128
0.913710 0.328109 0.182026
0.942994 0.334993 0.187887
0.090580 0.238104 0.052863
0.118997 0.238104 0.052863
0.147414 0.238104 0.052863
0.149908 0.238131 0.052744
0.159365 0.238249 0.052198
0.174564 0.238578 0.051302
0.194227 0.239151 0.051315
0.216341 0.240259 0.053056
0.240995 0.241901 0.055773
0.266901 0.243638 0.059926
0.292932 0.245234 0.064089
0.319323 0.246680 0.068172
0.347085 0.248569 0.072343
0.375442 0.250695 0.077212
0.405231 0.253163 0.082294
0.434851 0.255924 0.087301
0.463890 0.259064 0.092456
0.492103 0.263320 0.097517
0.520834 0.268028 0.102894
0.549169 0.273627 0.108140
0.578304 0.279001 0.113350
0.609320 0.283853 0.119119
0.642616 0.287658 0.124972
0.674089 0.290525 0.131340
0.704958 0.293802 0.137809
0.733815 0.297906 0.144633
0.763308 0.303994 0.151357
0.793695 0.311077 0.158236
0.825700 0.319349 0.165261
0.855360 0.328382 0.172628
0.884751 0.336157 0.179013
0.914144 0.342550 0.184836
0.943434 0.348958 0.190607
0.106652 0.268683 0.064258
0.134567 0.268683 0.064258
0.162483 0.268683 0.064258
0.164503 0.268690 0.064221
0.171894 0.268746 0.064025
0.185153 0.268966 0.064089
0.203067 0.269375 0.064791
0.223938 0.270071 0.066191
0.247268 0.271179 0.068320
0.271721 0.272532 0.071624
0.296642 0.274076 0.075036
0.322401 0.275615 0.078246
0.349825 0.277183 0.082059
0.378313 0.278817 0.085743
0.408480 0.280715 0.089881
0.437501 0.282894 0.094482
0.465664 0.285799 0.098906
0.493379 0.289285 0.103675
0.521702 0.293449 0.108175
0.550116 0.298042 0.112986
0.579656 0.302574 0.118063
0.611074 0.306330 0.123351
0.644381 0.309438 0.129149
0.675675 0.312031 0.135352
0.706188 0.315228 0.141714
0.734731 0.319056 0.148459
0.763810 0.324557 0.155060
0.793943 0.331078 0.161882
0.826052 0.338599 0.169011
0.855956 0.346755 0.176225
0.885376 0.353829 0.182558
0.914676 0.359728 0.188175
0.943899 0.365605 0.193746
0.123053 0.298417 0.076656
0.150456 0.298417 0.076656
0.177858 0.298417 0.076656
0.179585 0.298433 0.076675
0.185641 0.298536 0.076779
0.196864 0.298782 0.077027
0.212594 0.298987 0.077668
0.232243 0.299330 0.078907
0.253872 0.300038 0.080587
0.276766 0.301348 0.082554
0.301144 0.302831 0.084900
0.327077 0.304492 0.087671
0.353912 0.306057 0.090995
0.381871 0.307385 0.094610
0.411469 0.308881 0.098347
0.439809 0.310677 0.102090
0.467513 0.313121 0.106227
0.494875 0.316425 0.110171
0.523307 0.319992 0.114271
0.551914 0.323683 0.118815
0.581819 0.326992 0.123382
0.613508 0.330033 0.128506
0.646492 0.332698 0.134202
0.677296 0.335187 0.140272
0.707205 0.338246 0.146500
0.735441 0.341837 0.153157
0.764187 0.347070 0.159636
0.794334 0.353239 0.166478
0.826638 0.360506 0.173371
0.856834 0.367998 0.180245
0.886349 0.374291 0.186347
0.915546 0.379510 0.191941
0.944645 0.384662 0.197521
0.139233 0.328352 0.088563
0.166130 0.328352 0.088563
0.193027 0.328352 0.088563
0.194332 0.328366 0.088607
0.198926 0.328475 0.088793
0.208806 0.328577 0.089211
0.222685 0.328680 0.089927
0.240505 0.328971 0.091069
0.260814 0.329610 0.092460
0.283242 0.330573 0.094063
0.307145 0.331862 0.095859
0.332627 0.333256 0.098131
0.358536 0.334909 0.100806
0.385975 0.336339 0.103868
0.414725 0.337777 0.107173
0.442264 0.339551 0.110269
0.469763 0.341802 0.113735
0.497287 0.344437 0.117323
0.525789 0.347176 0.121175
0.554687 0.349960 0.125166
0.584578 0.352702 0.129759
0.616150 0.355469 0.134657
0.648506 0.358105 0.139920
0.678825 0.360552 0.145870
0.708334 0.363506 0.152100
0.736483 0.367257 0.158524
0.765135 0.372494 0.164913
0.795633 0.378705 0.171588
0.827947 0.385254 0.178117
0.858232 0.391835 0.184810
0.887657 0.397399 0.190701
0.916769 0.401891 0.196178
0.945806 0.406294 0.201610
0.153522 0.358993 0.100005
0.179973 0.358993 0.100005
0.206423 0.358993 0.100005
0.207604 0.359004 0.100039
0.211757 0.359072 0.100193
0.220036 0.359260 0.100580
0.232931 0.359476 0.101205
0.249494 0.359770 0.102206
0.269068 0.360252 0.103428
0.290925 0.360918 0.104936
0.314017 0.361919 0.106712
0.338380 0.363244 0.108732
0.363449 0.364703 0.110836
0.390285 0.366242 0.113184
0.418266 0.367693 0.115954
0.445462 0.369445 0.118818
0.472819 0.371437 0.121754
0.500305 0.373470 0.125036
0.528757 0.375828 0.128610
0.557411 0.378402 0.132513
0.587067 0.381108 0.136837
0.618508 0.383558 0.141518
0.650474 0.385933 0.146739
0.680752 0.388231 0.152463
0.709928 0.391221 0.158364
0.738096 0.395188 0.164562
0.766914 0.400377 0.170700
0.797550 0.405584 0.177072
0.829690 0.410859 0.183364
0.859836 0.416234 0.189638
0.889142 0.421198 0.195321
0.918249 0.425535 0.200669
0.947268 0.429914 0.206034
0.168194 0.391044 0.111102
0.194187 0.391044 0.111102
0.220179 0.391044 0.111102
0.221261 0.391056 0.111139
0.225186 0.391109 0.111308
0.232833 0.391262 0.111653
0.244580 0.391479 0.112303
0.260011 0.391730 0.113228
0.278294 0.392126 0.114346
0.298787 0.392735 0.115575
0.320782 0.393584 0.117010
0.344332 0.394552 0.118747
0.368928 0.395574 0.120652
0.395485 0.396665 0.122751
0.422658 0.398000 0.125075
0.449392 0.399652 0.127428
0.476474 0.401314 0.130305
0.503765 0.403080 0.133463
0.531739 0.405138 0.136940
0.560124 0.407257 0.140574
0.589641 0.409484 0.144670
0.621162 0.411531 0.149318
0.653001 0.413613 0.154195
0.683134 0.415882 0.159760
0.711947 0.418972 0.165336
0.740176 0.423113 0.171215
0.768934 0.427811 0.176998
0.799539 0.432330 0.182915
0.831410 0.436628 0.188916
0.861507 0.440960 0.194952
0.890788 0.445295 0.200411
0.919897 0.449625 0.205575
0.948804 0.453767 0.210748
0.185103 0.421323 0.122285
0.210566 0.421323 0.122285
0.236030 0.421323 0.122285
0.236964 0.421342 0.122315
0.240267 0.421435 0.122491
0.247231 0.421579 0.122881
0.257653 0.421793 0.123434
0.271740 0.422029 0.124235
0.288631 0.422372 0.125141
0.307809 0.422782 0.126112
0.329084 0.423325 0.127214
0.351785 0.423922 0.128665
0.376041 0.424608 0.130461
0.402176 0.425524 0.132341
0.428480 0.426689 0.134309
0.454534 0.428071 0.136626
0.481015 0.429582 0.139335
0.507875 0.431334 0.142413
0.535344 0.433181 0.145698
0.563413 0.435191 0.149378
0.593192 0.437061 0.153339
0.624783 0.438957 0.157646
0.656070 0.441055 0.162407
0.685867 0.443605 0.167519
0.714053 0.446942 0.172761
0.742172 0.450798 0.178076
0.770791 0.454980 0.183632
0.801535 0.459047 0.189327
0.833091 0.462832 0.195085
0.863152 0.466430 0.200843
0.892404 0.470243 0.206004
0.921439 0.474067 0.210932
0.950399 0.477959 0.215938
0.203524 0.449982 0.133579
0.228411 0.449982 0.133579
0.253299 0.449982 0.133579
0.254122 0.450004 0.133602
0.257111 0.450069 0.133724
0.263079 0.450180 0.134017
0.272458 0.450420 0.134431
0.285083 0.450640 0.135082
0.300578 0.450956 0.135782
0.318421 0.451345 0.136685
0.338881 0.451672 0.137790
0.360830 0.451993 0.139064
0.384590 0.452496 0.140461
0.410249 0.453289 0.142161
0.435449 0.454446 0.144195
0.460536 0.455908 0.146467
0.486059 0.457603 0.148993
0.512661 0.459561 0.151776
0.539773 0.461384 0.155132
0.567740 0.463368 0.158547
0.597516 0.465291 0.162325
0.628969 0.467381 0.166591
0.659530 0.469770 0.171040
0.688759 0.472499 0.175719
0.716374 0.475644 0.180509
0.744234 0.479167 0.185558
0.772831 0.482744 0.190813
0.803870 0.486143 0.196201
0.835202 0.489000 0.201773
0.865251 0.492030 0.207137
0.894215 0.495305 0.212031
0.923138 0.499025 0.216860
0.952028 0.502962 0.221619
0.222252 0.478724 0.144337
0.246554 0.478724 0.144337
0.270857 0.478724 0.144337
0.271635 0.478740 0.144361
0.274222 0.478812 0.144464
0.279390 0.478965 0.144672
0.287915 0.479144 0.145063
0.299134 0.479390 0.145662
0.313348 0.479677 0.146558
0.330626 0.479921 0.147600
0.350007 0.480187 0.148709
0.371424 0.480377 0.149806
0.394693 0.480839 0.151003
0.418612 0.481717 0.152448
0.442524 0.482930 0.154222
0.466677 0.484652 0.156353
0.491353 0.486516 0.158793
0.517662 0.488567 0.161481
0.544735 0.490451 0.164585
0.572661 0.492489 0.168156
0.602280 0.494725 0.171907
0.633506 0.497052 0.175940
0.663297 0.499489 0.180159
0.691836 0.502196 0.184520
0.718762 0.505254 0.188950
0.746521 0.508237 0.193724
0.775390 0.511134 0.198418
0.806777 0.513554 0.203776
0.837756 0.515988 0.208817
0.867403 0.518657 0.213907
0.896250 0.521687 0.218534
0.925139 0.524858 0.223148
0.953882 0.528086 0.227686
0.239979 0.508635 0.155078
0.263728 0.508635 0.155078
0.287477 0.508635 0.155078
0.288180 0.508646 0.155107
0.290483 0.508695 0.155226
0.295251 0.508810 0.155440
0.302981 0.508964 0.155894
0.313287 0.509221 0.156545
0.326787 0.509538 0.157394
0.342838 0.509875 0.158355
0.360905 0.510113 0.159306
0.381478 0.510361 0.160236
0.404135 0.510856 0.161353
0.426781 0.511790 0.162721
0.449530 0.513137 0.164363
0.472925 0.514912 0.166364
0.497064 0.516757 0.168752
0.522876 0.518888 0.171478
0.549583 0.520927 0.174677
0.577485 0.523046 0.178114
0.606830 0.525309 0.181931
0.637863 0.527767 0.185882
0.666948 0.530112 0.189823
0.694955 0.532694 0.193792
0.721444 0.535122 0.198010
0.749344 0.537408 0.202389
0.778308 0.539363 0.207138
0.810174 0.541375 0.211798
0.840486 0.543558 0.216477
0.869837 0.546422 0.221094
0.898340 0.549141 0.225461
0.927107 0.551771 0.229733
0.955901 0.554521 0.234196
0.256201 0.539959 0.165955
0.279443 0.539959 0.165955
0.302684 0.539959 0.165955
0.303342 0.539970 0.165987
0.305497 0.540002 0.166138
0.309862 0.540089 0.166439
0.316823 0.540249 0.166927
0.326887 0.540498 0.167619
0.339341 0.540923 0.168421
0.354113 0.541494 0.169288
0.371598 0.541915 0.170148
0.391386 0.542289 0.171010
0.412749 0.542874 0.172073
0.434140 0.543929 0.173258
0.456106 0.545226 0.174869
0.479065 0.546819 0.176724
0.502996 0.548441 0.178912
0.528630 0.550349 0.181684
0.555154 0.552440 0.185067
0.583105 0.554698 0.188759
0.612356 0.556919 0.192313
0.642653 0.559061 0.195980
0.671004 0.561177 0.199688
0.698570 0.563219 0.203374
0.724883 0.565147 0.207183
0.752799 0.566922 0.211368
0.782064 0.568773 0.215560
0.814134 0.570631 0.220000
0.843846 0.573022 0.224351
0.872625 0.576292 0.228645
0.900874 0.578421 0.232773
0.929449 0.579997 0.236898
0.957965 0.581963 0.241092
0.270997 0.573302 0.177319
0.293777 0.573302 0.177319
0.316556 0.573302 0.177319
0.317152 0.573312 0.177348
0.319140 0.573382 0.177473
0.323350 0.573553 0.177733
0.329981 0.573869 0.178139
0.339006 0.574257 0.178726
0.350502 0.574975 0.179311
0.364431 0.575642 0.180037
0.381278 0.575991 0.180804
0.400697 0.576474 0.181608
0.420734 0.577214 0.182579
0.441430 0.578228 0.183797
0.463131 0.579295 0.185587
0.485682 0.580541 0.187540
0.509887 0.581898 0.189746
0.535217 0.583673 0.192764
0.561684 0.585623 0.196080
0.589541 0.587707 0.199651
0.618752 0.589751 0.203250
0.648127 0.591614 0.206547
0.675678 0.593108 0.209784
0.702836 0.594754 0.213147
0.728992 0.596335 0.216577
0.756765 0.597831 0.220303
0.786327 0.599519 0.224338
0.818274 0.601683 0.228234
0.847236 0.604399 0.232379
0.875768 0.607748 0.236320
0.903696 0.609942 0.240284
0.931980 0.610306 0.244355
0.960468 0.611050 0.248345
0.284821 0.608481 0.188253
0.307169 0.608481 0.188253
0.329517 0.608481 0.188253
0.330084 0.608500 0.188276
0.331862 0.608587 0.188381
0.335759 0.608739 0.188618
0.341917 0.608991 0.188957
0.350716 0.609298 0.189434
0.361401 0.609926 0.189992
0.375331 0.610376 0.190707
0.391819 0.610749 0.191545
0.410180 0.611249 0.192369
0.429523 0.612042 0.193622
0.449612 0.612906 0.195038
0.471160 0.613739 0.196865
0.493614 0.614892 0.199104
0.518011 0.615898 0.201549
0.543009 0.617671 0.204348
0.569148 0.619414 0.207610
0.597078 0.621277 0.210852
0.625933 0.622694 0.213836
0.654126 0.624028 0.216818
0.680868 0.624911 0.219491
0.707374 0.625995 0.222462
0.733661 0.627440 0.225729
0.761225 0.628994 0.229045
0.790836 0.630857 0.232789
0.822327 0.632986 0.236527
0.850988 0.635424 0.240392
0.879390 0.638387 0.244307
0.907267 0.640959 0.248124
0.935174 0.642078 0.251949
0.963144 0.642271 0.255847
0.299423 0.642094 0.199173
0.321315 0.642094 0.199173
0.343206 0.642094 0.199173
0.343750 0.642106 0.199193
0.345469 0.642157 0.199283
0.349198 0.642250 0.199484
0.355039 0.642411 0.199799
0.363464 0.642626 0.200288
0.374343 0.642895 0.200886
0.387748 0.643267 0.201677
0.403887 0.643610 0.202605
0.421301 0.644094 0.203875
0.439925 0.644612 0.205236
0.459807 0.645362 0.207134
0.481040 0.646128 0.209081
0.503320 0.647171 0.211383
0.527193 0.648340 0.213743
0.551713 0.649769 0.216318
0.577550 0.651195 0.218938
0.604557 0.652730 0.221769
0.633040 0.653761 0.224241
0.660014 0.654879 0.226703
0.686148 0.655703 0.229041
0.711929 0.656784 0.231575
0.738509 0.658302 0.234473
0.766010 0.659928 0.237619
0.795543 0.661930 0.240980
0.826320 0.664042 0.244573
0.855080 0.666467 0.248387
0.883540 0.668949 0.252202
0.911426 0.671049 0.256057
0.938868 0.672293 0.259864
0.966651 0.673693 0.263618
0.315640 0.674114 0.210330
0.337024 0.674114 0.210330
0.358409 0.674114 0.210330
0.358937 0.674121 0.210348
0.360612 0.674151 0.210437
0.364205 0.674229 0.210656
0.370038 0.674316 0.211023
0.378157 0.674437 0.211534
0.388788 0.674635 0.212180
0.402042 0.674997 0.213106
0.417070 0.675299 0.214168
0.433787 0.675745 0.215577
0.451661 0.676316 0.217243
0.471192 0.677010 0.219219
0.491459 0.677865 0.221135
0.513606 0.678891 0.223229
0.536515 0.679997 0.225249
0.560330 0.681389 0.227484
0.585831 0.682673 0.229705
0.612202 0.684058 0.232017
0.639644 0.685155 0.234099
0.665689 0.686149 0.236229
0.691563 0.687148 0.238356
0.716836 0.688186 0.240710
0.743589 0.689621 0.243319
0.771108 0.691140 0.246302
0.800667 0.692873 0.249554
0.830678 0.694845 0.252962
0.859345 0.696775 0.256686
0.888359 0.698769 0.260753
0.915984 0.700979 0.264383
0.943286 0.702551 0.267764
0.970596 0.703829 0.271513
0.334128 0.705309 0.222024
0.354935 0.705309 0.222024
0.375741 0.705309 0.222024
0.376246 0.705315 0.222046
0.377805 0.705339 0.222147
0.381180 0.705382 0.222370
0.386785 0.705486 0.222764
0.394857 0.705660 0.223391
0.405044 0.705874 0.224131
0.417151 0.706196 0.225089
0.431132 0.706621 0.226400
0.446678 0.707114 0.227739
0.463635 0.707786 0.229325
0.482165 0.708498 0.230960
0.501654 0.709388 0.232530
0.522994 0.710361 0.234237
0.545079 0.711406 0.235960
0.568202 0.712416 0.237768
0.593008 0.713568 0.239710
0.619135 0.714801 0.241616
0.645617 0.715695 0.243461
0.671419 0.717052 0.245328
0.697018 0.717902 0.247312
0.722260 0.719109 0.249659
0.748931 0.720217 0.252183
0.776567 0.721741 0.255058
0.806252 0.723359 0.258259
0.835737 0.725210 0.261705
0.864352 0.727090 0.265305
0.893254 0.729197 0.269143
0.921060 0.729957 0.272848
0.948045 0.732187 0.276354
0.975047 0.733915 0.279664
0.352965 0.738771 0.233927
0.373183 0.738771 0.233927
0.393401 0.738771 0.233927
0.393907 0.738778 0.233951
0.395472 0.738809 0.234061
0.398752 0.738875 0.234296
0.404005 0.738986 0.234684
0.411196 0.739217 0.235314
0.420402 0.739481 0.236084
0.431582 0.739826 0.237051
0.444457 0.740300 0.238248
0.458893 0.740845 0.239397
0.475167 0.741497 0.240831
0.492432 0.742049 0.241954
0.511761 0.742860 0.243317
0.531991 0.743501 0.244681
0.553412 0.744272 0.246148
0.575932 0.744985 0.247746
0.600377 0.745688 0.249482
0.626377 0.746540 0.251225
0.652483 0.747309 0.253045
0.677881 0.748407 0.254777
0.703626 0.749578 0.256721
0.728544 0.750509 0.259133
0.755001 0.751750 0.261622
0.782570 0.752902 0.264481
0.812564 0.754560 0.267512
0.841025 0.756137 0.270791
0.869734 0.757933 0.274243
0.898105 0.759717 0.278024
0.925918 0.761238 0.281367
0.953074 0.761875 0.284693
0.979961 0.763012 0.288137
0.372388 0.772222 0.246455
0.391998 0.772222 0.246455
0.411609 0.772222 0.246455
0.412070 0.772224 0.246474
0.413427 0.772231 0.246564
0.416329 0.772233 0.246760
0.420968 0.772266 0.247102
0.427511 0.772441 0.247680
0.435931 0.772680 0.248408
0.446075 0.772944 0.249119
0.457984 0.773256 0.249904
0.471751 0.773634 0.250904
0.486914 0.774094 0.251787
0.503567 0.774496 0.252768
0.522133 0.774963 0.253851
0.541684 0.775427 0.254979
0.562380 0.775901 0.256247
0.585002 0.776516 0.257715
0.608809 0.776995 0.259321
0.634793 0.778049 0.260870
0.660190 0.778761 0.262616
0.685565 0.779892 0.264429
0.710363 0.780970 0.266351
0.735735 0.782159 0.268719
0.761093 0.783337 0.271126
0.788964 0.784781 0.273899
0.818846 0.786118 0.276957
0.847097 0.787763 0.280106
0.875253 0.789081 0.283616
0.903147 0.790804 0.287018
0.930459 0.791688 0.290239
0.957845 0.792696 0.293381
0.985015 0.793712 0.296561
0.392526 0.806062 0.259105
0.411508 0.806062 0.259105
0.430489 0.806062 0.259105
0.430908 0.806060 0.259124
0.432139 0.806049 0.259212
0.434758 0.806022 0.259399
0.438951 0.806091 0.259766
0.444760 0.806148 0.260097
0.452282 0.806208 0.260433
0.461749 0.806363 0.260945
0.472947 0.806569 0.261597
0.485521 0.806715 0.262176
0.499901 0.806961 0.262807
0.516307 0.807243 0.263658
0.533642 0.807653 0.264463
0.552690 0.808078 0.265471
0.572894 0.808660 0.266648
0.595248 0.809536 0.267894
0.619261 0.810286 0.269274
0.644316 0.811525 0.270733
0.668767 0.812558 0.272385
0.693510 0.813781 0.274211
0.717518 0.814939 0.276376
0.742682 0.816097 0.278712
0.768395 0.817348 0.281316
0.796075 0.818394 0.284160
0.825783 0.819413 0.287115
