docs/guides/setting_presets/sdr-cinema-g268-o84-234n-33p-3dlut.cube
# Created by ArgyllCMS
LUT_3D_SIZE 9
DOMAIN_MIN 0.0 0.0 0.0
DOMAIN_MAX 1.0 1.0 1.0
0.000000 0.000000 0.000000
0.099800 0.025894 0.016282
0.204759 0.047656 0.026138
0.317666 0.073159 0.041594
0.438548 0.103657 0.070395
0.557194 0.146502 0.098730
0.689493 0.176918 0.126910
0.820751 0.214442 0.156424
0.942341 0.260085 0.183354
0.017964 0.108462 0.009173
0.102882 0.110009 0.019085
0.206665 0.123060 0.028264
0.318257 0.142027 0.041949
0.438366 0.167096 0.070684
0.557269 0.204116 0.099044
0.689610 0.231851 0.127240
0.820777 0.266575 0.156674
0.942369 0.308466 0.183629
0.079002 0.216824 0.045325
0.145877 0.217097 0.045182
0.219078 0.220502 0.047049
0.323831 0.227374 0.061132
0.440951 0.238706 0.084129
0.560118 0.259498 0.107557
0.692009 0.278598 0.133127
0.821972 0.306348 0.162247
0.943107 0.338585 0.188565
0.142331 0.334910 0.091202
0.199691 0.334959 0.091337
0.248343 0.335704 0.093897
0.339431 0.340005 0.101044
0.449992 0.346447 0.112966
0.566738 0.357190 0.128461
0.697339 0.368041 0.150973
0.824803 0.390176 0.178463
0.946014 0.409874 0.202289
0.208369 0.457422 0.136388
0.260059 0.457478 0.136466
0.292978 0.458187 0.137948
0.368579 0.459402 0.142155
0.468690 0.463711 0.149561
0.580675 0.471522 0.162383
0.706760 0.481891 0.180768
0.832280 0.495680 0.202921
0.952304 0.507113 0.222611
0.276625 0.587053 0.181756
0.323403 0.587108 0.181838
0.346846 0.588199 0.183211
0.408645 0.590314 0.186083
0.494645 0.594460 0.192501
0.603466 0.602109 0.205528
0.720272 0.608222 0.218844
0.845336 0.616667 0.235092
0.961163 0.619560 0.250419
0.345344 0.725495 0.229281
0.387609 0.725526 0.229363
0.407545 0.726039 0.230877
0.457513 0.727864 0.235024
0.533923 0.730990 0.240968
0.633897 0.734992 0.248124
0.742428 0.739335 0.256823
0.864355 0.745743 0.270307
0.977262 0.747478 0.283551
0.429643 0.862770 0.281568
0.466175 0.862774 0.281591
0.479041 0.862864 0.282025
0.516209 0.863570 0.283141
0.580708 0.865988 0.285894
0.672686 0.869570 0.291141
0.773634 0.873267 0.300548
0.889558 0.879466 0.312612
0.998041 0.878083 0.320768
0.503097 0.987578 0.327650
0.534853 0.987608 0.327664
0.544963 0.988154 0.327906
0.575479 0.989214 0.328843
0.630701 0.991177 0.331057
0.712220 0.993958 0.335191
0.802736 0.998228 0.342479
0.908706 1.000000 0.350181
1.000000 1.000000 0.356208
0.004731 0.003154 0.105475
0.100176 0.021652 0.103481
0.205096 0.044183 0.107399
0.317589 0.073400 0.117690
0.437913 0.104433 0.139039
0.557130 0.146321 0.161575
0.689470 0.176438 0.186217
0.820639 0.214849 0.212826
0.942329 0.260329 0.237471
0.029261 0.107001 0.102220
0.107090 0.108079 0.103538
0.206868 0.121709 0.108610
0.318303 0.142262 0.118241
0.437711 0.167715 0.139253
0.557235 0.203870 0.161927
0.689584 0.231399 0.186508
0.820664 0.266948 0.213081
0.942360 0.308697 0.237713
0.079496 0.217088 0.121030
0.146059 0.217301 0.120894
0.219076 0.219690 0.119920
0.324107 0.227364 0.131834
0.441086 0.238689 0.149679
0.559820 0.259692 0.168763
0.692017 0.278642 0.191700
0.821965 0.306406 0.218246
0.943140 0.338621 0.242337
0.141983 0.334839 0.154848
0.199296 0.334878 0.154961
0.248129 0.335600 0.157159
0.339358 0.339803 0.163495
0.449823 0.346472 0.173609
0.566556 0.357235 0.187338
0.697296 0.368043 0.207787
0.824957 0.390122 0.233162
0.946153 0.409749 0.254888
0.208232 0.457319 0.194485
0.259932 0.457374 0.194559
0.292759 0.458177 0.196037
0.368470 0.459385 0.199739
0.468597 0.463703 0.206415
0.580579 0.471547 0.218261
0.706732 0.482064 0.235129
0.832256 0.495696 0.255490
0.952349 0.507057 0.273573
0.276433 0.587023 0.235918
0.323281 0.587058 0.236004
0.346808 0.588093 0.237227
0.408535 0.590360 0.239879
0.494555 0.594524 0.245823
0.603467 0.602264 0.257942
0.720218 0.608173 0.270147
0.845383 0.616586 0.285116
0.961172 0.619518 0.299309
0.345238 0.725415 0.279600
0.387510 0.725446 0.279673
0.407495 0.725985 0.281072
0.457476 0.727875 0.285086
0.533867 0.730923 0.290470
0.633775 0.734882 0.297037
0.742372 0.739363 0.305129
0.864329 0.745699 0.317634
0.977362 0.747392 0.330028
0.429512 0.862786 0.328116
0.466051 0.862791 0.328138
0.478926 0.862878 0.328537
0.516081 0.863585 0.329606
0.580585 0.865998 0.332173
0.672608 0.869524 0.337077
0.773619 0.873211 0.345846
0.889492 0.879486 0.357109
0.998006 0.878052 0.364646
0.502877 0.987704 0.371008
0.534640 0.987733 0.371020
0.544747 0.988280 0.371248
0.575336 0.989307 0.372136
0.630641 0.991184 0.374215
0.712221 0.993898 0.378077
0.802739 0.998151 0.384842
0.908649 1.000000 0.392148
1.000000 1.000000 0.397769
0.013556 0.013300 0.209832
0.096144 0.018850 0.209746
0.206919 0.036040 0.212661
0.317589 0.072680 0.216174
0.438481 0.105335 0.223009
0.557676 0.143608 0.232141
0.689679 0.176121 0.245975
0.821209 0.215412 0.264037
0.943247 0.260478 0.281364
0.023898 0.105849 0.210080
0.102389 0.106944 0.210272
0.207488 0.117057 0.212726
0.318200 0.140545 0.216221
0.438680 0.167313 0.223080
0.557567 0.201308 0.232280
0.689742 0.230988 0.246102
0.821227 0.267151 0.264220
0.943283 0.308611 0.281560
0.081096 0.217555 0.215355
0.146300 0.217175 0.215461
0.214598 0.215415 0.214875
0.321862 0.224938 0.219666
0.441461 0.236323 0.225366
0.558900 0.257783 0.235300
0.691468 0.277042 0.248553
0.821825 0.304235 0.267916
0.943862 0.337071 0.284824
0.139804 0.333695 0.227016
0.196980 0.333666 0.226957
0.245211 0.333906 0.226953
0.336643 0.338397 0.231174
0.448121 0.345213 0.236460
0.564658 0.355603 0.245400
0.696210 0.366873 0.259888
0.824826 0.389675 0.277897
0.946895 0.408365 0.293585
0.204427 0.457727 0.248508
0.256434 0.457720 0.248546
0.290082 0.457881 0.249668
0.366756 0.459249 0.252823
0.466375 0.464160 0.256537
0.578625 0.471652 0.265929
0.705651 0.482487 0.279516
0.832431 0.495016 0.294228
0.952925 0.506125 0.307500
0.272810 0.586683 0.277239
0.319941 0.586696 0.277307
0.344503 0.587046 0.278421
0.407323 0.589176 0.281028
0.494430 0.595013 0.287321
0.602864 0.602901 0.295731
0.719809 0.608127 0.304715
0.845768 0.615424 0.316470
0.962146 0.618498 0.328428
0.344538 0.724644 0.312309
0.386953 0.724679 0.312399
0.407216 0.725574 0.313950
0.457432 0.727922 0.317389
0.532913 0.729849 0.320678
0.631586 0.734290 0.325650
0.741532 0.739610 0.333240
0.863946 0.745257 0.344435
0.977758 0.746513 0.354588
0.426602 0.862847 0.353188
0.463328 0.862880 0.353196
0.476267 0.863089 0.353446
0.513524 0.864214 0.354275
0.578923 0.866089 0.356662
0.672223 0.868567 0.361504
0.773303 0.872217 0.370092
0.888270 0.879685 0.381112
0.997256 0.877714 0.386064
0.499408 0.988998 0.390915
0.531383 0.989037 0.390929
0.541434 0.989741 0.391168
0.572331 0.991031 0.392017
0.628663 0.992149 0.394099
0.711803 0.993369 0.397940
0.802352 0.997709 0.404571
0.907427 1.000000 0.411649
1.000000 1.000000 0.417485
0.032310 0.037845 0.325002
0.109316 0.039373 0.325287
0.211243 0.048980 0.326988
0.319297 0.080249 0.328964
0.438512 0.109205 0.333772
0.558077 0.147246 0.337826
0.690744 0.180683 0.345508
0.821352 0.214834 0.359053
0.944170 0.255339 0.369269
0.037884 0.117647 0.325099
0.113430 0.117256 0.325431
0.211731 0.124306 0.327053
0.319760 0.146372 0.328983
0.438751 0.170206 0.333695
0.558269 0.204413 0.337922
0.690798 0.235224 0.345538
0.821261 0.266544 0.359212
0.944174 0.303812 0.369415
0.087841 0.218508 0.329157
0.151525 0.218476 0.329055
0.218455 0.217817 0.327393
0.322146 0.224519 0.329388
0.440094 0.236296 0.333747
0.558463 0.258064 0.339329
0.691013 0.277322 0.347669
0.819360 0.304718 0.362031
0.943836 0.333432 0.371692
0.142998 0.334376 0.333781
0.199911 0.334318 0.333837
0.245306 0.334208 0.333732
0.331282 0.333221 0.333998
0.445109 0.342277 0.338879
0.561984 0.353290 0.344412
0.692865 0.368065 0.355235
0.823993 0.388994 0.366265
0.945720 0.408168 0.374489
0.204891 0.456350 0.344633
0.256801 0.456275 0.344641
0.288778 0.455749 0.344889
0.360096 0.457174 0.345861
0.462999 0.462378 0.350362
0.577018 0.472431 0.358113
0.703051 0.481446 0.365141
0.831794 0.494288 0.375616
0.952793 0.505864 0.383010
0.271340 0.585600 0.363101
0.318371 0.585624 0.363131
0.341760 0.585838 0.363851
0.403989 0.588160 0.366848
0.492146 0.593754 0.371340
0.597235 0.598279 0.375261
0.716999 0.605183 0.382057
0.844487 0.614544 0.391190
0.962093 0.618025 0.397998
0.342788 0.722432 0.390025
0.385139 0.722404 0.390010
0.404010 0.722275 0.390131
0.453030 0.723248 0.390828
0.529181 0.726177 0.392946
0.627682 0.730869 0.397540
0.739994 0.736651 0.404387
0.861485 0.744487 0.412200
0.975873 0.745504 0.417149
0.419232 0.861365 0.416720
0.456431 0.861386 0.416734
0.469955 0.861746 0.417024
0.509115 0.862614 0.418227
0.575072 0.864605 0.420082
0.669341 0.866860 0.423563
0.770330 0.871255 0.430577
0.886207 0.878405 0.440995
0.995139 0.878172 0.444428
0.493415 0.989244 0.445558
0.525804 0.989246 0.445582
0.536561 0.989320 0.446009
0.568835 0.989828 0.447016
0.624652 0.991662 0.448228
0.707581 0.994579 0.450313
0.799884 0.998715 0.456123
0.907226 1.000000 0.464790
1.000000 1.000000 0.469894
0.050453 0.062401 0.449096
0.123588 0.062557 0.449268
0.214952 0.070881 0.449620
0.322812 0.091317 0.450634
0.440728 0.115662 0.453842
0.558724 0.153108 0.457082
0.691397 0.185730 0.463893
0.820933 0.221756 0.473604
0.943716 0.257958 0.478635
0.056730 0.132596 0.449219
0.129079 0.132646 0.449389
0.215685 0.139012 0.449587
0.323042 0.155786 0.450781
0.440997 0.176027 0.453907
0.558815 0.209909 0.457254
0.691454 0.239478 0.464036
0.820853 0.273318 0.473783
0.943718 0.306342 0.478678
0.097647 0.222849 0.450273
0.159864 0.222824 0.450130
0.222709 0.222597 0.449171
0.324729 0.228891 0.450514
0.441964 0.239500 0.453230
0.559764 0.262502 0.458213
0.691576 0.283287 0.466991
0.821538 0.309069 0.474119
0.943962 0.335653 0.479136
0.148076 0.337384 0.453294
0.204517 0.337350 0.453252
0.249064 0.337226 0.453256
0.334896 0.336700 0.452337
0.446094 0.343279 0.454954
0.564124 0.356516 0.462907
0.694780 0.369310 0.470290
0.824556 0.388164 0.476217
0.946153 0.405512 0.480815
0.210366 0.457652 0.459878
0.261758 0.457603 0.459896
0.290487 0.457545 0.459972
0.359841 0.457912 0.459687
0.456556 0.459820 0.461149
0.572675 0.468639 0.467489
0.698058 0.478908 0.473630
0.827269 0.490286 0.479165
0.949988 0.501295 0.484626
0.273728 0.588714 0.473505
0.320661 0.588761 0.473550
0.343433 0.589357 0.474299
0.400371 0.588776 0.474701
0.485821 0.588984 0.474771
0.593595 0.595228 0.479000
0.712432 0.602003 0.482426
0.840223 0.611788 0.488713
0.959008 0.615442 0.493950
0.343126 0.722091 0.489363
0.385411 0.722065 0.489390
0.402895 0.721439 0.489488
0.447978 0.719956 0.487853
0.523138 0.721826 0.489026
0.621704 0.727364 0.492529
0.734882 0.732684 0.496181
0.857627 0.740196 0.502852
0.973281 0.742679 0.508228
0.415803 0.860398 0.506291
0.453206 0.860392 0.506284
0.466408 0.860300 0.506190
0.503734 0.860798 0.506423
0.569117 0.862133 0.507679
0.661692 0.864678 0.510505
0.765305 0.868474 0.515575
0.882346 0.874990 0.521965
0.992349 0.873619 0.526538
0.489899 0.987605 0.526447
0.522471 0.987624 0.526452
0.532501 0.987944 0.526539
0.563774 0.988525 0.526980
0.618089 0.989991 0.527760
0.700066 0.993221 0.529564
0.794184 0.997783 0.533600
0.904151 1.000000 0.539957
1.000000 1.000000 0.542954
0.073905 0.085651 0.575460
0.142966 0.086100 0.575370
0.219410 0.092532 0.576884
0.326099 0.107567 0.575207
0.442943 0.130063 0.576106
0.560735 0.164180 0.580155
0.693810 0.193481 0.585267
0.823331 0.226382 0.592352
0.944743 0.264560 0.590261
0.078972 0.150831 0.575183
0.147109 0.151397 0.575070
0.220004 0.156436 0.576507
0.326316 0.169296 0.575021
0.443148 0.188792 0.576012
0.560758 0.220222 0.580155
0.693783 0.246931 0.585326
0.823267 0.277302 0.592403
0.944705 0.312522 0.590206
0.112022 0.230594 0.574926
0.172656 0.230414 0.574237
0.229390 0.229630 0.572521
0.328826 0.235634 0.574513
0.444518 0.247417 0.575783
0.561889 0.270810 0.582025
0.693381 0.288058 0.587090
0.822453 0.312400 0.592358
0.944885 0.340600 0.589637
0.156377 0.340678 0.576489
0.212247 0.340760 0.576495
0.255165 0.340735 0.575949
0.338496 0.340544 0.575536
0.450706 0.348012 0.578614
0.567419 0.360080 0.584765
0.696378 0.371671 0.589844
0.825177 0.390441 0.595501
0.947165 0.407113 0.593430
0.216859 0.462525 0.583021
0.267856 0.462551 0.583043
0.296221 0.462906 0.583061
0.366462 0.463957 0.582350
0.461587 0.464160 0.584013
0.574002 0.469980 0.586759
0.697722 0.479516 0.590811
0.827752 0.490314 0.596056
0.949963 0.501003 0.596413
0.278978 0.591076 0.591424
0.325499 0.591090 0.591380
0.346800 0.591524 0.590869
0.402567 0.591254 0.591740
0.485186 0.589088 0.589934
0.584620 0.588350 0.587710
0.705333 0.596489 0.592536
0.833921 0.607473 0.598635
0.954461 0.611505 0.598778
0.345980 0.723401 0.602517
0.388046 0.723370 0.602520
0.405357 0.722574 0.602558
0.450304 0.721445 0.602680
0.519901 0.720326 0.600405
0.613420 0.720664 0.600226
0.726485 0.727086 0.604463
0.851464 0.736339 0.610553
0.968019 0.737141 0.609220
0.417849 0.861723 0.618257
0.455108 0.861709 0.618236
0.467775 0.861481 0.617850
0.503501 0.860195 0.616837
0.565109 0.858678 0.615405
0.653850 0.859905 0.617558
0.759680 0.863517 0.622200
0.876777 0.872703 0.627586
0.987608 0.870768 0.623410
0.487827 0.988056 0.627239
0.520539 0.988034 0.627224
0.530510 0.987654 0.626962
0.560570 0.987262 0.626454
0.612460 0.987496 0.626050
0.691668 0.989626 0.628515
0.787261 0.993375 0.632371
0.898064 0.999929 0.636538
1.000000 1.000000 0.636918
0.102545 0.113305 0.711367
0.165863 0.114140 0.711072
0.223378 0.115895 0.712635
0.327936 0.129552 0.711396
0.443943 0.150857 0.712079
0.562957 0.180257 0.713938
0.694642 0.205339 0.717127
0.825078 0.235514 0.722792
0.945517 0.270383 0.721489
0.103885 0.174505 0.711242
0.166722 0.175100 0.710943
0.224005 0.176299 0.712339
0.328160 0.188601 0.711314
0.444111 0.207871 0.712078
0.562936 0.234743 0.713907
0.694624 0.257707 0.717147
0.824937 0.285716 0.722814
0.945386 0.317948 0.721503
0.122999 0.241057 0.710536
0.182024 0.241056 0.710279
0.234108 0.241779 0.710562
0.331656 0.247941 0.711485
0.447423 0.260900 0.712772
0.564498 0.279207 0.714569
0.695289 0.295980 0.717921
0.823236 0.319185 0.723003
0.944279 0.346131 0.721300
0.162868 0.347148 0.711811
0.218150 0.347182 0.711777
0.259700 0.348747 0.712342
0.343409 0.348796 0.712131
0.452786 0.355781 0.712857
0.569851 0.365303 0.714913
0.697865 0.377132 0.719118
0.827537 0.394989 0.722568
0.948302 0.411917 0.722032
0.223638 0.467365 0.717440
0.274205 0.467454 0.717425
0.303896 0.468937 0.716512
0.369930 0.467485 0.714451
0.464086 0.467727 0.713332
0.575482 0.472381 0.714489
0.699561 0.482943 0.717746
0.828433 0.494168 0.722436
0.950434 0.504557 0.722930
0.283442 0.594866 0.720572
0.329699 0.594858 0.720537
0.351452 0.594555 0.720013
0.406477 0.593991 0.719169
0.488415 0.591771 0.716957
0.588221 0.591243 0.713481
0.706417 0.597963 0.716518
0.834135 0.609015 0.723233
0.953607 0.611495 0.723034
0.349833 0.726796 0.729103
0.391616 0.726762 0.729078
0.408113 0.726054 0.728846
0.452234 0.725009 0.727379
0.522207 0.723038 0.723956
0.614267 0.720791 0.722046
0.725156 0.727581 0.727232
0.847434 0.736331 0.732471
0.964110 0.735206 0.729321
0.420727 0.863083 0.738820
0.457785 0.863072 0.738785
0.470475 0.862763 0.738138
0.505860 0.861514 0.736643
0.565911 0.859446 0.734864
0.653276 0.858520 0.736687
0.756506 0.861303 0.740903
0.871105 0.870439 0.745352
0.982633 0.868590 0.741020
0.490328 0.988671 0.744897
0.522861 0.988664 0.744876
0.532586 0.988512 0.744512
0.561517 0.987783 0.743564
0.611694 0.987305 0.742747
0.688550 0.987397 0.744185
0.782913 0.990702 0.746944
0.892305 0.997555 0.751367
1.000000 0.999428 0.750462
0.141612 0.142303 0.844039
0.198257 0.142607 0.844179
0.241534 0.147134 0.847668
0.337995 0.156631 0.848030
0.449403 0.175331 0.849309
0.568739 0.195456 0.850820
0.697539 0.219725 0.853986
0.828558 0.248172 0.857893
0.946693 0.281307 0.850992
0.142202 0.200287 0.843972
0.198732 0.200645 0.844117
0.241739 0.204598 0.847735
0.338250 0.213493 0.848114
0.449588 0.230297 0.849262
0.568796 0.248576 0.850813
0.697700 0.270862 0.853947
0.828633 0.297275 0.857750
0.946651 0.327989 0.850957
0.151169 0.258646 0.845606
0.206947 0.258793 0.845793
0.249061 0.260907 0.848722
0.344201 0.266316 0.847929
0.452561 0.276378 0.849814
0.569783 0.288878 0.851283
0.699653 0.305387 0.853799
0.829600 0.328050 0.856554
0.947228 0.353724 0.850894
0.184665 0.359862 0.847700
0.237831 0.359909 0.847885
0.272542 0.360614 0.850825
0.354825 0.360439 0.851773
0.457156 0.363648 0.849976
0.572211 0.371928 0.852032
0.699935 0.385755 0.854461
0.830047 0.401689 0.857915
0.950096 0.417986 0.850641
0.235239 0.471641 0.854084
0.284988 0.471590 0.854011
0.313625 0.471399 0.852673
0.376562 0.471253 0.851300
0.469122 0.472392 0.848872
0.577855 0.477821 0.850310
0.703200 0.488120 0.853889
0.832279 0.498789 0.858237
0.952199 0.509552 0.850943
0.291887 0.597542 0.855691
0.337528 0.597483 0.855609
0.358085 0.597818 0.854507
0.412706 0.598349 0.853770
0.492644 0.595778 0.851540
0.591738 0.594474 0.848757
0.711031 0.602497 0.851231
0.837423 0.614054 0.856636
0.955500 0.616148 0.849344
0.353879 0.731196 0.861175
0.395390 0.731177 0.861166
0.411986 0.730754 0.860997
0.455957 0.729553 0.860341
0.525646 0.726484 0.857137
0.618690 0.725666 0.853373
0.728459 0.730206 0.853706
0.848889 0.738274 0.859757
0.964021 0.738424 0.854306
0.426597 0.865615 0.869909
0.463293 0.865606 0.869885
0.475467 0.865363 0.869484
0.509906 0.864752 0.868053
0.569185 0.863034 0.865572
0.657345 0.861777 0.863735
0.756039 0.861568 0.865036
0.866044 0.867083 0.867769
0.978137 0.867174 0.862647
0.492867 0.990512 0.868544
0.525209 0.990516 0.868511
0.534479 0.990569 0.867915
0.562568 0.990308 0.866357
0.612120 0.989532 0.864467
0.689097 0.989029 0.864619
0.782643 0.989565 0.867864
0.887548 0.993789 0.871671
1.000000 1.000000 0.876259
0.176528 0.168782 0.968195
0.230186 0.169032 0.968394
0.262498 0.173934 0.972733
0.351321 0.179704 0.972410
0.454326 0.195382 0.974778
0.569277 0.212968 0.976139
0.695363 0.235111 0.978440
0.820572 0.257888 0.981205
0.953846 0.292064 0.983223
0.176830 0.224362 0.968251
0.230458 0.224606 0.968464
0.262835 0.229163 0.972804
0.351589 0.234247 0.972470
0.454908 0.248636 0.974606
0.569263 0.264737 0.976207
0.695485 0.285079 0.978331
0.820760 0.306111 0.981055
0.953922 0.337927 0.983114
0.182529 0.274028 0.970380
0.235779 0.274156 0.970608
0.269647 0.276529 0.973552
0.357709 0.280611 0.972530
0.459625 0.289210 0.973795
0.569682 0.300800 0.976871
0.697003 0.315889 0.977607
0.822849 0.334059 0.979446
0.955054 0.362438 0.982357
0.207496 0.367387 0.973236
0.259027 0.367449 0.973394
0.289199 0.367810 0.975936
0.367428 0.368310 0.976056
0.461514 0.370029 0.975582
0.572618 0.377101 0.976229
0.696024 0.389900 0.979581
0.821869 0.404155 0.981238
0.955479 0.425394 0.985055
0.249342 0.476133 0.978463
0.298037 0.476077 0.978467
0.326518 0.474494 0.977701
0.386560 0.473977 0.976413
0.472198 0.475118 0.975892
0.579212 0.480523 0.976805
0.699844 0.491588 0.979485
0.823856 0.500945 0.983039
0.957704 0.513577 0.986027
0.302680 0.593002 0.980661
0.347619 0.592989 0.980603
0.366943 0.593023 0.979593
0.415472 0.594551 0.978908
0.495405 0.594195 0.977144
0.590076 0.593954 0.975583
0.705624 0.599433 0.977159
0.828915 0.607424 0.981050
0.960028 0.622216 0.985916
0.361659 0.726458 0.982490
0.402645 0.726432 0.982486
0.417981 0.726309 0.982433
0.461306 0.725295 0.983626
0.527031 0.723116 0.983087
0.612839 0.721141 0.978748
0.723535 0.725685 0.977781
0.839498 0.733417 0.981091
0.967074 0.743027 0.987556
0.423383 0.860645 0.991791
0.460337 0.860622 0.991783
0.473124 0.860061 0.991871
0.508658 0.859130 0.990997
0.567237 0.856776 0.988503
0.647815 0.854775 0.985968
0.751287 0.857099 0.983823
0.858063 0.860203 0.984366
0.979826 0.867859 0.990415
0.501271 0.994386 1.000000
0.533063 0.994412 1.000000
0.542047 0.994884 1.000000
0.569244 0.995486 1.000000
0.617302 0.995183 0.998648
0.694665 0.994546 0.996593
0.784011 0.993263 0.995327
0.886851 0.993632 0.996181
0.998695 0.999529 1.000000
