docs/guides/setting_presets/sdr-cinema-g248-o84-234n-33p-3dlut.cube
# Created by ArgyllCMS
LUT_3D_SIZE 9
DOMAIN_MIN 0.0 0.0 0.0
DOMAIN_MAX 1.0 1.0 1.0
0.000000 0.000000 0.000000
0.110873 0.030060 0.016943
0.224368 0.050153 0.028244
0.341451 0.078557 0.047045
0.459507 0.110696 0.075745
0.574842 0.152924 0.102262
0.701585 0.178659 0.129686
0.824157 0.216146 0.157210
0.942341 0.260085 0.183354
0.020428 0.120325 0.011782
0.114374 0.122032 0.019651
0.226823 0.134011 0.030954
0.342071 0.152153 0.047740
0.459359 0.176700 0.076422
0.575061 0.212518 0.102996
0.701788 0.235402 0.130191
0.824211 0.269852 0.157641
0.942393 0.309830 0.183820
0.090580 0.238104 0.052863
0.159365 0.238249 0.052198
0.240995 0.241901 0.055773
0.347085 0.248569 0.072343
0.463890 0.259064 0.092456
0.578304 0.279001 0.113350
0.704958 0.293802 0.137809
0.825700 0.319349 0.165261
0.943434 0.348958 0.190607
0.153522 0.358993 0.100005
0.211757 0.359072 0.100193
0.269068 0.360252 0.103428
0.363449 0.364703 0.110836
0.472819 0.371437 0.121754
0.587067 0.381108 0.136837
0.709928 0.391221 0.158364
0.829690 0.410859 0.183364
0.947268 0.429914 0.206034
0.222252 0.478724 0.144337
0.274222 0.478812 0.144464
0.313348 0.479677 0.146558
0.394693 0.480839 0.151003
0.491353 0.486516 0.158793
0.602280 0.494725 0.171907
0.718762 0.505254 0.188950
0.837756 0.515988 0.208817
0.953882 0.528086 0.227686
0.284821 0.608481 0.188253
0.331862 0.608587 0.188381
0.361401 0.609926 0.189992
0.429523 0.612042 0.193622
0.518011 0.615898 0.201549
0.625933 0.622694 0.213836
0.733661 0.627440 0.225729
0.850988 0.635424 0.240392
0.963144 0.642271 0.255847
0.352965 0.738771 0.233927
0.395472 0.738809 0.234061
0.420402 0.739481 0.236084
0.475167 0.741497 0.240831
0.553412 0.744272 0.246148
0.652483 0.747309 0.253045
0.755001 0.751750 0.261622
0.869734 0.757933 0.274243
0.979961 0.763012 0.288137
0.431950 0.866153 0.282881
0.468809 0.866164 0.282918
0.485568 0.866389 0.283443
0.528270 0.867372 0.284857
0.597266 0.870130 0.287928
0.687799 0.873528 0.293481
0.785036 0.877147 0.302860
0.893343 0.883497 0.314180
0.999437 0.887936 0.323670
0.503097 0.987578 0.327650
0.535251 0.987629 0.327673
0.549042 0.988370 0.328003
0.585031 0.989700 0.329171
0.645504 0.991796 0.331686
0.727623 0.994453 0.336301
0.815308 0.998996 0.343598
0.915168 1.000000 0.350199
1.000000 1.000000 0.356208
0.003173 0.002422 0.115909
0.110425 0.021942 0.114626
0.224770 0.047193 0.118956
0.341142 0.079275 0.129463
0.458829 0.111351 0.149042
0.574775 0.152345 0.168524
0.701575 0.178097 0.191524
0.823983 0.216818 0.215839
0.942321 0.260519 0.239475
0.032876 0.118058 0.113242
0.118168 0.119380 0.114349
0.227306 0.133303 0.121448
0.341936 0.152848 0.130136
0.459077 0.176873 0.149620
0.574980 0.211982 0.169098
0.701782 0.234919 0.191944
0.824048 0.270464 0.216242
0.942379 0.310205 0.239886
0.090763 0.238021 0.132848
0.159193 0.238172 0.132233
0.240676 0.241384 0.134555
0.347275 0.248567 0.145635
0.464105 0.258980 0.160459
0.578011 0.279166 0.177301
0.704991 0.294011 0.198513
0.825726 0.319236 0.223319
0.943482 0.349020 0.246088
0.152975 0.358909 0.166136
0.211179 0.358961 0.166292
0.268861 0.360063 0.168872
0.363006 0.364557 0.175098
0.472587 0.371354 0.184168
0.586642 0.381212 0.197485
0.709906 0.391262 0.216955
0.829737 0.410953 0.239508
0.947470 0.429822 0.260061
0.221942 0.478645 0.204093
0.273887 0.478744 0.204200
0.313053 0.479722 0.206099
0.394576 0.480885 0.209897
0.491210 0.486479 0.216829
0.602090 0.494764 0.229086
0.718710 0.505538 0.244457
0.837710 0.516010 0.262586
0.953877 0.528038 0.279756
0.284492 0.608453 0.243554
0.331617 0.608520 0.243689
0.361342 0.609742 0.245187
0.429354 0.612104 0.248460
0.517994 0.616070 0.255877
0.625917 0.622854 0.267121
0.733536 0.627378 0.277822
0.851070 0.635299 0.291263
0.963306 0.642098 0.305592
0.352879 0.738742 0.285383
0.395396 0.738785 0.285518
0.420382 0.739521 0.287472
0.475122 0.741512 0.291687
0.553295 0.744144 0.296463
0.652264 0.747294 0.302686
0.754897 0.751798 0.310639
0.869708 0.757896 0.322472
0.980133 0.762865 0.335309
0.431705 0.866182 0.330378
0.468560 0.866196 0.330413
0.485348 0.866412 0.330886
0.528045 0.867405 0.332172
0.597132 0.870117 0.334972
0.687740 0.873430 0.340185
0.784971 0.877112 0.348961
0.893227 0.883529 0.359482
0.999429 0.887859 0.368235
0.502720 0.987793 0.371850
0.534898 0.987844 0.371871
0.548671 0.988589 0.372172
0.584790 0.989855 0.373277
0.645428 0.991798 0.375588
0.727623 0.994353 0.379899
0.815292 0.998876 0.386716
0.915040 1.000000 0.393028
1.000000 1.000000 0.398599
0.015785 0.017564 0.230502
0.108118 0.023691 0.230590
0.226462 0.043316 0.233523
0.341177 0.080496 0.237396
0.459806 0.112233 0.243588
0.574976 0.150903 0.251595
0.701883 0.178746 0.263462
0.824930 0.216654 0.279397
0.943819 0.259363 0.295773
0.027221 0.118955 0.230930
0.116884 0.119642 0.231758
0.227454 0.130194 0.233070
0.341665 0.151531 0.237430
0.460051 0.176194 0.243675
0.575026 0.210170 0.251804
0.701969 0.235523 0.263660
0.824989 0.269740 0.279727
0.943873 0.308766 0.296100
0.092653 0.238150 0.237113
0.158954 0.238169 0.237130
0.234650 0.235873 0.235463
0.345449 0.246036 0.240958
0.461955 0.256826 0.246641
0.576872 0.276639 0.255101
0.703740 0.291355 0.267212
0.825397 0.316393 0.284169
0.944393 0.346348 0.300020
0.151490 0.357839 0.248328
0.209829 0.357811 0.248280
0.265487 0.358723 0.249105
0.360280 0.362464 0.252710
0.470622 0.369584 0.257535
0.584353 0.379341 0.266071
0.708795 0.390365 0.279194
0.829367 0.410740 0.294130
0.947703 0.429143 0.308544
0.217723 0.478660 0.268180
0.270101 0.478656 0.268267
0.310033 0.479108 0.269885
0.391460 0.481521 0.272747
0.489129 0.486703 0.277225
0.599861 0.495375 0.285911
0.717535 0.505182 0.297753
0.838368 0.514791 0.309920
0.954393 0.527048 0.322562
0.280617 0.607669 0.293920
0.328026 0.607704 0.294007
0.358950 0.607798 0.295196
0.428353 0.610722 0.299225
0.517605 0.616210 0.305605
0.624273 0.621919 0.312238
0.732638 0.626634 0.319978
0.851074 0.634296 0.330654
0.964609 0.640696 0.342595
0.352311 0.737989 0.327085
0.394874 0.738034 0.327206
0.420065 0.739028 0.328953
0.474471 0.740755 0.331678
0.552199 0.742314 0.334351
0.649763 0.747089 0.339294
0.754129 0.751787 0.346996
0.869079 0.757408 0.356903
0.979946 0.762011 0.367244
0.427706 0.866002 0.362883
0.464858 0.866058 0.362895
0.481806 0.866695 0.363184
0.524966 0.868143 0.364295
0.595306 0.869969 0.367028
0.687629 0.872048 0.372214
0.784465 0.875905 0.380430
0.891784 0.883593 0.391376
0.998522 0.887631 0.396891
0.498511 0.989202 0.398763
0.530970 0.989253 0.398797
0.544646 0.990205 0.399108
0.581514 0.991436 0.400220
0.643683 0.992233 0.402399
0.726940 0.993844 0.406408
0.814671 0.998507 0.412856
0.913473 1.000000 0.419908
1.000000 1.000000 0.425549
0.036121 0.043358 0.348893
0.121468 0.045152 0.349307
0.230544 0.058220 0.350766
0.342695 0.087762 0.352778
0.460603 0.114350 0.357284
0.576074 0.154759 0.361312
0.702912 0.183769 0.369489
0.824719 0.216327 0.381929
0.943539 0.255166 0.391758
0.044144 0.129232 0.349022
0.127257 0.128789 0.349543
0.231263 0.137810 0.350785
0.343320 0.157069 0.352882
0.460971 0.178067 0.357368
0.576177 0.214062 0.361514
0.703000 0.239829 0.369605
0.824528 0.269697 0.382191
0.943439 0.304974 0.391969
0.098792 0.239712 0.353054
0.163934 0.239593 0.352834
0.238681 0.239103 0.351382
0.345463 0.245838 0.353474
0.461588 0.257190 0.358097
0.576578 0.276730 0.363153
0.702825 0.293103 0.372120
0.822976 0.318312 0.385129
0.942962 0.344753 0.394342
0.154406 0.359253 0.358130
0.212203 0.359140 0.358178
0.265390 0.358315 0.358036
0.355755 0.357759 0.358237
0.466646 0.366335 0.362213
0.581935 0.377297 0.369588
0.706399 0.391102 0.379478
0.828754 0.408504 0.388152
0.947340 0.427276 0.396720
0.218864 0.477756 0.369226
0.271183 0.477608 0.369209
0.308079 0.477789 0.368943
0.383675 0.478580 0.370094
0.486389 0.486076 0.376094
0.596890 0.495673 0.382243
0.714945 0.503970 0.388185
0.836992 0.513769 0.397865
0.954267 0.526862 0.406140
0.280642 0.607067 0.387490
0.327938 0.607087 0.387558
0.357504 0.607086 0.388664
0.424674 0.609265 0.390625
0.514116 0.613398 0.394243
0.617336 0.617303 0.397958
0.730532 0.624232 0.405034
0.849511 0.633276 0.412429
0.963196 0.639941 0.419715
0.348950 0.735051 0.410641
0.391602 0.735008 0.410615
0.414985 0.734686 0.410335
0.469060 0.735665 0.410724
0.547346 0.739190 0.413255
0.646462 0.743376 0.417955
0.752083 0.748384 0.423753
0.866027 0.756000 0.431202
0.977603 0.760791 0.437895
0.420262 0.864555 0.433540
0.457929 0.864575 0.433565
0.475831 0.864984 0.433939
0.521017 0.865826 0.435331
0.590953 0.867924 0.437014
0.683570 0.870848 0.440561
0.780651 0.875132 0.447120
0.889675 0.881710 0.456469
0.996293 0.887317 0.462735
0.492744 0.988695 0.461280
0.525614 0.988695 0.461309
0.540174 0.988744 0.461699
0.577821 0.989559 0.462660
0.637985 0.992462 0.463498
0.721494 0.995802 0.465775
0.811842 0.999862 0.471648
0.913565 1.000000 0.479526
1.000000 1.000000 0.484166
0.054481 0.066404 0.471168
0.134955 0.066582 0.471410
0.234182 0.076905 0.471655
0.345585 0.098951 0.472683
0.462220 0.123257 0.475566
0.576939 0.161054 0.479137
0.703566 0.188873 0.485014
0.824570 0.224494 0.493486
0.943744 0.259882 0.501038
0.064818 0.141902 0.471304
0.142264 0.142006 0.471694
0.235180 0.149191 0.471858
0.345659 0.165749 0.472810
0.462536 0.185778 0.475518
0.577125 0.219557 0.479354
0.703558 0.244617 0.485261
0.824477 0.277406 0.493658
0.943765 0.309457 0.501028
0.108376 0.244318 0.472220
0.172114 0.244202 0.471893
0.242299 0.243427 0.471107
0.348464 0.249544 0.472293
0.462893 0.260784 0.475236
0.578803 0.281342 0.481030
0.703779 0.298826 0.488716
0.825719 0.321435 0.493391
0.944311 0.347011 0.501218
0.159980 0.362021 0.475738
0.217145 0.361999 0.475712
0.269691 0.360989 0.475467
0.358777 0.360682 0.475376
0.468976 0.367400 0.478229
0.583614 0.379994 0.486194
0.706486 0.391936 0.491349
0.828471 0.407918 0.496847
0.947236 0.424730 0.504118
0.223548 0.479463 0.482464
0.274906 0.479461 0.482485
0.309106 0.480134 0.482460
0.383641 0.481127 0.483531
0.480563 0.484000 0.484997
0.592696 0.491744 0.490036
0.709791 0.501390 0.494494
0.832082 0.510511 0.499682
0.950243 0.522535 0.507924
0.283392 0.610117 0.494824
0.330526 0.610185 0.494886
0.358845 0.610454 0.495685
0.420985 0.608494 0.496040
0.508007 0.608592 0.496327
0.612069 0.613658 0.499829
0.724197 0.620401 0.503081
0.844471 0.629708 0.509486
0.960049 0.637247 0.516660
0.350282 0.735608 0.510205
0.392717 0.735570 0.510254
0.414697 0.734756 0.510365
0.464494 0.733431 0.508328
0.541794 0.735380 0.509903
0.639841 0.739633 0.512997
0.746087 0.744424 0.516241
0.861634 0.751580 0.522498
0.974802 0.757767 0.529469
0.418077 0.864210 0.525436
0.455819 0.864198 0.525426
0.473147 0.863990 0.525322
0.516095 0.864151 0.525370
0.584277 0.865397 0.526305
0.676130 0.867658 0.529328
0.776172 0.871604 0.534264
0.885190 0.878458 0.539609
0.993328 0.882305 0.546339
0.489241 0.987640 0.545144
0.522238 0.987677 0.545151
0.535681 0.988182 0.545255
0.571798 0.989083 0.545691
0.631032 0.990300 0.546605
0.713814 0.993090 0.549165
0.806055 0.997623 0.553267
0.910356 1.000000 0.558417
1.000000 1.000000 0.560226
0.075884 0.089695 0.595941
0.151594 0.090642 0.595706
0.236724 0.097113 0.597338
0.348609 0.114280 0.595577
0.464039 0.137880 0.596437
0.579485 0.171398 0.600273
0.705690 0.198172 0.605233
0.827253 0.227991 0.611988
0.945105 0.265084 0.611577
0.083975 0.159002 0.595500
0.157272 0.159901 0.595148
0.237885 0.163713 0.596749
0.348833 0.178290 0.595325
0.464192 0.198482 0.596360
0.579424 0.229414 0.600265
0.705632 0.252959 0.605329
0.827034 0.280440 0.612023
0.945031 0.314318 0.611475
0.119960 0.250382 0.594888
0.182591 0.250168 0.593965
0.248410 0.250354 0.593428
0.352313 0.255667 0.594467
0.466497 0.268883 0.598205
0.581364 0.288674 0.602877
0.705059 0.303194 0.607478
0.825913 0.324875 0.611756
0.945045 0.351239 0.611030
0.167970 0.365093 0.597128
0.224609 0.365197 0.597212
0.274871 0.364893 0.597167
0.362585 0.365904 0.596931
0.473365 0.372617 0.599604
0.586914 0.382635 0.603861
0.708461 0.394441 0.609188
0.829867 0.410252 0.615497
0.947838 0.426761 0.616621
0.230024 0.485309 0.604471
0.281103 0.485369 0.604480
0.316188 0.485913 0.603403
0.389927 0.486069 0.603109
0.484282 0.486626 0.603263
0.593579 0.492972 0.606229
0.709219 0.501364 0.609684
0.832048 0.510234 0.614798
0.950617 0.522105 0.617435
0.288343 0.611804 0.611643
0.335071 0.611823 0.611560
0.361357 0.612220 0.611325
0.423587 0.610356 0.611502
0.506421 0.607858 0.608179
0.603714 0.607689 0.606888
0.717911 0.615670 0.612200
0.838749 0.625802 0.618554
0.955200 0.632492 0.619956
0.353404 0.736651 0.622883
0.395601 0.736586 0.622901
0.417267 0.735763 0.622867
0.466770 0.735007 0.622357
0.538272 0.733506 0.619415
0.632845 0.733809 0.620509
0.739678 0.739909 0.624573
0.856153 0.748408 0.629777
0.969208 0.752442 0.630786
0.420572 0.865463 0.636359
0.458151 0.865437 0.636305
0.474926 0.865006 0.635750
0.515814 0.863373 0.634401
0.580549 0.862153 0.633486
0.669537 0.863336 0.636124
0.770554 0.867460 0.640277
0.880004 0.876267 0.645139
0.988303 0.880518 0.643974
0.487776 0.988394 0.647169
0.520895 0.988350 0.647145
0.534389 0.987817 0.646798
0.569605 0.986907 0.646034
0.625600 0.987214 0.645559
0.706181 0.989454 0.648138
0.799656 0.993256 0.651722
0.904464 0.999910 0.655801
1.000000 1.000000 0.654657
0.104644 0.115967 0.722933
0.171602 0.116783 0.722556
0.240700 0.119513 0.724474
0.350126 0.135405 0.723334
0.464585 0.158367 0.724482
0.581757 0.185213 0.726124
0.706082 0.209370 0.729684
0.828638 0.237742 0.735412
0.945425 0.271749 0.738031
0.107517 0.180042 0.722702
0.172371 0.180699 0.722389
0.241589 0.182890 0.724103
0.350540 0.196529 0.723314
0.464793 0.217184 0.724370
0.581690 0.241362 0.726072
0.706227 0.263162 0.729803
0.828477 0.289176 0.735429
0.945212 0.320447 0.738057
0.129809 0.260140 0.722450
0.190242 0.260202 0.722174
0.253657 0.261164 0.723028
0.355023 0.267349 0.723400
0.469050 0.280543 0.725658
0.584391 0.294670 0.727032
0.706842 0.310240 0.730880
0.827227 0.331305 0.735402
0.944298 0.356827 0.737708
0.174831 0.371719 0.723830
0.230794 0.371882 0.723933
0.279559 0.373638 0.725302
0.366975 0.373488 0.724592
0.474314 0.379515 0.724474
0.589001 0.387245 0.727439
0.709512 0.399605 0.731507
0.831704 0.414664 0.735082
0.949606 0.431210 0.738928
0.235857 0.489446 0.730658
0.286601 0.489510 0.730461
0.321631 0.491098 0.728695
0.392200 0.488690 0.726843
0.485866 0.489471 0.724910
0.594427 0.494837 0.726405
0.711737 0.504335 0.729781
0.832951 0.513793 0.734720
0.950890 0.525431 0.738801
0.293197 0.615080 0.733864
0.339648 0.615037 0.733820
0.366676 0.614378 0.733250
0.427410 0.613424 0.732547
0.509968 0.610452 0.728755
0.607245 0.610514 0.725837
0.719260 0.617778 0.729915
0.838799 0.627708 0.736544
0.954983 0.632775 0.739489
0.355944 0.739802 0.742033
0.397989 0.739740 0.741993
0.419225 0.739049 0.741499
0.468357 0.737966 0.739631
0.540448 0.735490 0.736185
0.634457 0.734499 0.735719
0.738807 0.740924 0.740873
0.852505 0.748812 0.745185
0.965780 0.751976 0.746468
0.423262 0.866715 0.750251
0.460658 0.866690 0.750191
0.477141 0.866256 0.749391
0.517777 0.864696 0.747806
0.581171 0.863034 0.746546
0.669295 0.862348 0.748519
0.766936 0.865676 0.752628
0.874736 0.874098 0.756762
0.983783 0.878513 0.757373
0.490686 0.988743 0.760016
0.523584 0.988731 0.759981
0.536639 0.988567 0.759489
0.570528 0.987958 0.758464
0.625023 0.987337 0.757941
0.704058 0.987631 0.759889
0.795595 0.991171 0.762342
0.899342 0.997868 0.766661
1.000000 0.999325 0.765120
0.142991 0.143072 0.847568
0.201507 0.143597 0.847782
0.256352 0.149596 0.852220
0.359254 0.160298 0.851812
0.470517 0.179697 0.853078
0.587499 0.199144 0.854922
0.709013 0.222509 0.858020
0.832179 0.249561 0.861487
0.946945 0.282147 0.860625
0.144093 0.203676 0.847456
0.202169 0.204242 0.847581
0.256825 0.209349 0.852331
0.359693 0.219292 0.851924
0.470837 0.236140 0.853033
0.587598 0.253722 0.854856
0.709245 0.274883 0.858034
0.832313 0.299840 0.861234
0.946946 0.329784 0.860487
0.155221 0.275469 0.850069
0.212450 0.275629 0.850407
0.266562 0.277959 0.853021
0.366269 0.282969 0.851991
0.473564 0.292169 0.853768
0.589277 0.303182 0.855382
0.711149 0.318670 0.857568
0.833593 0.339362 0.860252
0.948146 0.363506 0.860524
0.193135 0.383168 0.853159
0.247154 0.383279 0.853422
0.291926 0.383119 0.855311
0.376343 0.382383 0.854625
0.478880 0.385670 0.853386
0.591183 0.394081 0.855865
0.711545 0.406680 0.858664
0.834185 0.420271 0.861905
0.950789 0.436621 0.860174
0.246963 0.492346 0.857984
0.296868 0.492363 0.857846
0.330649 0.492485 0.856194
0.398229 0.492926 0.854888
0.490629 0.494081 0.852539
0.596873 0.499889 0.853594
0.715462 0.508431 0.857305
0.836648 0.518133 0.861559
0.952535 0.530452 0.860537
0.301465 0.617446 0.859477
0.347266 0.617436 0.859384
0.373541 0.617570 0.858487
0.433162 0.616899 0.858013
0.513573 0.613652 0.855168
0.611347 0.614012 0.852691
0.723405 0.622153 0.855271
0.842543 0.631920 0.860773
0.956683 0.637326 0.858822
0.359962 0.743810 0.865406
0.401773 0.743772 0.865390
0.423253 0.743313 0.865200
0.472345 0.741591 0.864227
0.544110 0.738597 0.860636
0.638019 0.738683 0.857151
0.741407 0.742483 0.857781
0.853728 0.750048 0.863791
0.965670 0.754723 0.864669
0.428949 0.869144 0.873706
0.465915 0.869138 0.873666
0.481784 0.868876 0.873092
0.521240 0.868032 0.871459
0.584559 0.866510 0.868954
0.672908 0.865293 0.867728
0.766078 0.865516 0.868976
0.870017 0.871014 0.871627
0.979442 0.876691 0.872684
0.493081 0.990722 0.878622
0.525786 0.990728 0.878564
0.538334 0.990812 0.877737
0.571479 0.990424 0.875964
0.625647 0.989589 0.874272
0.704801 0.989321 0.874470
0.795318 0.989949 0.877909
0.894660 0.993823 0.881262
1.000000 1.000000 0.886700
0.176528 0.168782 0.968195
0.231590 0.169210 0.968544
0.274288 0.175664 0.974145
0.372139 0.182004 0.972536
0.477692 0.198797 0.974731
0.590091 0.216396 0.976702
0.711667 0.238397 0.978681
0.829878 0.259543 0.981371
0.953846 0.292064 0.983223
0.177003 0.226837 0.968343
0.232010 0.227256 0.968719
0.275265 0.232922 0.974062
0.372514 0.238553 0.972650
0.478158 0.253378 0.974617
0.590107 0.269454 0.976770
0.711836 0.289490 0.978511
0.830217 0.308692 0.981122
0.953980 0.339023 0.983040
0.185138 0.289709 0.971093
0.239390 0.289982 0.971432
0.284358 0.292468 0.974579
0.380304 0.296321 0.972430
0.481828 0.304192 0.974406
0.591101 0.314907 0.976624
0.713631 0.329026 0.977786
0.832482 0.345728 0.979456
0.955169 0.371456 0.982483
0.214953 0.390638 0.974307
0.266927 0.390634 0.974634
0.306304 0.390334 0.977254
0.388635 0.390039 0.976598
0.484781 0.392136 0.975572
0.593513 0.399614 0.977418
0.712769 0.412685 0.979943
0.830759 0.425173 0.982355
0.955661 0.442601 0.985660
0.262331 0.497683 0.978716
0.311524 0.497455 0.978604
0.344579 0.496390 0.977413
0.406004 0.497155 0.976981
0.496349 0.498559 0.975450
0.600149 0.504664 0.976963
0.716471 0.514361 0.979794
0.833873 0.522138 0.982943
0.958150 0.534335 0.985858
0.311607 0.616564 0.980992
0.356665 0.616566 0.980864
0.381378 0.616752 0.979546
0.438327 0.618021 0.978786
0.518283 0.615960 0.977663
0.611191 0.615386 0.975657
0.724463 0.620526 0.977252
0.839046 0.629502 0.980960
0.960776 0.643096 0.985995
0.368987 0.743677 0.983233
0.410011 0.743638 0.983230
0.430959 0.743275 0.983647
0.478583 0.741997 0.984749
0.547232 0.739724 0.982864
0.634115 0.738304 0.978948
0.741361 0.743760 0.978330
0.850411 0.749575 0.981602
0.968383 0.758755 0.987885
0.428685 0.870608 0.992567
0.465777 0.870578 0.992554
0.482399 0.869999 0.992356
0.522877 0.868861 0.991046
0.585130 0.866449 0.988439
0.667832 0.865281 0.985962
0.766942 0.867211 0.984573
0.868153 0.870293 0.985202
0.980947 0.877355 0.990776
0.501271 0.994386 1.000000
0.533434 0.994430 1.000000
0.545635 0.995075 1.000000
0.577301 0.995523 1.000000
0.630908 0.995031 0.998137
0.709656 0.994566 0.996361
0.796304 0.993119 0.995275
0.894065 0.993874 0.996382
0.998695 0.999529 1.000000
