tests/data/1dlut_03.cube
LUT_1D_SIZE 1024
DOMAIN_MIN 0.0 0.0 0.0
DOMAIN_MAX 1.0 1.0 1.0

0.000000 0.000000 0.000000
0.087590 0.000000 0.007774
0.169630 0.000000 0.027240
0.248107 0.000000 0.045550
0.326163 0.000000 0.063010
0.403606 0.000000 0.077428
0.478204 0.013175 0.087879
0.550922 0.022078 0.096574
0.623142 0.023645 0.103730
0.693812 0.024259 0.110097
0.764467 0.042900 0.116537
0.832793 0.067840 0.121913
0.891565 0.091101 0.123969
0.934315 0.109311 0.119766
0.963788 0.118995 0.105099
0.977052 0.119360 0.082431
0.982947 0.113521 0.068644
0.024034 0.086813 0.033803
0.081962 0.080131 0.013602
0.164784 0.074536 0.006925
0.242849 0.066598 0.024469
0.318874 0.060535 0.043016
0.395670 0.060433 0.061268
0.470665 0.059930 0.073959
0.543912 0.060578 0.084376
0.616838 0.060261 0.093222
0.687741 0.057864 0.101044
0.759060 0.063725 0.108342
0.828420 0.081908 0.115082
0.888227 0.101342 0.118452
0.932427 0.117375 0.115614
0.963265 0.125719 0.102035
0.976635 0.125853 0.078511
0.982510 0.119761 0.065021
0.024922 0.162464 0.055854
0.078194 0.158550 0.043551
0.155034 0.151885 0.016814
0.235671 0.146035 0.000000
0.311565 0.139492 0.013410
0.384993 0.132466 0.030057
0.457398 0.125002 0.041703
0.529131 0.119345 0.053956
0.601457 0.115957 0.066543
0.673371 0.113151 0.078656
0.744647 0.113117 0.088778
0.815568 0.119424 0.097757
0.879349 0.130254 0.104329
0.927174 0.140769 0.105882
0.958979 0.143833 0.092504
0.974393 0.142009 0.068609
0.981854 0.137910 0.053976
0.050387 0.235735 0.074213
0.085452 0.232727 0.064942
0.147614 0.225757 0.041643
0.226648 0.220166 0.017547
0.304429 0.214938 0.000000
0.379485 0.208577 0.005819
0.451611 0.201078 0.017481
0.521877 0.193137 0.028034
0.591121 0.185531 0.039233
0.660359 0.178326 0.053229
0.729332 0.173378 0.064709
0.798122 0.171608 0.075804
0.864662 0.174266 0.086615
0.917487 0.176572 0.092136
0.952791 0.173466 0.082252
0.972443 0.166630 0.057023
0.981617 0.162857 0.039281
0.075628 0.306780 0.093829
0.093892 0.304368 0.085103
0.145643 0.298031 0.063522
0.216945 0.291885 0.039705
0.294502 0.287262 0.018589
0.372072 0.282314 0.000000
0.446854 0.276367 0.000000
0.519016 0.269596 0.015949
0.588996 0.261734 0.024350
0.657405 0.253218 0.033221
0.724427 0.245678 0.046589
0.790309 0.238816 0.057994
0.855321 0.233864 0.069528
0.912439 0.228708 0.078901
0.953165 0.221485 0.078541
0.972395 0.206224 0.054827
0.984100 0.199504 0.037020
0.086767 0.375173 0.110772
0.104737 0.373450 0.103915
0.149109 0.368535 0.085854
0.210733 0.362493 0.063011
0.283719 0.357745 0.039667
0.361936 0.353789 0.009371
0.438819 0.348743 0.000000
0.513465 0.343415 0.000000
0.585692 0.336981 0.000000
0.655938 0.329953 0.020759
0.724142 0.322173 0.032026
0.790566 0.314729 0.045039
0.854827 0.306712 0.055665
0.914227 0.297535 0.064164
0.953574 0.282263 0.067298
0.975985 0.262469 0.056663
0.989495 0.247129 0.042662
0.097864 0.442247 0.123528
0.114488 0.440894 0.117767
0.151659 0.436935 0.099982
0.207865 0.431562 0.078612
0.275373 0.426965 0.058226
0.350582 0.423518 0.034254
0.428692 0.419876 0.000000
0.504751 0.415191 0.000000
0.579351 0.409797 0.000000
0.651512 0.403548 0.000000
0.721770 0.397367 0.008571
0.790175 0.390290 0.028413
0.855934 0.382985 0.043993
0.914116 0.372591 0.054534
0.956955 0.355886 0.061669
0.979664 0.331332 0.057893
0.993052 0.311526 0.050830
0.103005 0.508541 0.135465
0.119252 0.507426 0.130509
0.154579 0.504013 0.115275
0.205568 0.499511 0.094472
0.266607 0.494541 0.071970
0.339476 0.491822 0.050028
0.416788 0.489303 0.021558
0.494499 0.486007 0.000000
0.570699 0.481222 0.000000
0.644716 0.475858 0.000000
0.716618 0.470085 0.000000
0.786887 0.464659 0.000000
0.854030 0.458114 0.026738
0.914087 0.449101 0.047260
0.959388 0.432958 0.059394
0.981743 0.405473 0.058998
0.994481 0.381424 0.056757
0.111637 0.574754 0.149469
0.125966 0.573765 0.145137
0.158336 0.570987 0.131404
0.205595 0.566963 0.111530
0.262723 0.562487 0.089200
0.328824 0.558941 0.065429
0.404411 0.557307 0.040715
0.483023 0.554900 0.000000
0.560258 0.551417 0.000000
0.635247 0.546571 0.000000
0.710330 0.543181 0.000000
0.783322 0.539749 0.000000
0.851399 0.534049 0.019018
0.912096 0.524540 0.039111
0.958077 0.508981 0.058790
0.982273 0.481435 0.061967
0.994228 0.453970 0.062865
0.116684 0.639612 0.160198
0.128750 0.638710 0.155776
0.159965 0.636260 0.142926
0.204831 0.632534 0.124297
0.259041 0.628521 0.103000
0.320500 0.624971 0.081228
0.391555 0.623197 0.057197
0.469106 0.621842 0.026773
0.548365 0.619767 0.000000
0.626671 0.617761 0.000000
0.702634 0.615148 0.000000
0.776158 0.611813 0.000000
0.846376 0.607240 0.010903
0.908390 0.598695 0.036178
0.955581 0.582704 0.055071
0.981670 0.557224 0.065025
0.994431 0.528557 0.068658
0.126307 0.703844 0.171450
0.137216 0.703028 0.167300
0.164485 0.700635 0.154664
0.205516 0.697021 0.136326
0.256862 0.693026 0.114847
0.313972 0.689234 0.092838
0.380542 0.687333 0.071031
0.455898 0.687191 0.047169
0.536149 0.687637 0.024260
0.616625 0.687386 0.019777
0.693484 0.684830 0.022854
0.767008 0.680918 0.019461
0.837509 0.676710 0.022730
0.902397 0.669918 0.035100
0.952257 0.655283 0.053143
0.981361 0.629770 0.062017
0.994986 0.600486 0.067503
0.129854 0.767481 0.181474
0.140184 0.766704 0.177441
0.164600 0.764479 0.165323
0.205834 0.761079 0.148257
0.253624 0.756704 0.126579
0.309877 0.753034 0.104959
0.373219 0.750851 0.084174
0.445413 0.750963 0.063651
0.523973 0.752407 0.046268
0.604498 0.752852 0.031130
0.682800 0.751224 0.023636
0.756593 0.747646 0.025605
0.828387 0.744384 0.030681
0.895763 0.739744 0.039959
0.951760 0.728098 0.052854
0.983619 0.702881 0.059597
0.997616 0.672492 0.064891
0.121539 0.831006 0.190103
0.131233 0.830189 0.186268
0.158975 0.827927 0.175561
0.203758 0.824883 0.160982
0.250876 0.820919 0.141115
0.304477 0.816803 0.118994
0.365882 0.814260 0.096501
0.436368 0.814558 0.078115
0.513075 0.816136 0.061470
0.592478 0.816919 0.047105
0.671217 0.815702 0.036092
0.747212 0.813306 0.035607
0.819605 0.810233 0.037345
0.887536 0.806169 0.044257
0.945321 0.795439 0.054050
0.982742 0.772523 0.060261
0.999051 0.741396 0.060726
0.122094 0.894146 0.199438
0.134232 0.893535 0.196332
0.165131 0.891302 0.186924
0.202812 0.887445 0.170609
0.250544 0.883538 0.152396
0.300401 0.879064 0.130811
0.357132 0.875548 0.108360
0.423875 0.875002 0.087903
0.498480 0.876872 0.070553
0.577604 0.878626 0.057984
0.658325 0.878589 0.047319
0.736431 0.877107 0.043348
0.810873 0.874482 0.042399
0.879675 0.870370 0.045627
0.937885 0.859900 0.054344
0.977133 0.838336 0.062515
1.000000 0.810650 0.066748
0.126062 0.946402 0.195565
0.137201 0.945854 0.192579
0.165149 0.944228 0.183526
0.201335 0.941611 0.168567
0.247302 0.937585 0.151651
0.296892 0.933656 0.132303
0.348114 0.930411 0.112244
0.407908 0.929212 0.094621
0.477436 0.931018 0.079387
0.554544 0.933397 0.064409
0.637496 0.935188 0.052234
0.719102 0.934824 0.047710
0.797296 0.933591 0.049434
0.868444 0.930780 0.053581
0.930597 0.923708 0.061374
0.976124 0.906165 0.069539
1.000000 0.879633 0.072962
0.132731 0.983165 0.178297
0.142748 0.982778 0.175386
0.168386 0.981575 0.166723
0.206751 0.979637 0.154623
0.249254 0.977008 0.137964
0.292887 0.974181 0.120562
0.338804 0.971272 0.101690
0.389262 0.970789 0.089360
0.450883 0.972700 0.082163
0.522512 0.975988 0.073856
0.603007 0.977717 0.069349
0.686841 0.978114 0.063941
0.769357 0.977590 0.063367
0.844730 0.976015 0.061776
0.911539 0.973003 0.066040
0.966313 0.964635 0.075845
1.000000 0.947608 0.085657
0.126638 1.000000 0.154558
0.139182 1.000000 0.152641
0.168929 1.000000 0.146702
0.206417 1.000000 0.136166
0.247917 0.999783 0.120897
0.293012 0.997908 0.104993
0.337771 0.997166 0.092891
0.382841 0.997215 0.086516
0.437784 0.999653 0.085869
0.502725 1.000000 0.086059
0.575919 1.000000 0.085557
0.654999 1.000000 0.082838
0.733892 1.000000 0.080649
0.809364 1.000000 0.076001
0.880663 1.000000 0.069748
0.943805 1.000000 0.073183
0.990879 0.994430 0.082390
0.018388 0.019050 0.080009
0.086575 0.000000 0.078553
0.168715 0.000000 0.082447
0.247437 0.000000 0.089230
0.325315 0.000000 0.099499
0.402836 0.000000 0.110308
0.477342 0.000000 0.117938
0.550131 0.000000 0.125523
0.622116 0.000000 0.132034
0.692818 0.000000 0.137800
0.763428 0.000000 0.143817
0.832349 0.050624 0.148643
0.892328 0.081080 0.151517
0.935201 0.100992 0.147570
0.964983 0.113040 0.135444
0.978727 0.115045 0.114388
0.983613 0.108893 0.095028
0.008338 0.086972 0.084909
0.078196 0.078774 0.078482
0.163618 0.072061 0.078025
0.241697 0.061972 0.079857
0.317577 0.053087 0.086450
0.393955 0.049874 0.097074
0.469450 0.047719 0.106378
0.542553 0.045644 0.114684
0.615346 0.044032 0.122545
0.686666 0.039707 0.129320
0.757913 0.046088 0.136281
0.827623 0.066696 0.142324
0.888476 0.090832 0.146253
0.933428 0.109397 0.144096
0.964115 0.119924 0.132570
0.978343 0.121475 0.111326
0.983142 0.114958 0.092404
0.000000 0.162172 0.095150
0.072043 0.158047 0.087980
0.151738 0.150882 0.078399
0.234783 0.144216 0.075800
0.310257 0.134996 0.074323
0.383256 0.126642 0.078384
0.455078 0.116979 0.083336
0.526713 0.109328 0.090256
0.599047 0.105080 0.099562
0.671002 0.100760 0.108628
0.742549 0.100397 0.118022
0.813919 0.106726 0.126099
0.879047 0.119924 0.132878
0.928255 0.133693 0.135335
0.960072 0.138673 0.124250
0.976080 0.136953 0.103483
0.982227 0.132222 0.083832
0.027269 0.234646 0.106370
0.069305 0.230995 0.098744
0.137748 0.223673 0.084243
0.223170 0.219127 0.077742
0.303244 0.213441 0.075315
0.378396 0.205816 0.074522
0.450101 0.196471 0.074098
0.519866 0.187104 0.076397
0.588785 0.178240 0.081227
0.657792 0.169571 0.088656
0.727015 0.163324 0.097312
0.796289 0.160927 0.106650
0.863529 0.163429 0.116086
0.918362 0.170259 0.123260
0.954728 0.169288 0.115813
0.973983 0.161564 0.095228
0.981644 0.155077 0.074260
0.047864 0.304918 0.120237
0.075322 0.302426 0.113349
0.133047 0.295646 0.097589
0.208914 0.289724 0.083765
0.291132 0.285412 0.076059
0.370239 0.280251 0.073832
0.445407 0.273659 0.073639
0.517365 0.265617 0.073819
0.587107 0.256524 0.074557
0.655334 0.247401 0.078446
0.722452 0.238168 0.083769
0.788832 0.230843 0.091872
0.854307 0.225162 0.101153
0.914590 0.222985 0.111793
0.955781 0.217584 0.113073
0.974545 0.201182 0.092307
0.984361 0.190532 0.072250
0.066349 0.373919 0.134227
0.086033 0.372067 0.128292
0.134878 0.366569 0.113379
0.196960 0.359394 0.095178
0.276550 0.354870 0.081436
0.357531 0.350990 0.073848
0.436115 0.346179 0.071870
0.511247 0.340058 0.071586
0.583552 0.333041 0.072433
0.653618 0.324963 0.073697
0.721911 0.316723 0.077412
0.788728 0.307978 0.082408
0.853928 0.300006 0.089512
0.914628 0.291185 0.096368
0.957650 0.278129 0.099860
0.978988 0.257730 0.090884
0.991211 0.241177 0.078012
0.083581 0.441123 0.146620
0.100390 0.439681 0.141377
0.138493 0.435219 0.127048
0.193504 0.428526 0.108393
0.263881 0.423129 0.091562
0.343081 0.419909 0.078714
0.423675 0.416328 0.071695
0.501254 0.411367 0.068899
0.575998 0.405270 0.067330
0.648512 0.399085 0.069138
0.718986 0.391888 0.071102
0.787715 0.384644 0.075757
0.853866 0.376347 0.080496
0.915322 0.367302 0.088129
0.961110 0.351734 0.092727
0.983268 0.326680 0.089531
0.996344 0.305718 0.083253
0.087761 0.506997 0.156483
0.104778 0.505771 0.151750
0.137958 0.502386 0.137969
0.190057 0.496687 0.120244
0.252713 0.490588 0.101838
0.328699 0.487328 0.086852
0.409154 0.484685 0.074000
0.488889 0.481224 0.068705
0.566037 0.476072 0.065123
0.640667 0.470677 0.064627
0.713228 0.465054 0.065931
0.783348 0.458332 0.067486
0.851347 0.451997 0.074866
0.913854 0.443005 0.081540
0.961549 0.428181 0.090415
0.985290 0.401003 0.089322
0.997168 0.375187 0.085747
0.096330 0.573091 0.169466
0.111188 0.572101 0.165170
0.142081 0.569319 0.152240
0.190714 0.564330 0.134670
0.246564 0.558353 0.114357
0.314693 0.553939 0.095791
0.394028 0.551794 0.081425
0.475095 0.549053 0.069340
0.554192 0.545414 0.065299
0.630456 0.540663 0.063155
0.706392 0.537801 0.065952
0.780286 0.534600 0.069424
0.849179 0.528007 0.072010
0.910216 0.518089 0.079309
0.960481 0.504542 0.090001
0.985061 0.476966 0.091245
0.995952 0.447582 0.088301
0.104732 0.638315 0.180239
0.118091 0.637444 0.176088
0.146267 0.634814 0.164263
0.192720 0.630567 0.147809
0.244331 0.625067 0.127840
0.305933 0.620235 0.108010
0.379261 0.617381 0.089775
0.459582 0.615427 0.075252
0.540706 0.613251 0.067053
0.621022 0.611940 0.068488
0.699054 0.610371 0.071590
0.773680 0.607478 0.072814
0.844527 0.602669 0.074534
0.906866 0.592653 0.078196
0.954561 0.576000 0.086984
0.983041 0.551146 0.091466
0.995422 0.521974 0.091930
0.113924 0.702184 0.190475
0.124582 0.701388 0.186743
0.150918 0.699110 0.175498
0.196518 0.695506 0.159733
0.244121 0.690172 0.139877
0.300507 0.685213 0.119380
0.367632 0.681903 0.100175
0.444977 0.680534 0.083697
0.527670 0.681131 0.074741
0.610514 0.682243 0.076582
0.689176 0.680404 0.076716
0.764577 0.677226 0.076281
0.835668 0.672627 0.076515
0.900591 0.665052 0.080540
0.952353 0.649314 0.086612
0.982314 0.623462 0.088523
0.994937 0.593242 0.089862
0.112782 0.765737 0.199053
0.123451 0.765014 0.195355
0.152585 0.762911 0.184805
0.196206 0.759250 0.170001
0.245403 0.754825 0.151494
0.299314 0.749916 0.131525
0.361809 0.746570 0.112639
0.435816 0.746216 0.096652
0.516441 0.747836 0.086779
0.598785 0.748898 0.081242
0.677965 0.747492 0.080288
0.753454 0.744352 0.079502
0.826608 0.740880 0.078684
0.894797 0.735182 0.080887
0.949937 0.721384 0.086186
0.982614 0.695467 0.086685
0.996619 0.664831 0.084834
0.101342 0.829106 0.206720
0.112515 0.828347 0.203196
0.147467 0.826151 0.194665
0.191522 0.822856 0.180690
0.242751 0.818998 0.163641
0.297316 0.814682 0.144392
0.358376 0.811587 0.125334
0.429126 0.811465 0.110314
0.506790 0.812921 0.097605
0.587284 0.813787 0.088352
0.666958 0.812816 0.084199
0.743455 0.810404 0.083710
0.816888 0.807380 0.083548
0.886431 0.802691 0.083428
0.946062 0.790861 0.084863
0.983713 0.766338 0.084454
0.998357 0.734237 0.079502
0.111587 0.892860 0.217440
0.124215 0.892159 0.214487
0.154795 0.889871 0.205476
0.192535 0.886174 0.190469
0.239541 0.881748 0.173494
0.292437 0.877494 0.154562
0.350752 0.874019 0.135536
0.418047 0.873313 0.119494
0.493428 0.874938 0.106902
0.572803 0.876306 0.096295
0.654139 0.876283 0.088797
0.733141 0.874580 0.085383
0.808097 0.871904 0.083993
0.877030 0.867027 0.084228
0.935719 0.855250 0.086051
0.976569 0.832368 0.084187
0.999265 0.803781 0.081302
0.120100 0.946200 0.215523
0.130721 0.945717 0.212883
0.157522 0.944285 0.204958
0.195849 0.941678 0.192331
0.241305 0.937419 0.175967
0.288338 0.933058 0.157474
0.340331 0.929490 0.138581
0.400653 0.928344 0.123404
0.471029 0.929987 0.110992
0.549811 0.932249 0.100706
0.632344 0.933869 0.092548
0.715555 0.933424 0.087789
0.794500 0.931922 0.084134
0.867035 0.928676 0.083020
0.930065 0.920780 0.085578
0.975384 0.901486 0.087921
1.000000 0.874270 0.087329
0.117501 0.983130 0.198727
0.128792 0.982733 0.196080
0.158557 0.981561 0.188731
0.198002 0.979659 0.178036
0.239445 0.977068 0.162527
0.285333 0.974148 0.148518
0.331678 0.971599 0.133462
0.382383 0.970900 0.120846
0.442662 0.972545 0.110822
0.515203 0.975938 0.101155
0.598114 0.977565 0.095038
0.683101 0.978015 0.091661
0.765909 0.977389 0.089192
0.842158 0.975766 0.087495
0.911166 0.972508 0.086214
0.968290 0.963751 0.091003
1.000000 0.944394 0.096620
0.121613 1.000000 0.175891
0.133418 1.000000 0.173878
0.162884 1.000000 0.167712
0.200821 1.000000 0.157070
0.241698 0.999727 0.143312
0.285565 0.997804 0.128810
0.330341 0.997144 0.120700
0.377136 0.997383 0.116310
0.431190 0.999796 0.113494
0.496204 1.000000 0.111675
0.570881 1.000000 0.107640
0.651032 1.000000 0.103486
0.731398 1.000000 0.099455
0.807339 1.000000 0.093721
0.879826 1.000000 0.086227
0.944247 1.000000 0.088194
0.992305 0.994699 0.095144
0.028598 0.034749 0.150228
0.084499 0.000000 0.149077
0.166555 0.000000 0.150874
0.245851 0.000000 0.155819
0.324050 0.000000 0.163038
0.401041 0.000000 0.170984
0.475640 0.000000 0.177725
0.548619 0.000000 0.184237
0.620438 0.000000 0.190074
0.691327 0.000000 0.195786
0.761753 0.000000 0.201694
0.830971 0.046544 0.207679
0.891262 0.077222 0.210436
0.933517 0.094192 0.205326
0.962584 0.106258 0.194342
0.977679 0.108200 0.175517
0.983694 0.102275 0.155329
0.000000 0.089514 0.151889
0.074739 0.079839 0.149269
0.160492 0.069746 0.148669
0.239744 0.058713 0.149478
0.316145 0.048351 0.153590
0.392555 0.043129 0.160762
0.467504 0.035562 0.168382
0.541014 0.028659 0.175154
0.613410 0.020875 0.181841
0.685013 0.012857 0.188357
0.756086 0.030369 0.194886
0.826106 0.062320 0.201961
0.887129 0.086753 0.205440
0.932053 0.103593 0.202519
0.961447 0.113334 0.191608
0.977285 0.114800 0.173109
0.983115 0.108332 0.153075
0.000000 0.163490 0.158883
0.067588 0.158600 0.154848
0.147848 0.149742 0.149507
0.232639 0.141848 0.147084
0.307620 0.129099 0.143369
0.380117 0.117863 0.144113
0.451613 0.105806 0.147405
0.523762 0.097728 0.153801
0.596181 0.092058 0.161420
0.668272 0.087740 0.169263
0.739952 0.086506 0.177292
0.811452 0.095989 0.185928
0.876771 0.112404 0.192993
0.927056 0.127528 0.194558
0.958193 0.133992 0.185096
0.975192 0.131969 0.167194
0.981944 0.124585 0.147053
0.000000 0.234118 0.167697
0.053343 0.230206 0.162366
0.129752 0.222630 0.151927
0.218761 0.218578 0.148494
0.301671 0.211849 0.146259
0.376527 0.201152 0.142606
0.447373 0.189104 0.140465
0.516354 0.177320 0.140894
0.585084 0.166737 0.144107
0.654360 0.157702 0.150252
0.723998 0.150806 0.157869
0.793918 0.148303 0.166660
0.861387 0.153596 0.176423
0.916889 0.163135 0.183243
0.954745 0.167343 0.178563
0.974195 0.159015 0.160009
0.981293 0.147813 0.139858
0.000000 0.303666 0.176897
0.054309 0.300569 0.171927
0.116279 0.293144 0.159938
0.197774 0.287440 0.149352
0.286667 0.284205 0.146138
0.368110 0.278504 0.144381
0.443562 0.269912 0.142224
0.514876 0.259383 0.140014
0.583912 0.248495 0.139522
0.651776 0.237826 0.141175
0.719445 0.228225 0.145718
0.786852 0.219971 0.152170
0.852850 0.215105 0.161069
0.912921 0.216328 0.171978
0.956066 0.216503 0.175463
0.975726 0.198967 0.154550
0.984442 0.184209 0.134906
0.000000 0.371803 0.188023
0.050999 0.369743 0.183931
0.104604 0.362987 0.171283
0.180215 0.355819 0.157087
0.266227 0.351797 0.147119
0.352029 0.348242 0.142804
0.432812 0.343171 0.141265
0.508506 0.335928 0.140186
0.580752 0.327230 0.139202
0.650691 0.317932 0.139330
0.719013 0.307826 0.140249
0.786416 0.298494 0.143631
0.852350 0.289979 0.148787
0.912961 0.282902 0.155679
0.958042 0.272610 0.158673
0.982027 0.254566 0.149007
0.992614 0.236358 0.134577
0.027716 0.438882 0.199845
0.058094 0.437562 0.196001
0.107815 0.432073 0.183864
0.167543 0.424224 0.167553
0.244986 0.418228 0.152974
0.332178 0.414897 0.143625
0.416164 0.411261 0.138977
0.496339 0.406687 0.137895
0.571986 0.400173 0.136928
0.644862 0.392804 0.137010
0.715693 0.384657 0.137530
0.784759 0.375723 0.138527
0.851914 0.367073 0.141578
0.914182 0.357367 0.145555
0.962020 0.343430 0.148418
0.987691 0.321824 0.144776
1.000000 0.300735 0.136598
0.041432 0.504416 0.209318
0.065149 0.503495 0.205719
0.111794 0.499383 0.194986
0.163238 0.492433 0.179012
0.230549 0.485111 0.162007
0.311094 0.480326 0.147627
0.397280 0.477243 0.139216
0.480023 0.473749 0.135199
0.559057 0.469237 0.134136
0.635136 0.463807 0.133818
0.708873 0.457679 0.134547
0.780042 0.450472 0.135377
0.848728 0.442389 0.137193
0.912520 0.433209 0.140983
0.963537 0.418906 0.144329
0.990861 0.394697 0.142883
1.000000 0.370130 0.138381
0.045951 0.570051 0.218952
0.067428 0.569212 0.215575
0.112920 0.565730 0.205598
0.158933 0.559656 0.189956
0.217601 0.551935 0.172240
0.293449 0.545791 0.154999
0.377129 0.542063 0.141991
0.461824 0.539175 0.134934
0.543653 0.535994 0.132212
0.622764 0.532555 0.132143
0.700089 0.529310 0.133306
0.774757 0.524973 0.135165
0.844832 0.517870 0.136699
0.908570 0.507531 0.138662
0.960303 0.493402 0.143008
0.989616 0.468487 0.141420
1.000000 0.441048 0.138387
0.062210 0.635340 0.229754
0.078843 0.634583 0.226588
0.119462 0.631506 0.217175
0.159416 0.626082 0.201770
0.211036 0.618539 0.183988
0.276078 0.611350 0.165357
0.357557 0.606534 0.148382
0.442910 0.603802 0.137476
0.527224 0.602009 0.132705
0.609929 0.601492 0.133686
0.690466 0.600917 0.136207
0.768228 0.598783 0.137800
0.839663 0.592573 0.138607
0.903336 0.581629 0.139828
0.955099 0.565088 0.141125
0.984811 0.539503 0.139726
0.999033 0.510644 0.135882
0.072281 0.699107 0.239098
0.087674 0.698479 0.235995
0.124872 0.695733 0.227110
0.163643 0.690971 0.212519
0.212965 0.684193 0.195309
0.270435 0.676976 0.176792
0.340991 0.671285 0.158305
0.424979 0.668862 0.144561
0.512569 0.669929 0.139415
0.598552 0.671913 0.140104
0.680388 0.671762 0.141126
0.758229 0.669256 0.141072
0.831818 0.664004 0.140562
0.897323 0.653550 0.140334
0.950675 0.636279 0.140754
0.982616 0.609858 0.135733
0.996849 0.580225 0.131643
0.080379 0.762608 0.247058
0.095474 0.761690 0.244205
0.129131 0.758982 0.235720
0.169559 0.754862 0.221951
0.216556 0.748689 0.205565
0.270274 0.741838 0.187915
0.333181 0.735852 0.170104
0.411917 0.734464 0.155702
0.498881 0.737063 0.148420
0.585681 0.739699 0.146572
0.668346 0.739801 0.145543
0.747349 0.737729 0.144411
0.822117 0.733151 0.142695
0.890119 0.723675 0.140752
0.945669 0.706273 0.138213
0.979176 0.679231 0.131098
0.995964 0.649687 0.124799
0.082679 0.825621 0.254522
0.097461 0.824877 0.251860
0.130746 0.822683 0.243914
0.172289 0.818966 0.231464
0.220664 0.813723 0.215917
0.276064 0.808526 0.199362
0.339738 0.804782 0.183524
0.411524 0.803537 0.170194
0.490929 0.804780 0.160039
0.573710 0.806458 0.153242
0.656011 0.806259 0.150031
0.735393 0.804145 0.147570
0.811479 0.800370 0.144892
0.882258 0.792701 0.141377
0.942383 0.776847 0.136380
0.982078 0.750642 0.126755
0.997720 0.719510 0.114751
0.090725 0.889354 0.263752
0.104163 0.888686 0.261172
0.133701 0.886909 0.254168
0.176687 0.883440 0.242650
0.221900 0.878493 0.226537
0.275253 0.873700 0.209815
0.335996 0.870184 0.193691
0.404666 0.869163 0.180105
0.480006 0.870002 0.169124
0.560237 0.871080 0.160464
0.642227 0.871066 0.153975
0.723242 0.869281 0.149246
0.800070 0.865675 0.145272
0.871164 0.858180 0.140152
0.932110 0.843181 0.134276
0.974990 0.818456 0.122890
0.998214 0.789436 0.110037
0.093915 0.945540 0.266028
0.106010 0.945140 0.263770
0.139379 0.943447 0.257152
0.180776 0.940287 0.246151
0.221320 0.935831 0.230893
0.270698 0.931469 0.214878
0.324524 0.927976 0.198134
0.386279 0.926877 0.183530
0.457739 0.927811 0.171842
0.537188 0.929589 0.162255
0.620540 0.930668 0.154736
0.704932 0.929800 0.148644
0.784974 0.926993 0.141730
0.859122 0.921379 0.134472
0.923427 0.909985 0.128828
0.970945 0.888120 0.120820
0.999022 0.860825 0.110195
0.094538 0.983653 0.253005
0.107749 0.983246 0.251028
0.138811 0.982036 0.245043
0.176760 0.979980 0.235074
0.220712 0.976966 0.222870
0.263327 0.973517 0.207900
0.312084 0.971854 0.195089
0.365366 0.970821 0.180582
0.425240 0.972178 0.165601
0.498949 0.974714 0.153423
0.586197 0.976826 0.146682
0.673588 0.977046 0.142111
0.757937 0.976257 0.135956
0.836071 0.973546 0.128550
0.908254 0.968412 0.120863
0.968075 0.956944 0.117205
1.000000 0.935238 0.112608
0.094823 1.000000 0.228822
0.107931 1.000000 0.227047
0.138842 1.000000 0.221674
0.176860 1.000000 0.213647
0.220454 1.000000 0.203808
0.265506 0.998743 0.193117
0.310525 0.997569 0.183831
0.360670 0.998233 0.175655
0.418300 1.000000 0.167822
0.484664 1.000000 0.158898
0.561832 1.000000 0.149294
0.643717 1.000000 0.140708
0.724892 1.000000 0.132169
0.803583 1.000000 0.123140
0.879527 1.000000 0.113799
0.948437 1.000000 0.114237
0.997449 0.994460 0.116927
0.023122 0.046901 0.214562
0.081879 0.027394 0.214393
0.163102 0.000000 0.216272
0.243177 0.000000 0.220495
0.321051 0.000000 0.226725
0.397700 0.000000 0.233736
0.472587 0.000000 0.240454
0.545841 0.000000 0.246835
0.617435 0.000000 0.252848
0.688264 0.000000 0.259048
0.758423 0.000000 0.265041
0.826968 0.053685 0.271404
0.886572 0.081335 0.274061
0.930135 0.095984 0.269190
0.959218 0.104927 0.257528
0.975946 0.107207 0.239813
0.983468 0.098860 0.218918
0.000000 0.094387 0.216032
0.075270 0.083966 0.215270
