tests/data/1dlut_01.cal
CAL    

DESCRIPTOR "Argyll Device Calibration Curves"
ORIGINATOR "Argyll dispcal"
CREATED "Tue Aug 02 21:22:04 2022"
DEVICE_CLASS "DISPLAY"
COLOR_REP "RGB"
VIDEO_LUT_CALIBRATION_POSSIBLE "NO"
TV_OUTPUT_ENCODING "NO"
DEVICE_TYPE "n"
NATIVE_TARGET_WHITE ""
TARGET_WHITE_XYZ "1099.424287 1110.481107 1806.853854"
TARGET_GAMMA "2.2"
DEGREE_OF_BLACK_OUTPUT_OFFSET "1.0"
BLACK_POINT_CORRECTION "0.0"
BLACK_NEUTRAL_BLEND_RATE "4.0"
BLACK_POINT_HACK "YES"
QUALITY "medium"

BEGIN_ARGYLL_DISPCAL_ARGS
-v2 -dmadvr -c1 -yn -X "LG-C8-i1-Pro-2-Ad.HiRes-full-DCC-reset-in-SDR-good.ccss" -qm -m -t -g2.2 -f1.0 -k0 -A4.0 -b
END_ARGYLL_DISPCAL_ARGS


NUMBER_OF_FIELDS 4
BEGIN_DATA_FORMAT
RGB_I RGB_R RGB_G RGB_B
END_DATA_FORMAT

NUMBER_OF_SETS 256
BEGIN_DATA
0.00000000 0.00000000 0.00000000 0.00000000
0.00392157 0.00340785 0.00348512 0.00356518
0.00784314 0.00686052 0.00700743 0.00716496
0.01176470 0.01035890 0.01056750 0.01079990
0.01568630 0.01390390 0.01416600 0.01447040
0.01960780 0.01749640 0.01780360 0.01817700
0.02352940 0.02113750 0.02148080 0.02192040
0.02745100 0.02482800 0.02519830 0.02570100
0.03137250 0.02856910 0.02895680 0.02951940
0.03529410 0.03236180 0.03275700 0.03337620
0.03921570 0.03620620 0.03659800 0.03727020
0.04313730 0.04009640 0.04047300 0.04119490
0.04705880 0.04402100 0.04437450 0.04514150
0.05098040 0.04797060 0.04829410 0.04910300
0.05490200 0.05193460 0.05222360 0.05307300
0.05882350 0.05590360 0.05615740 0.05704650
0.06274510 0.05987090 0.06008980 0.06101800
0.06666670 0.06383320 0.06401650 0.06498480
0.07058820 0.06778480 0.06793230 0.06894200
0.07450980 0.07172420 0.07183660 0.07288910
0.07843140 0.07564930 0.07572990 0.07682450
0.08235290 0.07956040 0.07961380 0.08075090
0.08627450 0.08345740 0.08348810 0.08467070
0.09019610 0.08734460 0.08735480 0.08858190
0.09411760 0.09122430 0.09121500 0.09248480
0.09803920 0.09509900 0.09507130 0.09638300
0.10196100 0.09897160 0.09892690 0.10028100
0.10588200 0.10284400 0.10278300 0.10417700
0.10980400 0.10671000 0.10663100 0.10806800
0.11372500 0.11057100 0.11047200 0.11195300
0.11764700 0.11442500 0.11430600 0.11583100
0.12156900 0.11827100 0.11813100 0.11969800
0.12549000 0.12210900 0.12194700 0.12355200
0.12941200 0.12593300 0.12575200 0.12739300
0.13333300 0.12974400 0.12954600 0.13121800
0.13725500 0.13353800 0.13332500 0.13502700
0.14117600 0.13731400 0.13709100 0.13882300
0.14509800 0.14107200 0.14084400 0.14260500
0.14902000 0.14481200 0.14458500 0.14637700
0.15294100 0.14853800 0.14831600 0.15014000
0.15686300 0.15225200 0.15203900 0.15390000
0.16078400 0.15595500 0.15575500 0.15765600
0.16470600 0.15965200 0.15946800 0.16141100
0.16862700 0.16334400 0.16317600 0.16516500
0.17254900 0.16703200 0.16688100 0.16892000
0.17647100 0.17071900 0.17058500 0.17268200
0.18039200 0.17440800 0.17428900 0.17645000
0.18431400 0.17809800 0.17799400 0.18022500
0.18823500 0.18178800 0.18169900 0.18400500
0.19215700 0.18548300 0.18540400 0.18779200
0.19607800 0.18918400 0.18911000 0.19157600
0.20000000 0.19288300 0.19281100 0.19536000
0.20392200 0.19658200 0.19651000 0.19914100
0.20784300 0.20028000 0.20020700 0.20292100
0.21176500 0.20398500 0.20390500 0.20669900
0.21568600 0.20770000 0.20760500 0.21047600
0.21960800 0.21142400 0.21130800 0.21425100
0.22352900 0.21516000 0.21501400 0.21802200
0.22745100 0.21890200 0.21872200 0.22178600
0.23137300 0.22264600 0.22243000 0.22554700
0.23529400 0.22639500 0.22614100 0.22931300
0.23921600 0.23015200 0.22986000 0.23308100
0.24313700 0.23391000 0.23358200 0.23685200
0.24705900 0.23766500 0.23730400 0.24062200
0.25098000 0.24141600 0.24102400 0.24439000
0.25490200 0.24516200 0.24474100 0.24815700
0.25882400 0.24890100 0.24845400 0.25192200
0.26274500 0.25264000 0.25216700 0.25569400
0.26666700 0.25638800 0.25588900 0.25947400
0.27058800 0.26014600 0.25962000 0.26326000
0.27451000 0.26391000 0.26335900 0.26704900
0.27843100 0.26767600 0.26710400 0.27084100
0.28235300 0.27144500 0.27085700 0.27463800
0.28627500 0.27521600 0.27462000 0.27844300
0.29019600 0.27899000 0.27839300 0.28225400
0.29411800 0.28276500 0.28217600 0.28606700
0.29803900 0.28653700 0.28596500 0.28989000
0.30196100 0.29032000 0.28976700 0.29372400
0.30588200 0.29412300 0.29358600 0.29756700
0.30980400 0.29794000 0.29741800 0.30142000
0.31372500 0.30177700 0.30126300 0.30528200
0.31764700 0.30562700 0.30511700 0.30914900
0.32156900 0.30948900 0.30897300 0.31302400
0.32549000 0.31336900 0.31283600 0.31690200
0.32941200 0.31726200 0.31670200 0.32078300
0.33333300 0.32116700 0.32056900 0.32466700
0.33725500 0.32508600 0.32443800 0.32855600
0.34117600 0.32901700 0.32830800 0.33244800
0.34509800 0.33296000 0.33217800 0.33634400
0.34902000 0.33691200 0.33604900 0.34024500
0.35294100 0.34086800 0.33992200 0.34415100
0.35686300 0.34482900 0.34379500 0.34806400
0.36078400 0.34879500 0.34767100 0.35198300
0.36470600 0.35276700 0.35155000 0.35590800
0.36862700 0.35674200 0.35543400 0.35983800
0.37254900 0.36071600 0.35932300 0.36376700
0.37647100 0.36468100 0.36321400 0.36769400
0.38039200 0.36864300 0.36710800 0.37161700
0.38431400 0.37260000 0.37100600 0.37553700
0.38823500 0.37655700 0.37490600 0.37945600
0.39215700 0.38051000 0.37880700 0.38337300
0.39607800 0.38446100 0.38270900 0.38728900
0.40000000 0.38841100 0.38661400 0.39120300
0.40392200 0.39235500 0.39051900 0.39511300
0.40784300 0.39628800 0.39442000 0.39901400
0.41176500 0.40020800 0.39831300 0.40291400
0.41568600 0.40413100 0.40219900 0.40682700
0.41960800 0.40807100 0.40609700 0.41075200
0.42352900 0.41201900 0.41000800 0.41468200
0.42745100 0.41596900 0.41392400 0.41861800
0.43137300 0.41992300 0.41784400 0.42255600
0.43529400 0.42388400 0.42176600 0.42649900
0.43921600 0.42785300 0.42569400 0.43044500
0.44313700 0.43183200 0.42962800 0.43439800
0.44705900 0.43582200 0.43357100 0.43835900
0.45098000 0.43982300 0.43752100 0.44232300
0.45490200 0.44382700 0.44147500 0.44628700
0.45882400 0.44783100 0.44542800 0.45026300
0.46274500 0.45184200 0.44938700 0.45424900
0.46666700 0.45585100 0.45335200 0.45824500
0.47058800 0.45986000 0.45732300 0.46225300
0.47451000 0.46386600 0.46129800 0.46627100
0.47843100 0.46787500 0.46527800 0.47030200
0.48235300 0.47188700 0.46926300 0.47434400
0.48627500 0.47590300 0.47325400 0.47839700
0.49019600 0.47992100 0.47725000 0.48246300
0.49411800 0.48394300 0.48125400 0.48654000
0.49803900 0.48796700 0.48526400 0.49062800
0.50196100 0.49199500 0.48928100 0.49472900
0.50588200 0.49602500 0.49330300 0.49884100
0.50980400 0.50005700 0.49733300 0.50296000
0.51372500 0.50408600 0.50136800 0.50707900
0.51764700 0.50810500 0.50540200 0.51119900
0.52156900 0.51211400 0.50943600 0.51532000
0.52549000 0.51611300 0.51346700 0.51944200
0.52941200 0.52010200 0.51749700 0.52356500
0.53333300 0.52408300 0.52152500 0.52768900
0.53725500 0.52805300 0.52555300 0.53181400
0.54117600 0.53201500 0.52957900 0.53594100
0.54509800 0.53596700 0.53360200 0.54007300
0.54902000 0.53991300 0.53762700 0.54420900
0.55294100 0.54384800 0.54165300 0.54834500
0.55686300 0.54776800 0.54567500 0.55248200
0.56078400 0.55168200 0.54969400 0.55662000
0.56470600 0.55558800 0.55371200 0.56075500
0.56862700 0.55948500 0.55773000 0.56488800
0.57254900 0.56337600 0.56174700 0.56901200
0.57647100 0.56725900 0.56576400 0.57312600
0.58039200 0.57112600 0.56977200 0.57723800
0.58431400 0.57498800 0.57377100 0.58134800
0.58823500 0.57885800 0.57777000 0.58545100
0.59215700 0.58273100 0.58177000 0.58954200
0.59607800 0.58660500 0.58576500 0.59361800
0.60000000 0.59048000 0.58975400 0.59768300
0.60392200 0.59435300 0.59373800 0.60173700
0.60784300 0.59822700 0.59771700 0.60578100
0.61176500 0.60210400 0.60169200 0.60981500
0.61568600 0.60599400 0.60566800 0.61383800
0.61960800 0.60989600 0.60964600 0.61784900
0.62352900 0.61381000 0.61362600 0.62185000
0.62745100 0.61773700 0.61760400 0.62584000
0.63137300 0.62168300 0.62158600 0.62981800
0.63529400 0.62564500 0.62556700 0.63378100
0.63921600 0.62962000 0.62954600 0.63772800
0.64313700 0.63360500 0.63352100 0.64166200
0.64705900 0.63759900 0.63749000 0.64558600
0.65098000 0.64160400 0.64145300 0.64949600
0.65490200 0.64562000 0.64541400 0.65338900
0.65882400 0.64964300 0.64937100 0.65726100
0.66274500 0.65366700 0.65332000 0.66110900
0.66666700 0.65768500 0.65725600 0.66493300
0.67058800 0.66169200 0.66117800 0.66873900
0.67451000 0.66568900 0.66508400 0.67255500
0.67843100 0.66968200 0.66898100 0.67638600
0.68235300 0.67368900 0.67289400 0.68023100
0.68627500 0.67771300 0.67682700 0.68409000
0.69019600 0.68175300 0.68077900 0.68795500
0.69411800 0.68579700 0.68474500 0.69182100
0.69803900 0.68983700 0.68871700 0.69568900
0.70196100 0.69386600 0.69268800 0.69955900
0.70588200 0.69788100 0.69665700 0.70342900
0.70980400 0.70188400 0.70062400 0.70729400
0.71372500 0.70586700 0.70458300 0.71114900
0.71764700 0.70982200 0.70852800 0.71499300
0.72156900 0.71374700 0.71245700 0.71882700
0.72549000 0.71764200 0.71636800 0.72265400
0.72941200 0.72151100 0.72026200 0.72647300
0.73333300 0.72535600 0.72414200 0.73028100
0.73725500 0.72917500 0.72800600 0.73407900
0.74117600 0.73297700 0.73185600 0.73786400
0.74509800 0.73676000 0.73569300 0.74163800
0.74902000 0.74052800 0.73952100 0.74540500
0.75294100 0.74428400 0.74333900 0.74916500
0.75686300 0.74803200 0.74715200 0.75292200
0.76078400 0.75177200 0.75096000 0.75668300
0.76470600 0.75551600 0.75477000 0.76044900
0.76862700 0.75926700 0.75858900 0.76422200
0.77254900 0.76302500 0.76241600 0.76800200
0.77647100 0.76679400 0.76625400 0.77178900
0.78039200 0.77057200 0.77010000 0.77558700
0.78431400 0.77436500 0.77395600 0.77939200
0.78823500 0.77817200 0.77782000 0.78320100
0.79215700 0.78199100 0.78169000 0.78701500
0.79607800 0.78582200 0.78556700 0.79082800
0.80000000 0.78966200 0.78945200 0.79463700
0.80392200 0.79350500 0.79333900 0.79843400
0.80784300 0.79734300 0.79722300 0.80222400
0.81176500 0.80117500 0.80110200 0.80602000
0.81568600 0.80502100 0.80499300 0.80982600
0.81960800 0.80888900 0.80890000 0.81363600
0.82352900 0.81277400 0.81282300 0.81744600
0.82745100 0.81666700 0.81675300 0.82125900
0.83137300 0.82057100 0.82069200 0.82507800
0.83529400 0.82448700 0.82464000 0.82890300
0.83921600 0.82841300 0.82859900 0.83273500
0.84313700 0.83235000 0.83256700 0.83657700
0.84705900 0.83630000 0.83654700 0.84043500
0.85098000 0.84026700 0.84054100 0.84430800
0.85490200 0.84425000 0.84454900 0.84819700
0.85882400 0.84824900 0.84857200 0.85210100
0.86274500 0.85226000 0.85260700 0.85601700
0.86666700 0.85627500 0.85665000 0.85994300
0.87058800 0.86029600 0.86070300 0.86388700
0.87451000 0.86434200 0.86477600 0.86784600
0.87843100 0.86840600 0.86886300 0.87181800
0.88235300 0.87248700 0.87296500 0.87580400
0.88627500 0.87658700 0.87708400 0.87980300
0.89019600 0.88070300 0.88121700 0.88381600
0.89411800 0.88484000 0.88536600 0.88784400
0.89803900 0.88899500 0.88952900 0.89189000
0.90196100 0.89317400 0.89371400 0.89596300
0.90588200 0.89737700 0.89792100 0.90006400
0.90980400 0.90160000 0.90214600 0.90418700
0.91372500 0.90583500 0.90637900 0.90832900
0.91764700 0.91007600 0.91061500 0.91248800
0.92156900 0.91433000 0.91485900 0.91666300
0.92549000 0.91859800 0.91910900 0.92085000
0.92941200 0.92288000 0.92336200 0.92504600
0.93333300 0.92717600 0.92761900 0.92925000
0.93725500 0.93148400 0.93187700 0.93345300
0.94117600 0.93579200 0.93613400 0.93765500
0.94509800 0.94010000 0.94039300 0.94185300
0.94902000 0.94440300 0.94465000 0.94604400
0.95294100 0.94869800 0.94890400 0.95022700
0.95686300 0.95298700 0.95315700 0.95440100
0.96078400 0.95727100 0.95741000 0.95856900
0.96470600 0.96154800 0.96166500 0.96272900
0.96862700 0.96582000 0.96592000 0.96688200
0.97254900 0.97009300 0.97017900 0.97103300
0.97647100 0.97436500 0.97443800 0.97518100
0.98039200 0.97863800 0.97869700 0.97932500
0.98431400 0.98291000 0.98295700 0.98346600
0.98823500 0.98718300 0.98721700 0.98760400
0.99215700 0.99145500 0.99147700 0.99173900
0.99607800 0.99572800 0.99573800 0.99587100
1.00000000 1.00000000 1.00000000 1.00000000
END_DATA
CAL    

DESCRIPTOR "Argyll Calibration options and model"
ORIGINATOR "Argyll dispcal"
CREATED "Tue Aug 02 21:22:04 202"

NUMBER_OF_FIELDS 3
BEGIN_DATA_FORMAT
R_P G_P B_P
END_DATA_FORMAT

NUMBER_OF_SETS 32
BEGIN_DATA
-0.001668180 -0.001161370 -0.000701477
1.001668000 1.001161000 1.000701000
0.339135000 0.535162000 0.632345000
1.142407000 0.673625000 0.498584000
0.047133400 0.168262000 0.222330000
0.185800000 0.206119000 0.200073000
0.197259000 0.122042000 0.140097000
0.103516000 0.117105000 0.126667000
0.063771200 0.110583000 0.102749000
0.051897200 0.075994500 0.093350500
0.053923700 0.047194200 0.080067500
0.049333900 0.053156200 0.072024800
0.043548200 0.063126500 0.068131700
0.033883800 0.059809500 0.059300100
0.033872500 0.061202700 0.059876400
0.037030400 0.044882000 0.046815000
0.033734000 0.040205100 0.051382200
0.030587600 0.046480000 0.041023100
0.032521700 0.036027600 0.042729300
0.030283700 0.034756300 0.035526100
0.024195600 0.033629400 0.037970000
0.025537000 0.027030700 0.037690700
0.025014200 0.033148100 0.028435100
0.024044900 0.027803500 0.032207900
0.021453900 0.028357800 0.027390900
0.020355200 0.026996900 0.028964600
0.016891200 0.027340700 0.019762800
0.013560800 0.025638000 0.018216100
0.016152000 0.022325500 0.022758800
0.011419100 0.019378900 0.025360600
0.013065200 0.017684000 0.024339100
0.015685600 0.020131300 0.016900800
END_DATA
