tests/data/1dlut_11.cal
CAL    

DESCRIPTOR "Argyll Device Calibration Curves"
ORIGINATOR "Argyll dispcal"
CREATED "Fri Aug 05 19:58:37 2022"
DEVICE_CLASS "DISPLAY"
COLOR_REP "RGB"


NUMBER_OF_FIELDS 4
BEGIN_DATA_FORMAT
RGB_I RGB_R RGB_G RGB_B
END_DATA_FORMAT

NUMBER_OF_SETS 13
BEGIN_DATA
0.0000 0.0000 0.0000 0.0000
0.0500 0.0457 0.0433 0.0347
0.1000 0.0930 0.0892 0.0736
0.1500 0.1394 0.1324 0.1112
0.2000 0.1842 0.1758 0.1470
0.2500 0.2304 0.2200 0.1838
0.3000 0.2766 0.2642 0.2194
0.4000 0.3748 0.3554 0.2970
0.5000 0.4700 0.4456 0.3716
END_DATA
