tests/data/3dlut_33pt.cube
# Created by ArgyllCMS
LUT_3D_SIZE 5
DOMAIN_MIN 0.0 0.0 0.0
DOMAIN_MAX 1.0 1.0 1.0
0.000000 0.000000 0.000000
0.194091 0.058365 0.029102
0.432901 0.111291 0.078127
0.680599 0.186244 0.128008
0.940092 0.251880 0.184548
0.104515 0.211786 0.059776
0.214034 0.215304 0.065196
0.436675 0.231794 0.098154
0.684092 0.266102 0.138940
0.941882 0.315119 0.193210
0.222265 0.454618 0.145163
0.281515 0.455589 0.147731
0.466520 0.460469 0.160847
0.702040 0.476887 0.189203
0.952802 0.500505 0.229047
0.348984 0.718897 0.231853
0.387171 0.719207 0.234974
0.525765 0.722759 0.244767
0.739550 0.733244 0.260125
0.977292 0.749583 0.285640
0.505609 0.985743 0.325755
0.525156 0.987462 0.325948
0.630463 0.992123 0.330292
0.807482 1.000000 0.342449
1.000000 1.000000 0.351461
0.016213 0.020950 0.203176
0.199614 0.053212 0.208053
0.430418 0.113503 0.215455
0.680931 0.183242 0.233828
0.939508 0.251931 0.268734
0.105347 0.212564 0.210568
0.208107 0.209854 0.209600
0.434573 0.228794 0.219606
0.683183 0.264703 0.236541
0.940646 0.315220 0.272067
0.218791 0.453271 0.239026
0.278134 0.454334 0.240352
0.462936 0.461589 0.245922
0.700396 0.478953 0.266105
0.952121 0.502110 0.292543
0.348441 0.716284 0.292555
0.386721 0.717088 0.294721
0.528063 0.723278 0.303178
0.737681 0.731166 0.314241
0.978038 0.746988 0.334962
0.500509 0.988315 0.368856
0.520904 0.989103 0.369518
0.625652 0.993646 0.372850
0.804818 1.000000 0.382973
1.000000 1.000000 0.390388
0.044296 0.072848 0.443523
0.203325 0.086461 0.445961
0.433387 0.126618 0.448289
0.680403 0.191748 0.458190
0.942146 0.255950 0.476389
0.113999 0.218440 0.445738
0.213656 0.217831 0.445750
0.434868 0.232395 0.449533
0.683224 0.267462 0.460936
0.941615 0.315189 0.478962
0.221543 0.456064 0.455915
0.276728 0.455103 0.456001
0.451186 0.455631 0.456651
0.692697 0.475291 0.470647
0.948500 0.497679 0.482561
0.347965 0.716555 0.485286
0.381183 0.715817 0.484685
0.516947 0.716126 0.485233
0.729240 0.725854 0.491749
0.973182 0.743250 0.503456
0.490273 0.987386 0.520470
0.510809 0.987390 0.520177
0.612423 0.990068 0.520218
0.795805 0.997897 0.528303
1.000000 1.000000 0.532432
0.069508 0.120769 0.705749
0.206487 0.125680 0.706432
0.435118 0.158837 0.705353
0.683698 0.214786 0.715755
0.941717 0.272108 0.724197
0.130960 0.233336 0.703573
0.219473 0.234446 0.705698
0.442317 0.249742 0.707617
0.686890 0.281701 0.713529
0.942698 0.326115 0.723104
0.233934 0.463610 0.710363
0.286391 0.466788 0.710692
0.460110 0.465189 0.708855
0.693614 0.479118 0.713034
0.947708 0.499757 0.723140
0.355632 0.720035 0.724325
0.386197 0.720431 0.723821
0.513742 0.715356 0.718453
0.716664 0.719321 0.719266
0.964035 0.736310 0.730154
0.488293 0.989969 0.746590
0.507452 0.989332 0.745788
0.600857 0.988067 0.743420
0.782943 0.992076 0.748309
1.000000 1.000000 0.749839
0.164334 0.176203 0.966022
0.242371 0.182411 0.968878
0.448854 0.204910 0.972789
0.693160 0.240922 0.976907
0.947943 0.295585 0.982642
0.182973 0.262991 0.967888
0.252627 0.266974 0.973492
0.452847 0.276919 0.973478
0.694866 0.301047 0.977499
0.948547 0.343477 0.983760
0.259391 0.475747 0.975030
0.308562 0.474428 0.974808
0.468268 0.475972 0.974643
0.699056 0.489137 0.977700
0.954704 0.509019 0.986214
0.363680 0.728996 0.985421
0.395091 0.727523 0.984962
0.518677 0.724608 0.982359
0.723820 0.726115 0.977560
0.966130 0.743443 0.985471
0.497801 0.996952 1.000000
0.515246 0.996791 1.000000
0.606473 0.994723 0.999575
0.783446 0.992834 0.994300
0.998393 1.000000 0.999790
