tests/data/3dlut_33pt.cube
# Created by ArgyllCMS
LUT_3D_SIZE 9
DOMAIN_MIN 0.0 0.0 0.0
DOMAIN_MAX 1.0 1.0 1.0
0.000000 0.000000 0.000000
0.089167 0.042728 0.021915
0.194091 0.058365 0.029102
0.309645 0.086624 0.052691
0.432901 0.111291 0.078127
0.548798 0.148517 0.103593
0.680599 0.186244 0.128008
0.809644 0.209573 0.154570
0.940092 0.251880 0.184548
0.040433 0.099971 0.023996
0.100776 0.103314 0.024708
0.199720 0.111463 0.033237
0.312045 0.124786 0.056633
0.433063 0.141380 0.080282
0.549377 0.170262 0.105948
0.681383 0.202197 0.129563
0.809992 0.223314 0.156173
0.940355 0.263335 0.185942
0.104515 0.211786 0.059776
0.132676 0.212080 0.058775
0.214034 0.215304 0.065196
0.319016 0.222156 0.080274
0.436675 0.231794 0.098154
0.552745 0.247545 0.118133
0.684092 0.266102 0.138940
0.811836 0.283363 0.163690
0.941882 0.315119 0.193210
0.160423 0.330020 0.102659
0.176790 0.330284 0.103030
0.241565 0.331420 0.106465
0.335506 0.335577 0.113815
0.446314 0.342258 0.124646
0.559941 0.351967 0.139591
0.690268 0.362785 0.159199
0.815199 0.377962 0.182814
0.945613 0.400673 0.207727
0.222265 0.454618 0.145163
0.233184 0.454642 0.145575
0.281515 0.455589 0.147731
0.364416 0.456694 0.152616
0.466520 0.460469 0.160847
0.574531 0.467547 0.173229
0.702040 0.476887 0.189203
0.822857 0.489502 0.208842
0.952802 0.500505 0.229047
0.291006 0.576390 0.187857
0.297967 0.576830 0.188172
0.333318 0.578726 0.189812
0.403982 0.579742 0.194096
0.491639 0.584923 0.200845
0.594592 0.593190 0.211421
0.717665 0.602676 0.224517
0.837386 0.608531 0.239063
0.961778 0.623586 0.255453
0.348984 0.718897 0.231853
0.355259 0.718923 0.232323
0.387171 0.719207 0.234974
0.447934 0.720419 0.239678
0.525765 0.722759 0.244767
0.627295 0.726519 0.252124
0.739550 0.733244 0.260125
0.854225 0.739400 0.271436
0.977292 0.749583 0.285640
0.424012 0.858258 0.278150
0.428485 0.858404 0.278311
0.451334 0.859146 0.279464
0.498171 0.860344 0.281992
0.567879 0.861789 0.286090
0.663632 0.863281 0.291918
0.769943 0.865871 0.299563
0.879556 0.872658 0.309207
1.000000 0.880032 0.321177
0.505609 0.985743 0.325755
0.508616 0.986016 0.325784
0.525156 0.987462 0.325948
0.564023 0.989802 0.327034
0.630463 0.992123 0.330292
0.715542 0.995108 0.335927
0.807482 1.000000 0.342449
0.908124 1.000000 0.347471
1.000000 1.000000 0.351461
0.005132 0.003383 0.095483
0.088206 0.026666 0.094576
0.197416 0.050975 0.101549
0.311217 0.086346 0.108476
0.431589 0.113285 0.118163
0.549051 0.147639 0.132736
0.680435 0.185439 0.151124
0.809585 0.209409 0.173848
0.939944 0.251811 0.201616
0.043010 0.100591 0.097512
0.097413 0.097155 0.094465
0.198165 0.105689 0.096847
0.312030 0.124140 0.107474
0.431781 0.141717 0.118577
0.549796 0.169382 0.134224
0.681075 0.201659 0.152365
0.809868 0.223302 0.175116
0.940090 0.263631 0.202849
0.103591 0.211280 0.109461
0.131527 0.211138 0.108071
0.213347 0.215330 0.110867
0.318195 0.221606 0.116306
0.436192 0.231143 0.127765
0.552908 0.246346 0.142690
0.683388 0.265681 0.159537
0.811527 0.282903 0.181596
0.941357 0.315626 0.209052
0.159383 0.330355 0.131663
0.175399 0.330560 0.131790
0.240169 0.331633 0.134165
0.334395 0.335763 0.139016
0.445986 0.342057 0.147148
0.559552 0.351748 0.159988
0.689362 0.362770 0.176808
0.814788 0.378511 0.198959
0.945379 0.400639 0.221302
0.222146 0.454047 0.165125
0.232944 0.454141 0.165383
0.281119 0.455024 0.166864
0.363888 0.456161 0.170882
0.465994 0.460669 0.177888
0.574138 0.467780 0.189169
0.701541 0.477412 0.204127
0.822538 0.489701 0.222202
0.952641 0.500869 0.240960
0.290529 0.576451 0.202619
0.297723 0.576749 0.202939
0.333564 0.578200 0.204621
0.403683 0.580322 0.208347
0.491550 0.585405 0.214456
0.594787 0.593817 0.224409
0.717945 0.602885 0.236443
0.837534 0.608338 0.250121
0.961552 0.623788 0.265465
0.348822 0.718530 0.242678
0.354998 0.718616 0.243102
0.387059 0.719087 0.245781
0.448158 0.720499 0.250696
0.526436 0.722702 0.255658
0.627500 0.726222 0.262210
0.739303 0.732756 0.269698
0.853984 0.739121 0.280369
0.977518 0.749036 0.294228
0.424190 0.858020 0.286708
0.428641 0.858170 0.286865
0.451410 0.858976 0.287997
0.498330 0.860207 0.290499
0.567566 0.861728 0.294457
0.663146 0.863215 0.299878
0.769841 0.865569 0.307438
0.879542 0.872377 0.317033
1.000000 0.879818 0.328327
0.504914 0.986048 0.332747
0.507968 0.986316 0.332777
0.524473 0.987768 0.332942
0.563335 0.990170 0.333971
0.629647 0.992481 0.337284
0.714807 0.995439 0.342742
0.807209 1.000000 0.348885
0.907831 1.000000 0.353834
1.000000 1.000000 0.358056
0.016213 0.020950 0.203176
0.091933 0.028829 0.203465
0.199614 0.053212 0.208053
0.310764 0.084968 0.211046
0.430418 0.113503 0.215455
0.549133 0.145021 0.223123
0.680931 0.183242 0.233828
0.809018 0.211933 0.248864
0.939508 0.251931 0.268734
0.043732 0.103890 0.204830
0.102102 0.104039 0.205452
0.202577 0.108714 0.208197
0.311481 0.122113 0.210936
0.431216 0.138926 0.216052
0.549006 0.165702 0.223825
0.681215 0.199570 0.234382
0.809357 0.225368 0.249464
0.939743 0.262970 0.269313
0.105347 0.212564 0.210568
0.129234 0.212377 0.209715
0.208107 0.209854 0.209600
0.315873 0.218559 0.213574
0.434573 0.228794 0.219606
0.551706 0.244191 0.225910
0.683183 0.264703 0.236541
0.810095 0.282584 0.252908
0.940646 0.315220 0.272067
0.157743 0.329205 0.221238
0.172991 0.328958 0.221487
0.236896 0.329537 0.222093
0.332898 0.333544 0.224751
0.444487 0.340200 0.228565
0.558394 0.350008 0.235200
0.689767 0.361908 0.246713
0.814330 0.379673 0.263378
0.945314 0.401695 0.278944
0.218791 0.453271 0.239026
0.229613 0.453398 0.239211
0.278134 0.454334 0.240352
0.361114 0.456494 0.242112
0.462936 0.461589 0.245922
0.572626 0.468687 0.254115
0.700396 0.478953 0.266105
0.822423 0.490577 0.278704
0.952121 0.502110 0.292543
0.287291 0.576299 0.263078
0.294815 0.576299 0.263212
0.331681 0.576594 0.264263
0.401831 0.580589 0.267335
0.492577 0.586505 0.273479
0.595671 0.594640 0.280854
0.716798 0.601265 0.288020
0.835903 0.607231 0.298104
0.961982 0.621276 0.310943
0.348441 0.716284 0.292555
0.354703 0.716404 0.292861
0.386721 0.717088 0.294721
0.448242 0.719776 0.298403
0.528063 0.723278 0.303178
0.626305 0.725605 0.307660
0.737681 0.731166 0.314241
0.853146 0.737935 0.323191
0.978038 0.746988 0.334962
0.422637 0.857122 0.327794
0.427167 0.857245 0.327900
0.450389 0.857791 0.328700
0.497716 0.858915 0.330724
0.566362 0.860826 0.333964
0.660580 0.863046 0.338725
0.768782 0.865550 0.346134
0.878928 0.871458 0.354903
0.999144 0.879212 0.364476
0.500509 0.988315 0.368856
0.503670 0.988416 0.368970
0.520904 0.989103 0.369518
0.560159 0.991049 0.370536
0.625652 0.993646 0.372850
0.710930 0.996583 0.377184
0.804818 1.000000 0.382973
0.907480 1.000000 0.387680
1.000000 1.000000 0.390388
0.036278 0.048371 0.320240
0.099790 0.052578 0.321988
0.201500 0.067895 0.322916
0.311370 0.092540 0.323405
0.431573 0.116725 0.327714
0.548986 0.150562 0.331920
0.680063 0.186653 0.338271
0.808351 0.215935 0.351845
0.942084 0.254295 0.366971
0.053559 0.107092 0.320265
0.105661 0.108302 0.321928
0.202726 0.112427 0.321952
0.312259 0.126182 0.323939
0.431955 0.142331 0.327762
0.549412 0.169382 0.331619
0.680266 0.202763 0.338833
0.808705 0.229315 0.352556
0.942265 0.264818 0.367718
0.108938 0.214439 0.323076
0.132768 0.214210 0.322799
0.210427 0.213531 0.323121
0.316858 0.219609 0.325678
0.433746 0.229259 0.329584
0.550272 0.245381 0.333999
0.681731 0.264633 0.341634
0.810124 0.283148 0.354759
0.942616 0.311776 0.370002
0.160308 0.330477 0.328993
0.175229 0.330496 0.329000
0.235913 0.329762 0.329246
0.327069 0.329222 0.329653
0.440165 0.337151 0.334256
0.554703 0.346023 0.338486
0.686468 0.360155 0.347578
0.812726 0.377739 0.359891
0.943916 0.398830 0.370470
0.219401 0.453531 0.339790
0.229723 0.453141 0.339613
0.274748 0.452526 0.339245
0.354070 0.454507 0.340761
0.459490 0.458951 0.344343
0.570106 0.469310 0.351529
0.697104 0.479069 0.359088
0.820135 0.490145 0.367525
0.950310 0.500571 0.377006
0.283946 0.575768 0.355282
0.290783 0.575899 0.355379
0.325512 0.576756 0.356383
0.394343 0.579532 0.358289
0.488818 0.586672 0.363497
0.591779 0.592805 0.368673
0.712760 0.599808 0.373790
0.834145 0.606358 0.381428
0.960661 0.619179 0.391415
0.347485 0.716183 0.381145
0.353306 0.716173 0.381106
0.382755 0.716445 0.380523
0.442436 0.717021 0.380349
0.522633 0.718543 0.384094
0.621526 0.722610 0.388631
0.734895 0.729155 0.393267
0.851110 0.736762 0.401935
0.975825 0.746328 0.411188
0.416163 0.856540 0.405441
0.420713 0.856516 0.405422
0.444317 0.856499 0.405559
0.492530 0.856637 0.406668
0.562542 0.858058 0.409415
0.657196 0.860215 0.412808
0.764973 0.864495 0.419074
0.875307 0.870754 0.426143
0.997351 0.877999 0.433836
0.496147 0.987828 0.437309
0.499516 0.987885 0.437403
0.516571 0.988557 0.437776
0.555869 0.989922 0.438771
0.619867 0.992671 0.439666
0.703774 0.996845 0.441011
0.800588 1.000000 0.447109
0.906449 1.000000 0.450198
1.000000 1.000000 0.450363
0.044296 0.072848 0.443523
0.099780 0.073878 0.444461
0.203325 0.086461 0.445961
0.313795 0.104201 0.446279
0.433387 0.126618 0.448289
0.548857 0.158207 0.452435
0.680403 0.191748 0.458190
0.809334 0.217663 0.466636
0.942146 0.255950 0.476389
0.060624 0.116125 0.443759
0.110551 0.116492 0.444682
0.205583 0.122247 0.445693
0.314384 0.133154 0.446839
0.433781 0.149227 0.448740
0.549170 0.176191 0.452481
0.680920 0.206162 0.458301
0.809776 0.230609 0.467133
0.941793 0.267684 0.476943
0.113999 0.218440 0.445738
0.136564 0.218276 0.446082
0.213656 0.217831 0.445750
0.318394 0.223095 0.447591
0.434868 0.232395 0.449533
0.551378 0.248127 0.453346
0.683224 0.267462 0.460936
0.809951 0.286922 0.470408
0.941615 0.315189 0.478962
0.164011 0.333051 0.449332
0.178162 0.333155 0.448706
0.237579 0.332228 0.449320
0.329593 0.331694 0.448593
0.440468 0.337452 0.451641
0.556864 0.348903 0.457951
0.686313 0.363215 0.466696
0.812235 0.378258 0.474610
0.944411 0.396505 0.480539
0.221543 0.456064 0.455915
0.231666 0.455829 0.455763
0.276728 0.455103 0.456001
0.353030 0.453487 0.455939
0.451186 0.455631 0.456651
0.566422 0.466305 0.464984
0.692697 0.475291 0.470647
0.817449 0.486077 0.475588
0.948500 0.497679 0.482561
0.286690 0.578668 0.469486
0.293567 0.578839 0.469790
0.327074 0.579450 0.470232
0.391041 0.581517 0.470094
0.482089 0.584898 0.471519
0.586524 0.589928 0.474202
0.706427 0.596838 0.478738
0.830208 0.603122 0.484175
0.957511 0.617358 0.491056
0.347965 0.716555 0.485286
0.353407 0.716393 0.485228
0.381183 0.715817 0.484685
0.437939 0.715520 0.484263
0.516947 0.716126 0.485233
0.615230 0.719272 0.487256
0.729240 0.725854 0.491749
0.846352 0.734237 0.497541
0.973182 0.743250 0.503456
0.413694 0.855618 0.500357
0.418025 0.855579 0.500291
0.440423 0.855357 0.500110
0.487247 0.854624 0.500031
0.556960 0.855076 0.501207
0.651341 0.857583 0.503850
0.760186 0.861621 0.508525
0.871564 0.867973 0.513258
0.993431 0.875171 0.518356
0.490273 0.987386 0.520470
0.493572 0.987421 0.520487
0.510809 0.987390 0.520177
0.549390 0.988040 0.519904
0.612423 0.990068 0.520218
0.698152 0.992964 0.522249
0.795805 0.997897 0.528303
0.903394 1.000000 0.532415
1.000000 1.000000 0.532432
0.063538 0.095442 0.563125
0.113042 0.096371 0.563349
0.207403 0.104632 0.564862
0.317236 0.119243 0.565301
0.434772 0.139797 0.567248
0.550551 0.170158 0.571593
0.681653 0.202800 0.578622
0.809828 0.226521 0.583412
0.941551 0.259995 0.590708
0.081912 0.127842 0.563821
0.121762 0.129454 0.565503
0.210375 0.133372 0.563706
0.317897 0.143826 0.566043
0.435167 0.160577 0.567592
0.550767 0.188206 0.571897
0.682270 0.216635 0.578990
0.810390 0.237686 0.583666
0.941055 0.271733 0.591360
0.126556 0.224276 0.564044
0.146389 0.224092 0.563474
0.218913 0.224364 0.564737
0.322396 0.227513 0.564578
0.439621 0.238949 0.568855
0.554236 0.257360 0.574319
0.685722 0.273942 0.580054
0.811323 0.290996 0.585364
0.941775 0.319628 0.591945
0.171486 0.336604 0.567261
0.184821 0.336523 0.567494
0.242164 0.335786 0.566558
0.332964 0.336229 0.568325
0.446500 0.343783 0.572852
0.559755 0.355000 0.578460
0.687740 0.365246 0.582356
0.813249 0.380012 0.587903
0.945604 0.399704 0.594560
0.229511 0.458755 0.572993
0.239153 0.458925 0.572982
0.281473 0.459842 0.574934
0.358300 0.460834 0.576439
0.457984 0.462107 0.578722
0.568227 0.467510 0.582248
0.691302 0.475428 0.586747
0.816565 0.485287 0.590701
0.947417 0.496454 0.596552
0.292153 0.585092 0.585775
0.298876 0.585276 0.585919
0.332226 0.585997 0.586706
0.395038 0.585968 0.587113
0.480763 0.585449 0.586673
0.579177 0.583870 0.583373
0.698865 0.591218 0.587729
0.824734 0.599611 0.593170
0.953168 0.612595 0.598270
0.352552 0.717550 0.596651
0.357837 0.717295 0.596741
0.385003 0.716906 0.597270
0.439090 0.716693 0.597267
0.512623 0.713878 0.595096
0.605888 0.713549 0.593310
0.721407 0.720500 0.597377
0.839613 0.729016 0.601984
0.967677 0.737379 0.608004
0.415335 0.856001 0.610933
0.419348 0.855976 0.610891
0.440801 0.855327 0.610255
0.484820 0.853572 0.608839
0.551197 0.850746 0.606805
0.644220 0.851781 0.609283
0.751382 0.856735 0.613619
0.864527 0.863373 0.616928
0.987544 0.870880 0.622660
0.487487 0.988034 0.625318
0.490737 0.987918 0.625237
0.507293 0.987445 0.624690
0.544123 0.986871 0.623416
0.603487 0.987136 0.623072
0.688755 0.989220 0.624973
0.787466 0.993973 0.629660
0.898964 1.000000 0.635288
1.000000 1.000000 0.634258
0.069508 0.120769 0.705749
0.115861 0.122592 0.705826
0.206487 0.125680 0.706432
0.317545 0.138733 0.704988
0.435118 0.158837 0.705353
0.550107 0.190313 0.711630
0.683698 0.214786 0.715755
0.811100 0.237113 0.718566
0.941717 0.272108 0.724197
0.083271 0.146335 0.706456
0.123434 0.147725 0.706081
0.209242 0.149825 0.705589
0.318151 0.159654 0.705067
0.436211 0.176213 0.704957
0.551552 0.205541 0.711946
0.684336 0.227546 0.715234
0.811603 0.248727 0.718179
0.941712 0.281852 0.724188
0.130960 0.233336 0.703573
0.149984 0.233648 0.703318
0.219473 0.234446 0.705698
0.324634 0.236783 0.703454
0.442317 0.249742 0.707617
0.556290 0.266594 0.710523
0.686890 0.281701 0.713529
0.813102 0.298490 0.717172
0.942698 0.326115 0.723104
0.175813 0.342437 0.705555
0.190466 0.342135 0.704523
0.245093 0.342204 0.704799
0.335801 0.343971 0.706187
0.448328 0.350606 0.708523
0.561440 0.360402 0.710130
0.688892 0.370725 0.712659
0.814410 0.384180 0.717420
0.944954 0.404957 0.723308
0.233934 0.463610 0.710363
0.243409 0.464232 0.710135
0.286391 0.466788 0.710692
0.362442 0.466344 0.710744
0.460110 0.465189 0.708855
0.569664 0.469461 0.709116
0.693614 0.479118 0.713034
0.818578 0.487746 0.717125
0.947708 0.499757 0.723140
0.294149 0.590940 0.717461
0.300931 0.590427 0.716976
0.333398 0.589482 0.715975
0.396166 0.588516 0.715060
0.482283 0.587631 0.711837
0.580789 0.586525 0.708895
0.698832 0.592736 0.712373
0.824779 0.599607 0.717598
0.952602 0.612693 0.723530
0.355632 0.720035 0.724325
0.360666 0.720084 0.724293
0.386197 0.720431 0.723821
0.440436 0.718180 0.721904
0.513742 0.715356 0.718453
0.604776 0.714540 0.715536
0.716664 0.719321 0.719266
0.835531 0.727098 0.724256
0.964035 0.736310 0.730154
0.415317 0.858562 0.734764
0.419407 0.858444 0.734702
0.441645 0.857298 0.733636
0.486995 0.854498 0.731293
0.553246 0.850933 0.728241
0.641926 0.849572 0.728428
0.746433 0.853133 0.733102
0.860004 0.860178 0.736524
0.983028 0.869522 0.741854
0.488293 0.989969 0.746590
0.491444 0.989865 0.746456
0.507452 0.989332 0.745788
0.542935 0.988567 0.744372
0.600857 0.988067 0.743420
0.685463 0.988543 0.744488
0.782943 0.992076 0.748309
0.892441 0.999854 0.754361
1.000000 1.000000 0.749839
0.107088 0.150168 0.837088
0.131825 0.150663 0.837725
0.210787 0.152808 0.839905
0.320706 0.164341 0.838778
0.437956 0.182542 0.839711
0.554083 0.206910 0.844612
0.685960 0.227399 0.846429
0.814503 0.248107 0.848462
0.943191 0.284038 0.852998
0.113675 0.169824 0.837201
0.138264 0.170633 0.837201
0.212511 0.173015 0.839905
0.321936 0.182195 0.838759
0.438906 0.198784 0.840309
0.555888 0.220000 0.844807
0.686565 0.239156 0.846090
0.814840 0.259391 0.847950
0.943396 0.292703 0.852867
0.140328 0.247041 0.837029
0.155974 0.247052 0.837691
0.224561 0.248934 0.839214
0.328283 0.253526 0.839129
0.443129 0.263585 0.841739
0.557905 0.276167 0.843450
0.687903 0.291641 0.845189
0.815753 0.307202 0.848191
0.943982 0.334971 0.852405
0.182933 0.351882 0.839068
0.197850 0.351315 0.838307
0.250400 0.353110 0.840245
0.340662 0.354947 0.841981
0.449265 0.357760 0.840100
0.562738 0.366787 0.841911
0.691209 0.377796 0.843872
0.817817 0.390262 0.848176
0.945453 0.412153 0.852207
0.239799 0.469304 0.843547
0.249336 0.469694 0.843511
0.292039 0.471448 0.842901
0.364619 0.470084 0.840557
0.462468 0.469583 0.839749
0.571084 0.474379 0.840040
0.695198 0.483689 0.842459
0.820827 0.491354 0.846465
0.949910 0.504412 0.851320
0.297140 0.593676 0.846548
0.303670 0.593445 0.846326
0.335994 0.592963 0.846033
0.399395 0.592320 0.843883
0.484770 0.590890 0.841233
0.582135 0.590207 0.837914
0.702255 0.595649 0.840567
0.826218 0.604275 0.844528
0.954763 0.616487 0.849821
0.359240 0.722993 0.852105
0.364279 0.722901 0.852029
0.389500 0.722792 0.851124
0.443206 0.721499 0.849565
0.515767 0.719204 0.846678
0.607362 0.718323 0.841954
0.720346 0.722586 0.843599
0.837019 0.730183 0.848813
0.963460 0.738845 0.854634
0.418550 0.860524 0.859787
0.422780 0.860419 0.859667
0.445313 0.859383 0.858924
0.490993 0.857004 0.857200
0.557292 0.854252 0.854197
0.643552 0.852459 0.851988
0.746360 0.854214 0.854332
0.856943 0.859391 0.858590
0.978352 0.868130 0.863313
0.493117 0.991847 0.869685
0.495975 0.991849 0.869563
0.511256 0.991893 0.869168
0.545903 0.991693 0.868132
0.604910 0.990899 0.866063
0.688979 0.990310 0.866254
0.781784 0.991391 0.868332
0.887493 0.994952 0.872921
1.000000 1.000000 0.874979
0.164334 0.176203 0.966022
0.178970 0.176808 0.966726
0.242371 0.182411 0.968878
0.343058 0.190757 0.969844
0.448854 0.204910 0.972789
0.560943 0.222330 0.975033
0.693160 0.240922 0.976907
0.821450 0.259402 0.980064
0.947943 0.295585 0.982642
0.168864 0.193800 0.965677
0.182533 0.194517 0.966523
0.243722 0.199691 0.969669
0.344237 0.206853 0.970185
0.449077 0.218952 0.973295
0.561337 0.234425 0.975248
0.693770 0.251842 0.976928
0.821991 0.268859 0.979850
0.948101 0.303710 0.982631
0.182973 0.262991 0.967888
0.194233 0.263698 0.969337
0.252627 0.266974 0.973492
0.349313 0.270785 0.971603
0.452847 0.276919 0.973478
0.563944 0.287306 0.975391
0.694866 0.301047 0.977499
0.822378 0.315597 0.980135
0.948547 0.343477 0.983760
0.210917 0.363405 0.973606
0.220401 0.363219 0.974284
0.275396 0.364855 0.974179
0.355981 0.364482 0.973583
0.456804 0.366630 0.973165
0.568697 0.375140 0.975688
0.696371 0.388164 0.978389
0.822645 0.398449 0.981492
0.950432 0.417489 0.986231
0.259391 0.475747 0.975030
0.268473 0.475569 0.975035
0.308562 0.474428 0.974808
0.374976 0.473523 0.973406
0.468268 0.475972 0.974643
0.576008 0.482728 0.976349
0.699056 0.489137 0.977700
0.825124 0.497205 0.981036
0.954704 0.509019 0.986214
0.309735 0.597075 0.979256
0.316195 0.597148 0.979225
0.347111 0.597209 0.979122
0.407338 0.597331 0.978400
0.489559 0.596136 0.978332
0.586772 0.594968 0.973997
0.708561 0.599582 0.975885
0.829369 0.609508 0.979450
0.958203 0.622980 0.984502
0.363680 0.728996 0.985421
0.368935 0.728706 0.985385
0.395091 0.727523 0.984962
0.447776 0.725712 0.984537
0.518677 0.724608 0.982359
0.613033 0.722479 0.977981
0.723820 0.726115 0.977560
0.839990 0.732803 0.981006
0.966130 0.743443 0.985471
0.425947 0.863858 0.993106
0.430352 0.863719 0.993041
0.452729 0.862192 0.992763
0.495935 0.861144 0.991360
0.560319 0.859083 0.988567
0.646838 0.857428 0.986463
0.750858 0.858515 0.984933
0.857042 0.862118 0.985867
0.977203 0.869673 0.990757
0.497801 0.996952 1.000000
0.500592 0.996961 1.000000
0.515246 0.996791 1.000000
0.549570 0.996344 1.000000
0.606473 0.994723 0.999575
0.691286 0.992694 0.996607
0.783446 0.992834 0.994300
0.883821 0.994426 0.994922
0.998393 1.000000 0.999790
