tests/data/3dlut_17pt.cube
# Created by ArgyllCMS
LUT_3D_SIZE 5
DOMAIN_MIN 0.0 0.0 0.0
DOMAIN_MAX 1.0 1.0 1.0
0.000000 0.000000 0.000000
0.326163 0.000000 0.063010
0.623142 0.023645 0.103730
0.891565 0.091101 0.123969
0.982947 0.113521 0.068644
0.075628 0.306780 0.093829
0.294502 0.287262 0.018589
0.588996 0.261734 0.024350
0.855321 0.233864 0.069528
0.984100 0.199504 0.037020
0.111637 0.574754 0.149469
0.262723 0.562487 0.089200
0.560258 0.551417 0.000000
0.851399 0.534049 0.019018
0.994228 0.453970 0.062865
0.121539 0.831006 0.190103
0.250876 0.820919 0.141115
0.513075 0.816136 0.061470
0.819605 0.810233 0.037345
0.999051 0.741396 0.060726
0.126638 1.000000 0.154558
0.247917 0.999783 0.120897
0.437784 0.999653 0.085869
0.733892 1.000000 0.080649
0.990879 0.994430 0.082390
0.034844 0.059573 0.273666
0.317031 0.000000 0.287685
0.613026 0.000000 0.313285
0.881026 0.082682 0.335400
0.983208 0.099464 0.280569
0.005046 0.300857 0.293202
0.281862 0.283345 0.283262
0.579700 0.242171 0.272515
0.850701 0.217294 0.291804
0.981208 0.187720 0.259314
0.000000 0.560870 0.337287
0.206881 0.546723 0.303358
0.538512 0.533217 0.270944
0.841040 0.509296 0.269964
1.000000 0.440219 0.255357
0.056055 0.814327 0.376121
0.187023 0.802275 0.344457
0.463391 0.789964 0.290167
0.797537 0.783520 0.267200
1.000000 0.700234 0.222996
0.084533 1.000000 0.366260
0.199771 0.998878 0.344534
0.397835 0.998899 0.285679
0.710159 1.000000 0.220955
0.997467 0.983906 0.175239
0.069600 0.100833 0.509497
0.296377 0.010264 0.521834
0.594388 0.000000 0.541224
0.867318 0.084065 0.565035
0.983014 0.087220 0.504520
0.000000 0.311223 0.512072
0.247824 0.273565 0.525745
0.568547 0.234622 0.524387
0.844727 0.220946 0.533248
0.980313 0.197604 0.486210
0.000000 0.550831 0.540236
0.218436 0.543468 0.533237
0.532257 0.532994 0.533176
0.833712 0.511636 0.533825
1.000000 0.446654 0.492232
0.044801 0.796366 0.588851
0.198911 0.791233 0.573748
0.458479 0.782280 0.540459
0.784037 0.773950 0.527074
1.000000 0.717777 0.511971
0.126961 0.999446 0.589264
0.213787 0.997847 0.572172
0.400269 0.994792 0.529305
0.703257 1.000000 0.504902
1.000000 0.986431 0.476726
0.081340 0.131760 0.773364
0.273087 0.064874 0.742969
0.575284 0.000000 0.765657
0.850706 0.051147 0.780156
0.983631 0.047233 0.711574
0.000000 0.321727 0.732680
0.212674 0.276944 0.755709
0.556398 0.225738 0.768963
0.837235 0.210806 0.763079
0.980830 0.193874 0.700781
0.000000 0.560413 0.743119
0.191993 0.549484 0.749542
0.509864 0.530663 0.775634
0.826488 0.508095 0.777868
1.000000 0.446923 0.713533
0.057121 0.790928 0.780026
0.198911 0.787536 0.774439
0.446957 0.780071 0.768085
0.771218 0.770825 0.771296
1.000000 0.729515 0.748729
0.145695 0.994936 0.792889
0.227510 0.993851 0.783868
0.400359 0.992992 0.761525
0.696926 1.000000 0.759962
0.999448 0.993709 0.757771
0.110746 0.161434 0.979898
0.253387 0.084724 0.979113
0.546744 0.000000 0.974349
0.823514 0.000000 0.983866
0.982111 0.062779 0.911896
0.042532 0.325491 0.953540
0.212023 0.289974 0.955335
0.532902 0.253783 0.981987
0.817808 0.228503 0.985302
0.983214 0.209678 0.914547
0.115698 0.567792 0.952126
0.222242 0.553500 0.965407
0.493342 0.522751 0.983678
0.795796 0.504434 0.993369
0.989704 0.454661 0.928073
0.146881 0.792480 0.969262
0.238052 0.790749 0.976849
0.444032 0.776475 0.983914
0.753439 0.766081 1.000000
0.992593 0.731744 0.958086
0.194933 0.988517 0.976523
0.259621 0.989964 0.977851
0.417539 0.989112 0.974472
0.689944 1.000000 0.990613
1.000000 0.999981 0.999993
