tests/data/3dlut_14.cube
# Created by ArgyllCMS
LUT_3D_SIZE 2
DOMAIN_MIN 0.0 0.0 0.0
DOMAIN_MAX 1.0 1.0 1.0

0.000000 0.000000 0.000000
0.087590 0.000000 0.007774
0.169630 0.000000 0.027240
0.248107 0.000000 0.045550
0.326163 0.000000 0.063010
0.403606 0.000000 0.077428
0.478204 0.013175 0.087879
0.550922 0.022078 0.096574
