tests/data/3dlut_33pt.cube
# Created by ArgyllCMS
LUT_3D_SIZE 33
DOMAIN_MIN 0.0 0.0 0.0
DOMAIN_MAX 1.0 1.0 1.0
0.000000 0.000000 0.000000
0.009230 0.010889 0.000000
0.037293 0.026812 0.016669
0.061669 0.036247 0.019737
0.089167 0.042728 0.021915
0.115500 0.046723 0.024109
0.141191 0.050691 0.025315
0.167276 0.054557 0.026590
0.194091 0.058365 0.029102
0.221947 0.064711 0.032147
0.250227 0.071167 0.038261
0.279687 0.079423 0.045117
0.309645 0.086624 0.052691
0.340692 0.094009 0.059501
0.371600 0.099630 0.065519
0.402618 0.105154 0.071823
0.432901 0.111291 0.078127
0.462170 0.118565 0.084580
0.491329 0.127381 0.090993
0.519190 0.137786 0.097138
0.548798 0.148517 0.103593
0.579487 0.159465 0.109559
0.612308 0.169310 0.115914
0.645794 0.178416 0.121906
0.680599 0.186244 0.128008
0.714275 0.191554 0.134483
0.746140 0.196457 0.140925
0.778098 0.202265 0.147708
0.809644 0.209573 0.154570
0.840481 0.218188 0.161502
0.873465 0.227960 0.168824
0.907441 0.238804 0.176621
0.940092 0.251880 0.184548
0.010915 0.019888 0.003065
0.016799 0.023122 0.004797
0.038661 0.031698 0.017394
0.062180 0.039023 0.020309
0.089388 0.044847 0.022804
0.115771 0.048645 0.024752
0.141436 0.052807 0.025709
0.167504 0.056697 0.026657
0.194302 0.060366 0.029176
0.222093 0.066750 0.032296
0.250335 0.072841 0.038351
0.279781 0.081025 0.045208
0.309732 0.087946 0.052809
0.340766 0.095321 0.059582
0.371633 0.100659 0.065592
0.402641 0.106163 0.071888
0.432920 0.112100 0.078182
0.462183 0.119351 0.084631
0.491311 0.128176 0.091044
0.519179 0.138482 0.097192
0.548806 0.149102 0.103651
0.579509 0.159973 0.109616
0.612327 0.169774 0.115965
0.645813 0.178869 0.121945
0.680620 0.186639 0.128044
0.714297 0.191931 0.134525
0.746151 0.196839 0.140960
0.778109 0.202618 0.147744
0.809653 0.209923 0.154605
0.840487 0.218531 0.161539
0.873475 0.228249 0.168867
0.907449 0.239107 0.176662
0.940098 0.252176 0.184585
0.026242 0.045391 0.018496
0.029086 0.045778 0.019099
0.042829 0.048557 0.021350
0.064521 0.052857 0.025454
0.090945 0.055824 0.025102
0.117335 0.059759 0.023621
0.142815 0.063647 0.024965
0.168791 0.067658 0.027081
0.195448 0.070702 0.029868
0.222794 0.075918 0.033031
0.250910 0.081774 0.038845
0.280324 0.088594 0.045886
0.310199 0.095041 0.053455
0.341171 0.101157 0.059994
0.371897 0.106022 0.065965
0.402762 0.111367 0.072193
0.433004 0.116427 0.078447
0.462224 0.123657 0.084897
0.491217 0.132438 0.091324
0.519169 0.142135 0.097510
0.548851 0.152292 0.103964
0.579639 0.162641 0.109936
0.612433 0.172284 0.116244
0.645907 0.181391 0.122157
0.680737 0.188781 0.128251
0.714406 0.194017 0.134750
0.746208 0.198997 0.141146
0.778160 0.204607 0.147932
0.809709 0.211754 0.154804
0.840514 0.220360 0.161743
0.873515 0.229899 0.169078
0.907487 0.240800 0.176866
0.940130 0.253694 0.184763
0.030837 0.073105 0.020558
0.033441 0.073236 0.021296
0.045709 0.073892 0.024286
0.068832 0.074948 0.025767
0.094753 0.077492 0.025596
0.119992 0.080465 0.023631
0.145632 0.083351 0.022220
0.171672 0.086794 0.028777
0.197417 0.089556 0.031273
0.224336 0.092855 0.034133
0.252376 0.097482 0.040241
0.281386 0.102904 0.047235
0.310964 0.108092 0.054773
0.341645 0.112637 0.060400
0.372068 0.116932 0.066354
0.402952 0.120867 0.072835
0.433052 0.126320 0.078870
0.462160 0.132934 0.085629
0.491133 0.141072 0.092003
0.519237 0.149988 0.098307
0.548973 0.159497 0.104618
0.579932 0.168664 0.110701
0.612714 0.178056 0.116876
0.646140 0.186864 0.122685
0.680998 0.193770 0.128738
0.714572 0.198951 0.135226
0.746341 0.203807 0.141611
0.778279 0.209133 0.148363
0.809831 0.215931 0.155283
0.840584 0.224391 0.162221
0.873580 0.233782 0.169531
0.907565 0.244654 0.177274
0.940208 0.257134 0.185172
0.040433 0.099971 0.023996
0.042702 0.100077 0.024196
0.053554 0.100677 0.024938
0.074155 0.102067 0.026432
0.100776 0.103314 0.024708
0.124763 0.104953 0.020790
0.149003 0.106888 0.023766
0.174299 0.109397 0.030285
0.199720 0.111463 0.033237
0.226392 0.114096 0.037100
0.254272 0.117731 0.043370
0.282953 0.121169 0.050470
0.312045 0.124786 0.056633
0.341958 0.128455 0.061762
0.372308 0.132206 0.067427
0.402979 0.136404 0.074170
0.433063 0.141380 0.080282
0.461983 0.147809 0.087047
0.490842 0.155431 0.093354
0.519252 0.162669 0.099733
0.549377 0.170262 0.105948
0.580296 0.178875 0.112045
0.613172 0.187800 0.117929
0.646539 0.195802 0.123687
0.681383 0.202197 0.129563
0.714917 0.206848 0.136049
0.746638 0.211460 0.142495
0.778543 0.216696 0.149178
0.809992 0.223314 0.156173
0.840711 0.231373 0.163056
0.873781 0.240448 0.170404
0.907766 0.250941 0.178055
0.940355 0.263335 0.185942
0.053784 0.126103 0.028653
0.055783 0.126204 0.028757
0.066811 0.126648 0.029316
0.085243 0.127765 0.028923
0.107277 0.128705 0.027757
0.129769 0.129831 0.028377
0.152396 0.131346 0.030679
0.176558 0.132894 0.033995
0.202029 0.134685 0.037512
0.228889 0.137407 0.042225
0.256661 0.140142 0.048575
0.284584 0.142658 0.054634
0.312871 0.145378 0.058959
0.342502 0.148291 0.064183
0.372679 0.151800 0.070606
0.403262 0.155581 0.076887
0.433177 0.160589 0.083140
0.462128 0.166074 0.089790
0.491580 0.171522 0.095819
0.519995 0.178012 0.102004
0.550029 0.185331 0.107946
0.580867 0.193365 0.113767
0.613760 0.201254 0.119509
0.647094 0.208140 0.125108
0.681975 0.213713 0.131032
0.715391 0.218221 0.137237
0.746964 0.222636 0.143840
0.778766 0.227697 0.150470
0.810227 0.233768 0.157402
0.840995 0.241485 0.164290
0.874138 0.250226 0.171742
0.908069 0.260256 0.179236
0.940576 0.272293 0.187118
0.071654 0.153563 0.038095
0.073211 0.153626 0.038126
0.081652 0.153966 0.038294
0.096729 0.154596 0.038075
0.115141 0.155485 0.037741
0.134891 0.156245 0.038358
0.156703 0.157288 0.039734
0.180031 0.158800 0.042159
0.205147 0.160402 0.044778
0.231808 0.162153 0.049340
0.258964 0.164285 0.054961
0.286306 0.166257 0.059334
0.314357 0.168394 0.064018
0.343596 0.171206 0.069888
0.373375 0.174541 0.076068
0.403870 0.178237 0.081932
0.433995 0.182313 0.087897
0.463227 0.186778 0.093546
0.492704 0.191781 0.099063
0.520942 0.197549 0.104997
0.550806 0.204028 0.110576
0.581620 0.210826 0.116058
0.614508 0.217439 0.121723
0.647746 0.223633 0.127068
0.682577 0.228725 0.133163
0.715835 0.232721 0.139147
0.747329 0.236905 0.145619
0.779064 0.241910 0.152333
0.810601 0.247814 0.159008
0.841286 0.255112 0.165801
0.874498 0.263300 0.173263
0.908472 0.272610 0.180736
0.940862 0.284100 0.188641
0.088970 0.182269 0.048986
0.090070 0.182294 0.048942
0.096047 0.182464 0.048630
0.107175 0.182779 0.047906
0.122884 0.183209 0.047459
0.141530 0.183770 0.047833
0.162281 0.184637 0.049862
0.184524 0.185920 0.052368
0.209231 0.187342 0.054743
0.234936 0.188910 0.057854
0.261527 0.190522 0.062037
0.288586 0.192492 0.066750
0.316333 0.194706 0.071960
0.345144 0.197416 0.076734
0.374717 0.200250 0.082373
0.405028 0.203491 0.088131
0.435186 0.206727 0.092927
0.464511 0.210268 0.097821
0.493786 0.214401 0.103582
0.521888 0.219400 0.108754
0.551725 0.224890 0.113873
0.582461 0.230734 0.119331
0.615346 0.236383 0.124358
0.648551 0.241686 0.129904
0.683289 0.246396 0.135596
0.716302 0.250257 0.141735
0.747648 0.254443 0.148117
0.779432 0.259204 0.154552
0.811057 0.264637 0.161078
0.841921 0.271391 0.167872
0.875216 0.279023 0.175116
0.909057 0.287724 0.182692
0.941322 0.298564 0.190696
0.104515 0.211786 0.059776
0.105363 0.211788 0.059719
0.109959 0.211800 0.059405
0.119143 0.211827 0.058908
0.132676 0.212080 0.058775
0.149577 0.212405 0.059355
0.168771 0.213328 0.060778
0.190393 0.214257 0.062986
0.214034 0.215304 0.065196
0.238781 0.216578 0.067650
0.264642 0.218306 0.071768
0.291680 0.220101 0.076133
0.319016 0.222156 0.080274
0.347414 0.224324 0.084124
0.376645 0.226681 0.088872
0.406740 0.229280 0.093386
0.436675 0.231794 0.098154
0.465759 0.234979 0.103284
0.494809 0.238556 0.108041
0.522935 0.242917 0.112908
0.552745 0.247545 0.118133
0.583584 0.252472 0.122756
0.616461 0.257377 0.127949
0.649390 0.262128 0.133221
0.684092 0.266102 0.138940
0.717015 0.269695 0.144782
0.748378 0.273596 0.151112
0.780136 0.278144 0.157258
0.811836 0.283363 0.163690
0.842736 0.289887 0.170451
0.876029 0.297186 0.177631
0.909667 0.305236 0.185201
0.941882 0.315119 0.193210
0.119111 0.240751 0.071081
0.119765 0.240752 0.071021
0.123334 0.240758 0.070692
0.131097 0.240807 0.070419
0.142918 0.240953 0.070689
0.158310 0.241389 0.071459
0.176662 0.242021 0.073368
0.197402 0.242771 0.075627
0.219683 0.243798 0.076995
0.243531 0.244880 0.078153
0.268931 0.246343 0.080730
0.295223 0.248026 0.084282
0.322241 0.250000 0.088034
0.350304 0.251897 0.091570
0.379098 0.253766 0.095491
0.408918 0.255825 0.099825
0.438447 0.258027 0.104324
0.467332 0.260780 0.108659
0.496015 0.264019 0.113251
0.524109 0.267803 0.117751
0.554111 0.271518 0.122280
0.584766 0.275822 0.127008
0.617596 0.280110 0.131996
0.650372 0.284157 0.137116
0.685246 0.287523 0.142797
0.718096 0.290731 0.148677
0.749642 0.294290 0.154572
0.781443 0.298589 0.160655
0.812927 0.303749 0.167131
0.843523 0.310016 0.173924
0.876713 0.317006 0.181216
0.910219 0.324629 0.188791
0.942556 0.333688 0.196290
0.132982 0.269773 0.081303
0.133514 0.269787 0.081295
0.136430 0.269858 0.081251
0.143016 0.269970 0.081347
0.153520 0.270172 0.081743
0.167834 0.270470 0.082373
0.184924 0.270894 0.083784
0.204814 0.271497 0.085429
0.226338 0.272304 0.086581
0.249510 0.273223 0.088076
0.274035 0.274456 0.090198
0.299422 0.275963 0.092818
0.325967 0.277692 0.096069
0.353579 0.279382 0.099493
0.381920 0.281029 0.103196
0.411227 0.282747 0.106693
0.440357 0.284834 0.110318
0.469038 0.287225 0.114216
0.497680 0.289987 0.118635
0.525793 0.293376 0.122681
0.555637 0.296875 0.127010
0.586111 0.300628 0.131819
0.618957 0.304482 0.136597
0.651721 0.307835 0.141837
0.686656 0.310766 0.147371
0.719545 0.313607 0.153095
0.750967 0.316885 0.159180
0.782586 0.320848 0.165321
0.813729 0.325811 0.171830
0.844152 0.332073 0.178529
0.877421 0.338822 0.185496
0.911014 0.345875 0.192863
0.943413 0.354225 0.199875
0.146751 0.299100 0.092345
0.147215 0.299113 0.092343
0.149727 0.299183 0.092329
0.155401 0.299346 0.092296
0.164773 0.299548 0.092524
0.177881 0.299775 0.093096
0.193908 0.300088 0.093898
0.213259 0.300384 0.095075
0.233916 0.301078 0.096276
0.256190 0.301949 0.097565
0.279879 0.303087 0.099459
0.304478 0.304417 0.102064
0.330479 0.305967 0.104991
0.357176 0.307603 0.107781
0.384944 0.309112 0.110688
0.413997 0.310797 0.113881
0.442873 0.312769 0.117296
0.471430 0.314992 0.120783
0.499760 0.317669 0.124561
0.527498 0.320740 0.128610
0.557199 0.323909 0.132911
0.587732 0.327194 0.137466
0.620752 0.330422 0.142172
0.653683 0.333346 0.147205
0.688361 0.335886 0.152744
0.720909 0.338524 0.158576
0.752093 0.341648 0.164580
0.783489 0.345513 0.170726
0.814388 0.350558 0.177134
0.844813 0.356773 0.183567
0.878313 0.363231 0.190363
0.911982 0.369486 0.197223
0.944422 0.376519 0.203822
0.160423 0.330020 0.102659
0.160854 0.330027 0.102668
0.163163 0.330061 0.102719
0.168043 0.330169 0.102831
0.176790 0.330284 0.103030
0.188739 0.330386 0.103417
0.204491 0.330396 0.104384
0.222221 0.330723 0.105506
0.241565 0.331420 0.106465
0.263172 0.332179 0.107809
0.286212 0.333080 0.109539
0.310196 0.334159 0.111616
0.335506 0.335577 0.113815
0.361381 0.337217 0.116234
0.388746 0.338680 0.118960
0.417736 0.340331 0.121678
0.446314 0.342258 0.124646
0.474384 0.344414 0.128019
0.502267 0.346777 0.131725
0.530116 0.349232 0.135550
0.559941 0.351967 0.139591
0.590607 0.354726 0.143929
0.623566 0.357626 0.148736
0.656319 0.360277 0.153769
0.690268 0.362785 0.159199
0.722371 0.365496 0.164791
0.753266 0.368790 0.170682
0.784448 0.372876 0.176687
0.815199 0.377962 0.182814
0.845669 0.383791 0.189031
0.879397 0.389412 0.195468
0.913142 0.394650 0.201771
0.945613 0.400673 0.207727
0.174124 0.362324 0.112965
0.174517 0.362325 0.112977
0.176584 0.362329 0.113057
0.181026 0.362371 0.113230
0.188733 0.362377 0.113488
0.200012 0.362366 0.113951
0.214466 0.362396 0.114703
0.230974 0.362699 0.115711
0.249730 0.363252 0.116793
0.270757 0.363885 0.118219
0.293095 0.364608 0.119678
0.316512 0.365581 0.121275
0.341132 0.366866 0.123167
0.366801 0.368224 0.125245
0.393956 0.369616 0.127551
0.422241 0.371177 0.130113
0.450244 0.372907 0.133006
0.477987 0.374716 0.136103
0.505499 0.376751 0.139494
0.533556 0.378893 0.143319
0.563383 0.381083 0.147447
0.594371 0.383399 0.151568
0.627003 0.386001 0.156122
0.659338 0.388585 0.160945
0.692810 0.391104 0.166178
0.724363 0.393992 0.171665
0.754883 0.397607 0.177273
0.785821 0.401779 0.182974
0.816398 0.406527 0.188927
0.846856 0.411286 0.194855
0.880901 0.415563 0.200743
0.914521 0.419848 0.206639
0.946771 0.424860 0.212222
0.188008 0.395169 0.123468
0.188328 0.395173 0.123479
0.190051 0.395194 0.123541
0.194176 0.395217 0.123734
0.201604 0.395164 0.124105
0.211933 0.395123 0.124537
0.224994 0.395145 0.125187
0.240711 0.395370 0.126058
0.258862 0.395830 0.126974
0.278811 0.396523 0.128144
0.300196 0.397159 0.129538
0.323076 0.397969 0.130967
0.347479 0.398839 0.132670
0.372997 0.399824 0.134482
0.399935 0.400849 0.136658
0.427463 0.402082 0.139239
0.454762 0.403488 0.141960
0.482340 0.405054 0.144997
0.509294 0.406763 0.148332
0.537334 0.408510 0.151933
0.566728 0.410401 0.155710
0.597338 0.412453 0.159691
0.630001 0.414600 0.164111
0.662667 0.416860 0.168756
0.695769 0.419384 0.173622
0.726892 0.422326 0.178736
0.757054 0.425849 0.184081
0.787794 0.429816 0.189686
0.818212 0.434149 0.195157
0.848637 0.438160 0.200857
0.882820 0.441811 0.206462
0.916120 0.445313 0.211958
0.948329 0.449752 0.217257
0.204015 0.425690 0.134495
0.204320 0.425690 0.134509
0.205987 0.425686 0.134587
0.209779 0.425686 0.134738
0.216321 0.425666 0.134983
0.225554 0.425647 0.135349
0.237629 0.425696 0.135866
0.252399 0.425929 0.136528
0.269387 0.426285 0.137304
0.288220 0.426872 0.138405
0.308463 0.427490 0.139630
0.331210 0.427836 0.140959
0.355194 0.428202 0.142496
0.380446 0.428705 0.144247
0.407264 0.429554 0.146323
0.433783 0.430622 0.148707
0.460294 0.431991 0.151308
0.487413 0.433540 0.154155
0.513705 0.435095 0.157354
0.541567 0.436915 0.160776
0.570528 0.438810 0.164410
0.600986 0.440880 0.168223
0.633607 0.442991 0.172318
0.666212 0.445292 0.176681
0.698887 0.447872 0.181318
0.729597 0.450953 0.186058
0.759539 0.454521 0.191321
0.790197 0.458373 0.196559
0.820340 0.462089 0.201885
0.851010 0.465392 0.207168
0.885561 0.468096 0.212473
0.918601 0.471112 0.217776
0.950506 0.475160 0.222877
0.222265 0.454618 0.145163
0.222524 0.454618 0.145173
0.223959 0.454615 0.145229
0.227336 0.454616 0.145357
0.233184 0.454642 0.145575
0.241269 0.454701 0.145899
0.252510 0.454838 0.146378
0.265815 0.455111 0.146936
0.281515 0.455589 0.147731
0.299154 0.456160 0.148770
0.319138 0.456426 0.149868
0.341186 0.456546 0.151118
0.364416 0.456694 0.152616
0.388690 0.457107 0.154245
0.414909 0.457965 0.156159
0.440856 0.459084 0.158396
0.466520 0.460469 0.160847
0.492821 0.462031 0.163585
0.518397 0.463756 0.166578
0.546003 0.465583 0.169792
0.574531 0.467547 0.173229
0.604915 0.469528 0.176742
0.637349 0.471703 0.180524
0.669815 0.474046 0.184635
0.702040 0.476887 0.189203
0.732313 0.479887 0.194082
0.762239 0.483284 0.198940
0.792670 0.486475 0.203808
0.822857 0.489502 0.208842
0.853879 0.491925 0.213865
0.888506 0.493911 0.218939
0.921206 0.496600 0.224023
0.952802 0.500505 0.229047
0.240926 0.482779 0.155961
0.241168 0.482780 0.155970
0.242424 0.482789 0.156017
0.245266 0.482825 0.156119
0.250534 0.482906 0.156295
0.258031 0.483046 0.156597
0.267973 0.483255 0.157020
0.280169 0.483659 0.157580
0.294804 0.483997 0.158303
0.311442 0.484477 0.159258
0.330660 0.484586 0.160264
0.351830 0.484635 0.161450
0.374397 0.484836 0.162925
0.398336 0.485319 0.164567
0.423140 0.486167 0.166362
0.447946 0.487381 0.168411
0.472918 0.488870 0.170576
0.498303 0.490509 0.172977
0.523180 0.492167 0.175788
0.550363 0.494121 0.178740
0.578622 0.495978 0.182023
0.609228 0.498073 0.185486
0.641065 0.500372 0.189257
0.673532 0.503058 0.193393
0.705197 0.505750 0.197601
0.735080 0.508768 0.201928
0.764949 0.511794 0.206606
0.795465 0.514577 0.211111
0.825732 0.517177 0.215891
0.857173 0.518991 0.220747
0.891825 0.520939 0.225757
0.923915 0.523699 0.230741
0.955241 0.527979 0.235542
0.259244 0.511107 0.166599
0.259442 0.511113 0.166606
0.260533 0.511147 0.166642
0.263150 0.511208 0.166729
0.267888 0.511309 0.166932
0.274735 0.511487 0.167249
0.283510 0.511748 0.167625
0.294849 0.512141 0.168179
0.308195 0.512530 0.168842
0.324630 0.512846 0.169646
0.342827 0.512987 0.170654
0.362728 0.513163 0.171785
0.384412 0.513428 0.173138
0.407716 0.514163 0.174672
0.431178 0.515214 0.176325
0.454857 0.516640 0.178163
0.479003 0.518358 0.180292
0.503292 0.520223 0.182641
0.527943 0.522193 0.185172
0.554954 0.524191 0.188079
0.583206 0.526342 0.191353
0.613835 0.528707 0.194765
0.645057 0.531295 0.198500
0.677329 0.533977 0.202327
0.708715 0.536835 0.206453
0.738276 0.539503 0.210451
0.768264 0.542263 0.214635
0.798606 0.544594 0.218826
0.828965 0.546479 0.223236
0.860928 0.547929 0.227997
0.895323 0.549643 0.232918
0.926716 0.552926 0.237616
0.957459 0.557472 0.242032
0.276196 0.542547 0.177184
0.276388 0.542552 0.177192
0.277439 0.542582 0.177235
0.279756 0.542671 0.177328
0.283777 0.542834 0.177492
0.289991 0.543119 0.177765
0.298204 0.543465 0.178128
0.308457 0.543932 0.178636
0.321580 0.544406 0.179264
0.336873 0.544672 0.180060
0.354287 0.544733 0.181055
0.373654 0.544908 0.182165
0.394427 0.545345 0.183315
0.416513 0.546169 0.184647
0.438992 0.547403 0.186334
0.461647 0.548956 0.188242
0.485171 0.550672 0.190382
0.508571 0.552620 0.192680
0.533335 0.554555 0.195280
0.560182 0.556666 0.198126
0.588315 0.558826 0.201162
0.619080 0.561186 0.204391
0.649666 0.563753 0.208071
0.682079 0.566303 0.211667
0.712781 0.568777 0.215431
0.742207 0.570949 0.219036
0.772135 0.573164 0.223030
0.802434 0.574926 0.226936
0.832967 0.576476 0.231120
0.864984 0.577723 0.235721
0.898718 0.579988 0.240157
0.929308 0.583860 0.244428
0.959675 0.589763 0.248703
0.291006 0.576390 0.187857
0.291180 0.576401 0.187865
0.292132 0.576459 0.187908
0.294313 0.576587 0.188007
0.297967 0.576830 0.188172
0.303422 0.577235 0.188414
0.311061 0.577649 0.188772
0.321214 0.578118 0.189238
0.333318 0.578726 0.189812
0.348296 0.578772 0.190695
0.365131 0.578837 0.191746
0.383823 0.579035 0.192883
0.403982 0.579742 0.194096
0.424908 0.580628 0.195409
0.446497 0.581843 0.197076
0.468639 0.583278 0.198932
0.491639 0.584923 0.200845
0.514523 0.586791 0.203066
0.539519 0.588712 0.205606
0.566402 0.590975 0.208400
0.594592 0.593190 0.211421
0.625483 0.595912 0.214685
0.655736 0.598374 0.217974
0.687523 0.600598 0.221167
0.717665 0.602676 0.224517
0.746784 0.604329 0.227870
0.776634 0.605809 0.231520
0.807147 0.607173 0.235199
0.837386 0.608531 0.239063
0.869553 0.610504 0.243207
0.901720 0.613418 0.247398
0.931731 0.618351 0.251351
0.961778 0.623586 0.255453
0.304149 0.613855 0.198445
0.304304 0.613866 0.198452
0.305150 0.613928 0.198491
0.307092 0.614070 0.198581
0.310767 0.614239 0.198777
0.316489 0.614423 0.199108
0.324055 0.614701 0.199546
0.333432 0.615131 0.200008
0.345764 0.615353 0.200848
0.359640 0.615522 0.201703
0.376155 0.615833 0.202807
0.393846 0.616310 0.203907
0.413489 0.616933 0.205238
0.433647 0.617718 0.206628
0.454527 0.618684 0.208183
0.476280 0.619778 0.209874
0.499005 0.620986 0.211776
0.521827 0.622456 0.213972
0.547075 0.623936 0.216407
0.573850 0.625846 0.219113
0.602234 0.627701 0.221974
0.632786 0.630008 0.224912
0.663159 0.631914 0.227921
0.694022 0.633639 0.230830
0.723423 0.634966 0.233893
0.752139 0.636157 0.236923
0.781843 0.637400 0.240201
0.812056 0.638602 0.243572
0.841828 0.640363 0.247306
0.873406 0.643028 0.251038
0.904601 0.647218 0.254673
0.934018 0.652073 0.258466
0.964449 0.657495 0.262261
0.317648 0.650286 0.209345
0.317815 0.650290 0.209355
0.318738 0.650307 0.209407
0.320753 0.650359 0.209521
0.324277 0.650451 0.209720
0.329472 0.650624 0.210009
0.336867 0.650845 0.210503
0.346420 0.651039 0.211141
0.357894 0.651242 0.211888
0.371837 0.651614 0.212933
0.387168 0.651881 0.213924
0.405110 0.652390 0.215211
0.423767 0.652872 0.216483
0.443269 0.653510 0.217865
0.463621 0.654219 0.219327
0.485061 0.655034 0.220926
0.506950 0.656043 0.222687
0.530048 0.657179 0.224762
0.555475 0.658436 0.227066
0.581975 0.659974 0.229625
0.610835 0.661627 0.232262
0.640434 0.663642 0.234906
0.670587 0.665460 0.237493
0.700424 0.666883 0.240147
0.729129 0.668406 0.242725
0.757410 0.669628 0.245502
0.787035 0.671019 0.248499
0.816675 0.672605 0.251761
0.845699 0.674773 0.255118
0.877096 0.677885 0.258546
0.907306 0.681477 0.261979
0.937157 0.685747 0.265716
0.967905 0.689500 0.269712
0.332064 0.686029 0.220219
0.332218 0.686032 0.220228
0.333053 0.686049 0.220274
0.335115 0.686071 0.220417
0.338628 0.686125 0.220665
0.344071 0.686178 0.221064
0.351315 0.686274 0.221617
0.360193 0.686410 0.222236
0.371815 0.686583 0.223157
0.385164 0.686779 0.224243
0.400671 0.687047 0.225487
0.417786 0.687353 0.226933
0.435461 0.687816 0.228213
0.454351 0.688251 0.229652
0.474170 0.688845 0.231010
0.495127 0.689441 0.232504
0.516297 0.690132 0.234132
0.539625 0.691040 0.235990
0.564712 0.692011 0.238036
0.591078 0.693258 0.240105
0.619770 0.694736 0.242464
0.648221 0.696536 0.244793
0.677825 0.697957 0.247060
0.706624 0.699498 0.249399
0.734376 0.700973 0.251743
0.762481 0.702500 0.254154
0.792021 0.704028 0.256999
0.820977 0.705712 0.259998
0.849754 0.707865 0.263073
0.880643 0.710464 0.266377
0.910886 0.713725 0.269797
0.940868 0.716556 0.273542
0.972341 0.719652 0.277479
0.348984 0.718897 0.231853
0.349132 0.718899 0.231864
0.349979 0.718902 0.231925
0.351936 0.718910 0.232068
0.355259 0.718923 0.232323
0.360169 0.718952 0.232708
0.367464 0.719017 0.233290
0.376367 0.719137 0.234063
0.387171 0.719207 0.234974
0.400482 0.719446 0.236067
0.415399 0.719642 0.237455
0.431056 0.720042 0.238556
0.447934 0.720419 0.239678
0.465812 0.720930 0.240822
0.485015 0.721453 0.242007
0.504842 0.722054 0.243307
0.525765 0.722759 0.244767
0.548921 0.723397 0.246426
0.573438 0.724239 0.248248
0.599375 0.725177 0.250295
0.627295 0.726519 0.252124
0.654684 0.728155 0.254198
0.683817 0.729960 0.255920
0.711684 0.731460 0.257998
0.739550 0.733244 0.260125
0.767763 0.734394 0.262539
0.797397 0.735895 0.265261
0.825657 0.737318 0.268256
0.854225 0.739400 0.271436
0.885033 0.741649 0.274719
0.915050 0.744281 0.278141
0.945728 0.746861 0.281810
0.977292 0.749583 0.285640
0.367528 0.751745 0.243542
0.367677 0.751747 0.243553
0.368480 0.751753 0.243614
0.370336 0.751766 0.243755
0.373597 0.751791 0.244012
0.378434 0.751827 0.244399
0.384970 0.751905 0.244974
0.393618 0.752066 0.245684
0.404183 0.752231 0.246510
0.416445 0.752473 0.247560
0.429750 0.752922 0.248583
0.444383 0.753379 0.249496
0.460271 0.753882 0.250521
0.477416 0.754612 0.251526
0.495717 0.755364 0.252624
0.514545 0.755990 0.253898
0.535362 0.756855 0.255248
0.558015 0.757553 0.256783
0.581977 0.758251 0.258448
0.607608 0.759409 0.260122
0.634671 0.760683 0.261762
0.661907 0.762200 0.263512
0.690136 0.763953 0.265204
0.717772 0.765551 0.267182
0.745382 0.766894 0.269383
0.773942 0.768194 0.271801
0.802927 0.769432 0.274606
0.830838 0.771000 0.277336
0.859071 0.773028 0.280416
0.890080 0.775331 0.283533
0.920046 0.777914 0.286914
0.951007 0.780406 0.290485
0.982674 0.782983 0.294246
0.385587 0.788821 0.255326
0.385725 0.788821 0.255337
0.386468 0.788823 0.255397
0.388203 0.788830 0.255537
0.391119 0.788930 0.255683
0.395612 0.789060 0.255912
0.401804 0.789228 0.256327
0.409714 0.789450 0.256936
0.419272 0.789644 0.257667
0.430126 0.790092 0.258252
0.442385 0.790614 0.258985
0.456206 0.791093 0.259831
0.471329 0.791855 0.260609
0.487799 0.792482 0.261545
0.505034 0.793223 0.262583
0.523658 0.793933 0.263760
0.544404 0.794459 0.265129
0.566719 0.795158 0.266550
0.590315 0.795424 0.268181
0.616173 0.796306 0.269673
0.642111 0.797157 0.271320
0.669629 0.798154 0.273056
0.697298 0.799129 0.274812
0.725132 0.800092 0.276808
0.752697 0.800853 0.279052
0.780893 0.801835 0.281379
0.809386 0.803323 0.283904
