tests/data/3dlut_17pt.cube
# Created by ArgyllCMS
LUT_3D_SIZE 9
DOMAIN_MIN 0.0 0.0 0.0
DOMAIN_MAX 1.0 1.0 1.0
0.000000 0.000000 0.000000
0.169630 0.000000 0.027240
0.326163 0.000000 0.063010
0.478204 0.013175 0.087879
0.623142 0.023645 0.103730
0.764467 0.042900 0.116537
0.891565 0.091101 0.123969
0.963788 0.118995 0.105099
0.982947 0.113521 0.068644
0.024922 0.162464 0.055854
0.155034 0.151885 0.016814
0.311565 0.139492 0.013410
0.457398 0.125002 0.041703
0.601457 0.115957 0.066543
0.744647 0.113117 0.088778
0.879349 0.130254 0.104329
0.958979 0.143833 0.092504
0.981854 0.137910 0.053976
0.075628 0.306780 0.093829
0.145643 0.298031 0.063522
0.294502 0.287262 0.018589
0.446854 0.276367 0.000000
0.588996 0.261734 0.024350
0.724427 0.245678 0.046589
0.855321 0.233864 0.069528
0.953165 0.221485 0.078541
0.984100 0.199504 0.037020
0.097864 0.442247 0.123528
0.151659 0.436935 0.099982
0.275373 0.426965 0.058226
0.428692 0.419876 0.000000
0.579351 0.409797 0.000000
0.721770 0.397367 0.008571
0.855934 0.382985 0.043993
0.956955 0.355886 0.061669
0.993052 0.311526 0.050830
0.111637 0.574754 0.149469
0.158336 0.570987 0.131404
0.262723 0.562487 0.089200
0.404411 0.557307 0.040715
0.560258 0.551417 0.000000
0.710330 0.543181 0.000000
0.851399 0.534049 0.019018
0.958077 0.508981 0.058790
0.994228 0.453970 0.062865
0.126307 0.703844 0.171450
0.164485 0.700635 0.154664
0.256862 0.693026 0.114847
0.380542 0.687333 0.071031
0.536149 0.687637 0.024260
0.693484 0.684830 0.022854
0.837509 0.676710 0.022730
0.952257 0.655283 0.053143
0.994986 0.600486 0.067503
0.121539 0.831006 0.190103
0.158975 0.827927 0.175561
0.250876 0.820919 0.141115
0.365882 0.814260 0.096501
0.513075 0.816136 0.061470
0.671217 0.815702 0.036092
0.819605 0.810233 0.037345
0.945321 0.795439 0.054050
0.999051 0.741396 0.060726
0.126062 0.946402 0.195565
0.165149 0.944228 0.183526
0.247302 0.937585 0.151651
0.348114 0.930411 0.112244
0.477436 0.931018 0.079387
0.637496 0.935188 0.052234
0.797296 0.933591 0.049434
0.930597 0.923708 0.061374
1.000000 0.879633 0.072962
0.126638 1.000000 0.154558
0.168929 1.000000 0.146702
0.247917 0.999783 0.120897
0.337771 0.997166 0.092891
0.437784 0.999653 0.085869
0.575919 1.000000 0.085557
0.733892 1.000000 0.080649
0.880663 1.000000 0.069748
0.990879 0.994430 0.082390
0.028598 0.034749 0.150228
0.166555 0.000000 0.150874
0.324050 0.000000 0.163038
0.475640 0.000000 0.177725
0.620438 0.000000 0.190074
0.761753 0.000000 0.201694
0.891262 0.077222 0.210436
0.962584 0.106258 0.194342
0.983694 0.102275 0.155329
0.000000 0.163490 0.158883
0.147848 0.149742 0.149507
0.307620 0.129099 0.143369
0.451613 0.105806 0.147405
0.596181 0.092058 0.161420
0.739952 0.086506 0.177292
0.876771 0.112404 0.192993
0.958193 0.133992 0.185096
0.981944 0.124585 0.147053
0.000000 0.303666 0.176897
0.116279 0.293144 0.159938
0.286667 0.284205 0.146138
0.443562 0.269912 0.142224
0.583912 0.248495 0.139522
0.719445 0.228225 0.145718
0.852850 0.215105 0.161069
0.956066 0.216503 0.175463
0.984442 0.184209 0.134906
0.027716 0.438882 0.199845
0.107815 0.432073 0.183864
0.244986 0.418228 0.152974
0.416164 0.411261 0.138977
0.571986 0.400173 0.136928
0.715693 0.384657 0.137530
0.851914 0.367073 0.141578
0.962020 0.343430 0.148418
1.000000 0.300735 0.136598
0.045951 0.570051 0.218952
0.112920 0.565730 0.205598
0.217601 0.551935 0.172240
0.377129 0.542063 0.141991
0.543653 0.535994 0.132212
0.700089 0.529310 0.133306
0.844832 0.517870 0.136699
0.960303 0.493402 0.143008
1.000000 0.441048 0.138387
0.072281 0.699107 0.239098
0.124872 0.695733 0.227110
0.212965 0.684193 0.195309
0.340991 0.671285 0.158305
0.512569 0.669929 0.139415
0.680388 0.671762 0.141126
0.831818 0.664004 0.140562
0.950675 0.636279 0.140754
0.996849 0.580225 0.131643
0.082679 0.825621 0.254522
0.130746 0.822683 0.243914
0.220664 0.813723 0.215917
0.339738 0.804782 0.183524
0.490929 0.804780 0.160039
0.656011 0.806259 0.150031
0.811479 0.800370 0.144892
0.942383 0.776847 0.136380
0.997720 0.719510 0.114751
0.093915 0.945540 0.266028
0.139379 0.943447 0.257152
0.221320 0.935831 0.230893
0.324524 0.927976 0.198134
0.457739 0.927811 0.171842
0.620540 0.930668 0.154736
0.784974 0.926993 0.141730
0.923427 0.909985 0.128828
0.999022 0.860825 0.110195
0.094823 1.000000 0.228822
0.138842 1.000000 0.221674
0.220454 1.000000 0.203808
0.310525 0.997569 0.183831
0.418300 1.000000 0.167822
0.561832 1.000000 0.149294
0.724892 1.000000 0.132169
0.879527 1.000000 0.113799
0.997449 0.994460 0.116927
0.034844 0.059573 0.273666
0.158570 0.000000 0.279053
0.317031 0.000000 0.287685
0.468114 0.000000 0.300662
0.613026 0.000000 0.313285
0.753661 0.008409 0.326224
0.881026 0.082682 0.335400
0.956352 0.106099 0.319394
0.983208 0.099464 0.280569
0.000000 0.169112 0.280651
0.133282 0.145890 0.279312
0.301192 0.125063 0.278761
0.448786 0.104968 0.280810
0.593586 0.093314 0.291843
0.736276 0.094967 0.306597
0.870374 0.120323 0.321359
0.951967 0.136819 0.311571
0.981445 0.125432 0.274371
0.005046 0.300857 0.293202
0.115804 0.292355 0.286636
0.281862 0.283345 0.283262
0.440097 0.268183 0.279580
0.579700 0.242171 0.272515
0.716198 0.222815 0.276903
0.850701 0.217294 0.291804
0.950027 0.219571 0.298144
0.981208 0.187720 0.259314
0.000000 0.431599 0.314386
0.104923 0.426919 0.306363
0.241881 0.417353 0.286781
0.414071 0.411703 0.279883
0.569832 0.399519 0.277507
0.713646 0.381946 0.274941
0.849005 0.360900 0.273554
0.955699 0.338665 0.273977
1.000000 0.302553 0.253402
0.000000 0.560870 0.337287
0.092765 0.557524 0.328383
0.206881 0.546723 0.303358
0.368560 0.538429 0.278493
0.538512 0.533217 0.270944
0.695048 0.524029 0.271198
0.841040 0.509296 0.269964
0.957783 0.483320 0.266822
1.000000 0.440219 0.255357
0.000000 0.688388 0.358037
0.087646 0.685452 0.349274
0.190009 0.675976 0.324820
0.327901 0.664072 0.292699
0.497474 0.660017 0.272966
0.667097 0.659261 0.269673
0.822200 0.649797 0.269005
0.943488 0.621441 0.262065
1.000000 0.571719 0.247331
0.056055 0.814327 0.376121
0.104510 0.811508 0.367928
0.187023 0.802275 0.344457
0.306299 0.791242 0.313872
0.463391 0.789964 0.290167
0.635809 0.793289 0.278330
0.797537 0.783520 0.267200
0.927051 0.751773 0.247170
1.000000 0.700234 0.222996
0.076580 0.933506 0.387814
0.118705 0.931945 0.381125
0.193934 0.926739 0.361096
0.295529 0.921034 0.332609
0.428293 0.920909 0.306157
0.594863 0.922181 0.284759
0.762868 0.912717 0.261103
0.906029 0.883824 0.225304
0.997044 0.834378 0.187484
0.084533 1.000000 0.366260
0.123870 1.000000 0.360812
0.199771 0.998878 0.344534
0.288314 0.996996 0.318115
0.397835 0.998899 0.285679
0.548492 1.000000 0.256998
0.710159 1.000000 0.220955
0.873219 1.000000 0.181937
0.997467 0.983906 0.175239
0.049398 0.079735 0.383335
0.148432 0.047260 0.395964
0.306903 0.000000 0.406117
0.458261 0.000000 0.416071
0.604054 0.000000 0.429306
0.744528 0.023822 0.442677
0.874207 0.083817 0.453221
0.952152 0.104441 0.436171
0.983356 0.097988 0.396354
0.000000 0.173956 0.395327
0.120987 0.149396 0.400763
0.292280 0.121925 0.405703
0.444179 0.104185 0.406301
0.589039 0.092699 0.413705
0.730804 0.098279 0.426758
0.863673 0.122009 0.439842
0.948691 0.137868 0.428772
0.981119 0.127647 0.390147
0.000000 0.305031 0.401727
0.107616 0.295577 0.402391
0.268837 0.279961 0.409315
0.431648 0.262017 0.406452
0.574811 0.239701 0.401373
0.713029 0.223550 0.404058
0.847480 0.220810 0.415442
0.947149 0.222771 0.415687
0.980640 0.194103 0.375714
0.000000 0.428068 0.418392
0.107703 0.424075 0.415048
0.239979 0.416513 0.410435
0.408983 0.410172 0.410206
0.565706 0.399651 0.409775
0.709794 0.382085 0.406571
0.846434 0.363952 0.406016
0.953134 0.345019 0.402105
0.996360 0.305539 0.369400
0.000000 0.553042 0.442059
0.101823 0.550674 0.437233
0.218628 0.544421 0.424059
0.370818 0.541268 0.411708
0.538276 0.534991 0.407965
0.691681 0.524041 0.407412
0.837535 0.510277 0.405066
0.959508 0.489859 0.401551
1.000000 0.444504 0.376392
0.000000 0.678600 0.466117
0.098026 0.676882 0.460587
0.202525 0.670846 0.444555
0.335386 0.664095 0.422530
0.498143 0.661646 0.406347
0.663082 0.655899 0.402709
0.815989 0.645821 0.402613
0.948337 0.631224 0.404723
1.000000 0.577160 0.378502
0.036959 0.804196 0.487052
0.102079 0.802308 0.481411
0.191864 0.796381 0.464833
0.306108 0.787323 0.441205
0.457679 0.784371 0.418184
0.626586 0.784623 0.404181
0.789057 0.775752 0.395600
0.924898 0.753720 0.388096
1.000000 0.706639 0.370161
0.070307 0.922626 0.500189
0.110139 0.921609 0.495163
0.184044 0.917011 0.480194
0.281980 0.911019 0.458346
0.413952 0.911963 0.435797
0.582696 0.914267 0.413472
0.751893 0.903461 0.389195
0.898492 0.876573 0.360646
1.000000 0.835926 0.341684
0.127372 0.999216 0.483981
0.153205 0.998771 0.478768
0.211359 0.997297 0.463583
0.292808 0.994745 0.437651
0.397843 0.995460 0.409031
0.545862 1.000000 0.386722
0.704004 1.000000 0.360914
0.866197 1.000000 0.333368
1.000000 0.983594 0.323504
0.069600 0.100833 0.509497
0.144174 0.080050 0.503576
0.296377 0.010264 0.521834
0.448359 0.000000 0.530986
0.594388 0.000000 0.541224
0.735804 0.000000 0.553818
0.867318 0.084065 0.565035
0.949220 0.095949 0.546868
0.983014 0.087220 0.504520
0.012817 0.179878 0.504351
0.114559 0.159032 0.515018
0.281161 0.123017 0.526230
0.438681 0.106298 0.528300
0.583832 0.092479 0.532222
0.725317 0.097046 0.542482
0.859030 0.122614 0.553917
0.947096 0.132880 0.540454
0.980849 0.122459 0.498752
0.000000 0.311223 0.512072
0.095570 0.300496 0.516916
0.247824 0.273565 0.525745
0.419583 0.253098 0.529018
0.568547 0.234622 0.524387
0.709013 0.221476 0.525379
0.844727 0.220946 0.533248
0.945931 0.221370 0.528310
0.980313 0.197604 0.486210
0.000000 0.431445 0.520013
0.101365 0.427413 0.520779
0.228418 0.416744 0.524390
0.399715 0.409054 0.535108
0.558818 0.395763 0.532726
0.704450 0.378834 0.530192
0.843867 0.365991 0.532276
0.952656 0.350633 0.524900
0.993009 0.308561 0.482162
0.000000 0.550831 0.540236
0.104630 0.548939 0.538205
0.218436 0.543468 0.533237
0.365672 0.539581 0.533099
0.532257 0.532994 0.533176
0.686352 0.522473 0.532406
0.833712 0.511636 0.533825
0.958148 0.495944 0.530623
1.000000 0.446654 0.492232
0.033163 0.672605 0.564808
0.107123 0.671249 0.561452
0.207537 0.667076 0.552061
0.338691 0.663174 0.540965
0.495962 0.662137 0.533541
0.658735 0.654683 0.531197
0.811669 0.645602 0.532238
0.946448 0.636563 0.536975
1.000000 0.582344 0.501053
0.044801 0.796366 0.588851
0.104553 0.795439 0.585071
0.198911 0.791233 0.573748
0.314774 0.784844 0.556974
0.458479 0.782280 0.540459
0.622472 0.781368 0.529807
0.784037 0.773950 0.527074
0.929181 0.765568 0.534419
1.000000 0.717777 0.511971
0.059152 0.915509 0.604012
0.106744 0.914716 0.600324
0.189243 0.911468 0.589759
0.286875 0.905844 0.574053
0.417019 0.906575 0.556784
0.578712 0.908321 0.538617
0.748278 0.900225 0.523555
0.901196 0.884821 0.515767
1.000000 0.847785 0.502344
0.126961 0.999446 0.589264
0.153556 0.999115 0.585048
0.213787 0.997847 0.572172
0.294272 0.994637 0.551457
0.400269 0.994792 0.529305
0.545137 0.999534 0.515645
0.703257 1.000000 0.504902
0.862652 1.000000 0.487826
1.000000 0.986431 0.476726
0.082896 0.119461 0.641706
0.145219 0.096769 0.636662
0.285383 0.048842 0.633303
0.438783 0.000000 0.645631
0.584971 0.000000 0.653194
0.726837 0.000000 0.663455
0.858906 0.076771 0.672658
0.948507 0.086522 0.655940
0.983113 0.070720 0.608913
0.031030 0.188826 0.624658
0.117164 0.171932 0.624166
0.267959 0.130226 0.641096
0.430636 0.104588 0.648080
0.577701 0.090659 0.649613
0.719379 0.094541 0.656605
0.853067 0.119978 0.665099
0.945163 0.125724 0.649431
0.981964 0.114576 0.604617
0.000000 0.316365 0.622073
0.092757 0.306480 0.630423
0.228892 0.273331 0.641610
0.406675 0.247558 0.650682
0.562557 0.228764 0.646542
0.705054 0.217385 0.644755
0.840738 0.217248 0.647767
0.945058 0.217438 0.638722
0.980338 0.197083 0.593866
0.000000 0.437451 0.625459
0.087028 0.432683 0.629148
0.211379 0.418353 0.637498
0.381879 0.403930 0.652398
0.549355 0.388171 0.654095
0.699048 0.372562 0.651228
0.841311 0.363439 0.652872
0.951365 0.351262 0.641704
0.990355 0.310649 0.592445
0.022328 0.554183 0.638947
0.099191 0.552006 0.639136
0.205376 0.545313 0.639422
0.353034 0.538433 0.647145
0.523107 0.531503 0.655298
0.679731 0.520346 0.653152
0.829466 0.510367 0.656232
0.956010 0.497463 0.651733
1.000000 0.447632 0.604121
0.044833 0.671059 0.659930
0.101434 0.670162 0.658663
0.204862 0.666332 0.653914
0.333142 0.662107 0.650689
0.488939 0.660025 0.653301
0.652790 0.653011 0.653320
0.806692 0.644701 0.654838
0.941219 0.634791 0.655154
0.999666 0.583409 0.613513
0.048670 0.791595 0.685043
0.109304 0.790664 0.682509
0.203758 0.787414 0.674896
0.315304 0.782375 0.664340
0.456285 0.780762 0.656985
0.616907 0.780167 0.653000
0.778467 0.772794 0.651901
0.925926 0.766570 0.658642
1.000000 0.725323 0.636398
0.054284 0.910142 0.703295
0.109394 0.909515 0.700730
0.191114 0.907347 0.692932
0.294132 0.903069 0.681319
0.417921 0.903008 0.670590
0.574444 0.904965 0.658990
0.744620 0.899784 0.652629
0.903744 0.893170 0.658133
1.000000 0.857901 0.645234
0.135220 0.997513 0.691722
0.158231 0.997711 0.688896
0.220443 0.996014 0.678972
0.298337 0.994063 0.663704
0.399244 0.994057 0.646701
0.540258 0.997874 0.636845
0.702470 1.000000 0.638318
0.863675 1.000000 0.635371
1.000000 0.992419 0.625898
0.081340 0.131760 0.773364
0.138269 0.105621 0.772073
0.273087 0.064874 0.742969
0.427301 0.000000 0.757887
0.575284 0.000000 0.765657
0.716984 0.000000 0.772230
0.850706 0.051147 0.780156
0.945055 0.069905 0.762642
0.983631 0.047233 0.711574
0.000000 0.196388 0.758858
0.106142 0.179421 0.758305
0.252856 0.137074 0.751477
0.419655 0.106893 0.763462
0.570255 0.086495 0.766232
0.712388 0.084369 0.770004
0.846736 0.106594 0.775470
0.944408 0.117033 0.759261
0.982466 0.104629 0.708957
0.000000 0.321727 0.732680
0.081769 0.310350 0.740809
0.212674 0.276944 0.755709
0.393300 0.247843 0.769366
0.556398 0.225738 0.768963
0.701161 0.211443 0.764335
0.837235 0.210806 0.763079
0.944231 0.212352 0.749838
0.980830 0.193874 0.700781
0.000000 0.444004 0.736175
0.081288 0.438681 0.741302
0.189276 0.420034 0.750870
0.362733 0.402003 0.767877
0.539478 0.385008 0.776858
0.694249 0.367746 0.773346
0.838386 0.358791 0.771694
0.953491 0.350285 0.758659
0.988796 0.310977 0.702012
0.000000 0.560413 0.743119
0.088692 0.558104 0.745641
0.191993 0.549484 0.749542
0.334269 0.538816 0.760196
0.509864 0.530663 0.775634
0.674008 0.518302 0.776272
0.826488 0.508095 0.777868
0.954880 0.495921 0.769640
1.000000 0.446923 0.713533
0.039484 0.675257 0.759074
0.104643 0.673994 0.758826
0.199119 0.669864 0.757756
0.318280 0.663154 0.758099
0.475324 0.659111 0.768805
0.644087 0.651664 0.774230
0.801214 0.643055 0.774898
0.938175 0.632865 0.771563
0.998888 0.585349 0.724864
0.057121 0.790928 0.780026
0.105794 0.790440 0.778961
0.198911 0.787536 0.774439
0.309429 0.782497 0.768212
0.446957 0.780071 0.768085
0.608605 0.778790 0.772161
0.771218 0.770825 0.771296
0.920470 0.764301 0.774293
1.000000 0.729515 0.748729
0.075569 0.905860 0.798947
0.117346 0.905648 0.797419
0.197761 0.904090 0.792301
0.296469 0.900172 0.783782
0.417792 0.900243 0.778392
0.568637 0.903324 0.776327
0.737010 0.897754 0.772373
0.898428 0.891946 0.777062
1.000000 0.865649 0.770475
0.145695 0.994936 0.792889
0.170778 0.994630 0.790540
0.227510 0.993851 0.783868
0.304566 0.992506 0.773209
0.400359 0.992992 0.761525
0.536202 0.996792 0.755688
0.696926 1.000000 0.759962
0.858827 1.000000 0.763235
0.999448 0.993709 0.757771
0.098118 0.149136 0.884134
0.145412 0.128250 0.884435
0.259144 0.037107 0.875258
0.413579 0.000000 0.865928
0.563946 0.000000 0.875968
0.705361 0.000000 0.879654
0.840853 0.000000 0.886681
0.943324 0.044291 0.871890
0.983620 0.017551 0.813770
0.023693 0.204387 0.885047
0.109835 0.189297 0.886608
0.239830 0.145318 0.863082
0.405171 0.111102 0.872264
0.560796 0.089510 0.879879
0.702984 0.077917 0.880722
0.839399 0.088578 0.885495
0.944508 0.106055 0.871335
0.983092 0.097714 0.812754
0.000000 0.324724 0.837589
0.083663 0.315644 0.848114
0.202524 0.283073 0.863289
0.381715 0.256010 0.878320
0.548053 0.233189 0.885740
0.695188 0.215028 0.882253
0.833163 0.207797 0.879731
0.945672 0.207973 0.864885
0.983817 0.195082 0.810253
0.040842 0.448798 0.846503
0.089705 0.443979 0.855738
0.189488 0.423957 0.865128
0.352968 0.403641 0.877592
0.528851 0.388130 0.890782
0.685597 0.370918 0.890684
0.830504 0.358491 0.887893
0.952622 0.350222 0.874870
0.989732 0.312394 0.813359
0.067496 0.567681 0.851704
0.106325 0.565558 0.857116
0.187164 0.554659 0.864117
0.321855 0.538955 0.871336
0.499366 0.529315 0.889651
0.665664 0.517343 0.895665
0.818058 0.506102 0.895003
0.950258 0.493843 0.885483
0.996764 0.445898 0.822790
0.084734 0.681702 0.862928
0.118607 0.681149 0.865816
0.194902 0.675883 0.868326
0.306436 0.665627 0.868889
0.462010 0.658911 0.883548
0.634909 0.651135 0.894757
0.795016 0.641931 0.895727
0.936055 0.631736 0.889418
0.997473 0.585476 0.834912
0.085750 0.794723 0.878966
0.125947 0.794150 0.879202
0.202843 0.791890 0.878850
0.303353 0.785568 0.874898
0.432952 0.780980 0.878771
0.597834 0.778061 0.890029
0.763685 0.769933 0.892212
0.916770 0.763105 0.891955
1.000000 0.730411 0.855938
0.105958 0.906023 0.895333
0.135383 0.906464 0.895437
0.209503 0.905387 0.893244
0.300112 0.901878 0.887801
0.413647 0.899580 0.884807
0.560299 0.901478 0.890115
0.727728 0.895915 0.889916
0.887841 0.886806 0.887571
1.000000 0.870087 0.880007
0.161409 0.992609 0.889879
0.182163 0.992786 0.888950
0.237593 0.992629 0.885452
0.312140 0.991874 0.879193
0.404993 0.992422 0.873003
0.533655 0.996980 0.872233
0.690201 1.000000 0.878430
0.852416 1.000000 0.882982
1.000000 0.998548 0.885131
0.110746 0.161434 0.979898
0.152609 0.145501 0.980290
0.253387 0.084724 0.979113
0.396870 0.053764 0.958673
0.546744 0.000000 0.974349
0.687054 0.000000 0.977341
0.823514 0.000000 0.983866
0.934044 0.046985 0.973216
0.982111 0.062779 0.911896
0.062623 0.207063 0.984893
0.120583 0.195211 0.987647
0.235307 0.154669 0.977295
0.390849 0.135260 0.964513
0.543692 0.118728 0.978399
0.685660 0.112308 0.980473
0.822802 0.106579 0.984766
0.934546 0.112786 0.973630
0.982790 0.112897 0.913563
0.042532 0.325491 0.953540
0.101806 0.317552 0.953456
0.212023 0.289974 0.955335
0.374132 0.268117 0.967378
0.532902 0.253783 0.981987
0.678961 0.241073 0.984227
0.817808 0.228503 0.985302
0.933522 0.220277 0.972566
0.983214 0.209678 0.914547
0.085341 0.447378 0.949697
0.126544 0.441406 0.954370
0.216130 0.423069 0.963123
0.353285 0.401209 0.968284
0.514335 0.390090 0.982384
0.666075 0.379359 0.988612
0.808013 0.367867 0.987861
0.928613 0.353530 0.974991
0.987482 0.325740 0.920308
0.115698 0.567792 0.952126
0.146937 0.564301 0.955959
0.222242 0.553500 0.965407
0.338413 0.534912 0.970145
0.493342 0.522751 0.983678
0.648748 0.514580 0.993633
0.795796 0.504434 0.993369
0.924534 0.490022 0.982828
0.989704 0.454661 0.928073
0.132687 0.681426 0.959021
0.159737 0.680413 0.963353
0.228259 0.675188 0.970258
0.325274 0.662703 0.972902
0.465971 0.651924 0.984433
0.625234 0.645392 0.996486
0.778123 0.637087 0.998219
0.914578 0.624853 0.989714
0.989558 0.590665 0.939238
0.146881 0.792480 0.969262
0.171718 0.792680 0.972258
0.238052 0.790749 0.976849
0.323866 0.784157 0.978798
0.444032 0.776475 0.983914
0.594472 0.772500 0.996522
0.753439 0.766081 1.000000
0.900801 0.756845 0.997257
0.992593 0.731744 0.958086
0.164204 0.901913 0.982568
0.188908 0.902583 0.984375
0.246543 0.903595 0.987898
0.327779 0.900621 0.987628
0.427949 0.895025 0.985968
0.563600 0.894339 0.994894
0.721841 0.891851 1.000000
0.878846 0.884624 1.000000
0.997811 0.870028 0.980620
0.194933 0.988517 0.976523
0.212430 0.989128 0.977238
0.259621 0.989964 0.977851
0.329021 0.989169 0.975725
0.417539 0.989112 0.974472
0.540146 0.995272 0.981508
0.689944 1.000000 0.990613
0.848045 1.000000 0.996365
1.000000 0.999981 0.999993
